(This GCode script was designed to adjust the Z height of a CNC machine according)
(to the minute variations in the surface height in order to achieve a better result in the milling/etching process)
(This script is the output of AutoLevellerAE, 0.9.4u2 Changeset: ...e37a75 @ http://autoleveller.co.uk)
(Author: James Hawthorne PhD. File creation date: 02-05-2018 22:35)
(This program and any of its output is licensed under GPLv2 and as such...)
(AutoLevellerAE comes with ABSOLUTELY NO WARRANTY; for details, see sections 11 and 12 of the GPLv2 @ http://www.gnu.org/licenses/old-licenses/gpl-2.0.html)

G90 G20 S20000 G17

M0 (Attach probe wires and clips that need attaching)
(Initialize probe routine)
G0 Z1.5 (Move clear of the board first)
G1 X0.0604 Y0.038 F35 (Move to bottom left corner)
G0 Z0.0787 (Quick move to probe clearance height)
G31 Z-0.0625 F5 (Probe to a maximum of the specified probe height at the specified feed rate)
G92 Z0 (Touch off Z to 0 once contact is made)
G0 Z0.0787 (Move Z to above the contact point)
G31 Z-0.0625 F2.5 (Repeat at a more accurate slower rate)
G92 Z0
G0 Z0.0787
M0 (Detach any clips used for probing)


G20
G90
G94
F15.00
G00 Z0.4000
M03 S16500
G4 P1
G00 X0.0790Y0.3276
G01 Z-0.00354
G01 X0.0810Y0.1724Z-0.00427
G01 X0.0817Y0.1664Z-0.00429
G01 X0.0836Y0.1604Z-0.00432
G01 X0.0896Y0.1512Z-0.00434
G01 X0.1864Y0.0474Z-0.00439
G01 X0.1903Y0.0440Z-0.00439
G01 X0.1957Y0.0409Z-0.00437
G01 X0.2017Y0.0389Z-0.00435
G01 X0.2079Y0.0380Z-0.00433
G01 X0.39490Y0.03800Z-0.00348 ;segmented line. Max segment length set to 0.187
G01 X0.58190Y0.03800Z-0.00270 ;segmented line. Max segment length set to 0.187
G01 X0.76890Y0.03800Z-0.00194 ;segmented line. Max segment length set to 0.187
G01 X0.95590Y0.03800Z-0.00121 ;segmented line. Max segment length set to 0.187
G01 X1.14290Y0.03800Z-0.00051 ;segmented line. Max segment length set to 0.187
G01 X1.32990Y0.03800Z0.00013 ;segmented line. Max segment length set to 0.187
G01 X1.51690Y0.03800Z0.00069 ;segmented line. Max segment length set to 0.187
G01 X1.70390Y0.03800Z0.00130 ;segmented line. Max segment length set to 0.187
G01 X1.89090Y0.03800Z0.00196 ;segmented line. Max segment length set to 0.187
G01 X2.07790Y0.03800Z0.00259 ;segmented line. Max segment length set to 0.187
G01 X2.26490Y0.03800Z0.00316 ;segmented line. Max segment length set to 0.187
G01 X2.45190Y0.03800Z0.00375 ;segmented line. Max segment length set to 0.187
G01 X2.63890Y0.03800Z0.00441 ;segmented line. Max segment length set to 0.187
G01 X2.82590Y0.03800Z0.00505 ;segmented line. Max segment length set to 0.187
G01 X3.01290Y0.03800Z0.00556 ;segmented line. Max segment length set to 0.187
G01 X3.19990Y0.03800Z0.00607 ;segmented line. Max segment length set to 0.187
G01 X3.38690Y0.03800Z0.00650 ;segmented line. Max segment length set to 0.187
G01 X3.57390Y0.03801Z0.00692 ;segmented line. Max segment length set to 0.187
G01 X3.76090Y0.03801Z0.00725 ;segmented line. Max segment length set to 0.187
G01 X3.94790Y0.03802Z0.00759 ;segmented line. Max segment length set to 0.187
G01 X4.13490Y0.03802Z0.00773 ;segmented line. Max segment length set to 0.187
G01 X4.32190Y0.03803Z0.00787 ;segmented line. Max segment length set to 0.187
G01 X4.50890Y0.03803Z0.00789 ;segmented line. Max segment length set to 0.187
G01 X4.69590Y0.03804Z0.00789 ;segmented line. Max segment length set to 0.187
G01 X4.88290Y0.03804Z0.00782 ;segmented line. Max segment length set to 0.187
G01 X5.06990Y0.03805Z0.00773 ;segmented line. Max segment length set to 0.187
G01 X5.25690Y0.03805Z0.00760 ;segmented line. Max segment length set to 0.187
G01 X5.44390Y0.03806Z0.00745 ;segmented line. Max segment length set to 0.187
G01 X5.63090Y0.03806Z0.00722 ;segmented line. Max segment length set to 0.187
G01 X5.81790Y0.03807Z0.00694 ;segmented line. Max segment length set to 0.187
G01 X6.00490Y0.03807Z0.00663 ;segmented line. Max segment length set to 0.187
G01 X6.19190Y0.03808Z0.00630 ;segmented line. Max segment length set to 0.187
G01 X6.37890Y0.03808Z0.00589 ;segmented line. Max segment length set to 0.187
G01 X6.56590Y0.03809Z0.00537 ;segmented line. Max segment length set to 0.187
G01 X6.75290Y0.03809Z0.00481 ;segmented line. Max segment length set to 0.187
G01 X6.93990Y0.03810Z0.00420 ;segmented line. Max segment length set to 0.187
G01 X7.0096Y0.0381Z0.00397
G01 X7.0196Y0.0406Z0.00395
G01 X7.0248Y0.0434Z0.00395
G01 X7.0292Y0.0470Z0.00395
G01 X7.16372Y0.17689Z0.00410 ;segmented line. Max segment length set to 0.187
G01 X7.2354Y0.2461Z0.00414
G01 X7.2406Y0.2529Z0.00415
G01 X7.2435Y0.2592Z0.00416
G01 X7.2450Y0.2682Z0.00420
G01 X7.24936Y0.45515Z0.00503 ;segmented line. Max segment length set to 0.187
G01 X7.25373Y0.64210Z0.00565 ;segmented line. Max segment length set to 0.187
G01 X7.25809Y0.82905Z0.00626 ;segmented line. Max segment length set to 0.187
G01 X7.2597Y0.8980Z0.00648
G01 X7.2676Y0.9058Z0.00648
G01 X7.2749Y0.9180Z0.00649
G01 X7.2784Y0.9317Z0.00652
G01 X7.2784Y0.9419Z0.00655
G01 X7.2765Y0.9514Z0.00659
G01 X7.2728Y0.9604Z0.00664
G01 X7.2674Y0.9685Z0.00669
G01 X7.2608Y0.9751Z0.00673
G01 X7.2527Y0.9806Z0.00679
G01 X7.2476Y0.9830Z0.00681
G01 X7.2387Y0.9857Z0.00686
G01 X7.2290Y0.9867Z0.00690
G01 X7.2193Y0.9857Z0.00694
G01 X7.2104Y0.9830Z0.00697
G01 X7.2053Y0.9806Z0.00698
G01 X7.1972Y0.9751Z0.00699
G01 X7.1906Y0.9685Z0.00700
G01 X7.1852Y0.9604Z0.00700
G01 X7.1815Y0.9514Z0.00698
G01 X7.1796Y0.9423Z0.00696
G01 X7.1796Y0.9317Z0.00693
G01 X7.1831Y0.9180Z0.00687
G01 X7.1879Y0.9091Z0.00682
G01 X7.1965Y0.8995Z0.00676
G01 X7.19189Y0.71256Z0.00616 ;segmented line. Max segment length set to 0.187
G01 X7.18728Y0.52562Z0.00555 ;segmented line. Max segment length set to 0.187
G01 X7.18267Y0.33868Z0.00481 ;segmented line. Max segment length set to 0.187
G01 X7.1813Y0.2829Z0.00454
G01 X7.04683Y0.15295Z0.00443 ;segmented line. Max segment length set to 0.187
G01 X6.9941Y0.1020Z0.00435
G01 X6.80710Y0.10200Z0.00496 ;segmented line. Max segment length set to 0.187
G01 X6.62010Y0.10200Z0.00554 ;segmented line. Max segment length set to 0.187
G01 X6.43310Y0.10200Z0.00606 ;segmented line. Max segment length set to 0.187
G01 X6.24610Y0.10200Z0.00653 ;segmented line. Max segment length set to 0.187
G01 X6.05910Y0.10200Z0.00686 ;segmented line. Max segment length set to 0.187
G01 X5.87210Y0.10200Z0.00718 ;segmented line. Max segment length set to 0.187
G01 X5.68510Y0.10200Z0.00745 ;segmented line. Max segment length set to 0.187
G01 X5.49810Y0.10200Z0.00771 ;segmented line. Max segment length set to 0.187
G01 X5.31110Y0.10200Z0.00785 ;segmented line. Max segment length set to 0.187
G01 X5.12410Y0.10200Z0.00799 ;segmented line. Max segment length set to 0.187
G01 X4.93710Y0.10200Z0.00808 ;segmented line. Max segment length set to 0.187
G01 X4.75010Y0.10200Z0.00816 ;segmented line. Max segment length set to 0.187
G01 X4.56310Y0.10200Z0.00816 ;segmented line. Max segment length set to 0.187
G01 X4.37610Y0.10200Z0.00815 ;segmented line. Max segment length set to 0.187
G01 X4.18910Y0.10200Z0.00803 ;segmented line. Max segment length set to 0.187
G01 X4.00210Y0.10200Z0.00788 ;segmented line. Max segment length set to 0.187
G01 X3.81510Y0.10200Z0.00760 ;segmented line. Max segment length set to 0.187
G01 X3.62810Y0.10200Z0.00729 ;segmented line. Max segment length set to 0.187
G01 X3.44110Y0.10200Z0.00689 ;segmented line. Max segment length set to 0.187
G01 X3.25410Y0.10200Z0.00646 ;segmented line. Max segment length set to 0.187
G01 X3.06710Y0.10200Z0.00598 ;segmented line. Max segment length set to 0.187
G01 X2.88010Y0.10200Z0.00547 ;segmented line. Max segment length set to 0.187
G01 X2.69310Y0.10200Z0.00488 ;segmented line. Max segment length set to 0.187
G01 X2.50610Y0.10200Z0.00421 ;segmented line. Max segment length set to 0.187
G01 X2.31910Y0.10200Z0.00359 ;segmented line. Max segment length set to 0.187
G01 X2.13210Y0.10200Z0.00303 ;segmented line. Max segment length set to 0.187
G01 X1.94510Y0.10200Z0.00243 ;segmented line. Max segment length set to 0.187
G01 X1.75810Y0.10200Z0.00174 ;segmented line. Max segment length set to 0.187
G01 X1.57110Y0.10200Z0.00108 ;segmented line. Max segment length set to 0.187
G01 X1.38410Y0.10200Z0.00048 ;segmented line. Max segment length set to 0.187
G01 X1.19710Y0.10200Z-0.00014 ;segmented line. Max segment length set to 0.187
G01 X1.01010Y0.10200Z-0.00083 ;segmented line. Max segment length set to 0.187
G01 X0.82310Y0.10200Z-0.00152 ;segmented line. Max segment length set to 0.187
G01 X0.63610Y0.10200Z-0.00231 ;segmented line. Max segment length set to 0.187
G01 X0.44910Y0.10200Z-0.00310 ;segmented line. Max segment length set to 0.187
G01 X0.26210Y0.10200Z-0.00386 ;segmented line. Max segment length set to 0.187
G01 X0.2229Y0.1020Z-0.00402
G01 X0.1448Y0.1858Z-0.00398
G01 X0.1430Y0.3284Z-0.00338
G01 X0.1424Y0.3344Z-0.00335
G01 X0.1511Y0.3441Z-0.00329
G01 X0.1557Y0.3526Z-0.00325
G01 X0.1587Y0.3623Z-0.00320
G01 X0.1597Y0.3722Z-0.00315
G01 X0.1576Y0.3860Z-0.00310
G01 X0.1538Y0.3954Z-0.00307
G01 X0.1454Y0.4068Z-0.00304
G01 X0.1376Y0.4133Z-0.00302
G01 X0.1290Y0.4179Z-0.00302
G01 X0.1197Y0.4207Z-0.00302
G01 X0.1100Y0.4217Z-0.00303
G01 X0.1003Y0.4207Z-0.00306
G01 X0.0910Y0.4179Z-0.00308
G01 X0.0824Y0.4133Z-0.00312
G01 X0.0749Y0.4071Z-0.00316
G01 X0.0687Y0.3996Z-0.00321
G01 X0.0641Y0.3910Z-0.00326
G01 X0.0614Y0.3821Z-0.00331
G01 X0.0604Y0.3724Z-0.00336
G01 X0.0606Y0.3667Z-0.00339
G01 X0.0624Y0.3580Z-0.00343
G01 X0.0643Y0.3526Z-0.00345
G01 X0.0714Y0.3408Z-0.00349
G01 X0.0794Y0.3329Z-0.00351
G01 X0.0790Y0.3276Z-0.00354
G00 Z0.4000
G00 X0.0713Y0.4425
G01 Z-0.00311
G01 X0.0728Y0.4372Z-0.00310
G01 X0.0788Y0.4310Z-0.00308
G01 X0.0827Y0.4294Z-0.00307
G01 X0.0893Y0.4294Z-0.00306
G01 X0.0955Y0.4323Z-0.00305
G01 X0.0990Y0.4358Z-0.00305
G01 X0.1009Y0.4393Z-0.00305
G01 X0.1017Y0.4426Z-0.00306
G01 X0.1017Y0.4572Z-0.00308
G01 X0.1653Y0.4566Z-0.00295
G01 X0.1654Y0.4417Z-0.00294
G01 X0.1686Y0.4351Z-0.00292
G01 X0.1722Y0.4318Z-0.00292
G01 X0.1773Y0.4295Z-0.00290
G01 X0.1843Y0.4294Z-0.00289
G01 X0.1891Y0.4313Z-0.00289
G01 X0.1932Y0.4352Z-0.00288
G01 X0.1957Y0.4415Z-0.00288
G01 X0.1957Y0.5024Z-0.00292
G01 X0.1937Y0.5081Z-0.00292
G01 X0.1898Y0.5122Z-0.00294
G01 X0.1839Y0.5147Z-0.00295
G01 X0.1413Y0.5145Z-0.00306
G01 X0.1366Y0.5125Z-0.00307
G01 X0.1338Y0.5102Z-0.00307
G01 X0.1305Y0.5037Z-0.00308
G01 X0.1308Y0.4941Z-0.00306
G01 X0.1323Y0.4915Z-0.00306
G01 X0.1360Y0.4877Z-0.00304
G01 X0.0798Y0.4877Z-0.00317
G01 X0.0759Y0.4867Z-0.00318
G01 X0.0728Y0.4838Z-0.00318
G01 X0.0713Y0.4799Z-0.00318
G01 X0.0713Y0.4425Z-0.00311
G00 Z0.4000
G00 X0.0713Y0.5425
G01 Z-0.00329
G01 X0.0717Y0.5395Z-0.00328
G01 X0.0730Y0.5368Z-0.00327
G01 X0.0807Y0.5300Z-0.00324
G01 X0.0893Y0.5294Z-0.00322
G01 X0.0958Y0.5325Z-0.00320
G01 X0.0994Y0.5365Z-0.00320
G01 X0.1017Y0.5421Z-0.00320
G01 X0.1017Y0.5841Z-0.00326
G01 X0.1183Y0.5837Z-0.00321
G01 X0.1185Y0.5473Z-0.00316
G01 X0.1218Y0.5392Z-0.00314
G01 X0.1278Y0.5330Z-0.00312
G01 X0.1320Y0.5308Z-0.00310
G01 X0.1376Y0.5293Z-0.00309
G01 X0.1872Y0.5293Z-0.00296
G01 X0.1911Y0.5303Z-0.00295
G01 X0.1944Y0.5335Z-0.00294
G01 X0.1957Y0.5376Z-0.00294
G01 X0.1957Y0.6024Z-0.00298
G01 X0.1937Y0.6081Z-0.00299
G01 X0.1895Y0.6124Z-0.00300
G01 X0.1832Y0.6147Z-0.00303
G01 X0.1747Y0.6140Z-0.00306
G01 X0.1686Y0.6089Z-0.00307
G01 X0.1660Y0.6043Z-0.00308
G01 X0.1653Y0.6015Z-0.00308
G01 X0.1653Y0.5599Z-0.00304
G01 X0.1487Y0.5603Z-0.00309
G01 X0.1485Y0.5977Z-0.00313
G01 X0.1450Y0.6052Z-0.00315
G01 X0.1385Y0.6117Z-0.00318
G01 X0.1343Y0.6140Z-0.00319
G01 X0.1312Y0.6147Z-0.00321
G01 X0.0886Y0.6147Z-0.00335
G01 X0.0829Y0.6127Z-0.00337
G01 X0.0740Y0.6042Z-0.00339
G01 X0.0714Y0.5973Z-0.00338
G01 X0.0713Y0.5425Z-0.00329
G00 Z0.4000
G00 X0.0713Y0.6425
G01 Z-0.00346
G01 X0.0718Y0.6391Z-0.00345
G01 X0.0735Y0.6362Z-0.00344
G01 X0.0778Y0.6320Z-0.00342
G01 X0.0825Y0.6297Z-0.00340
G01 X0.1145Y0.6297Z-0.00328
G01 X0.1884Y0.6585Z-0.00304
G01 X0.1935Y0.6632Z-0.00302
G01 X0.1952Y0.6660Z-0.00302
G01 X0.1953Y0.6775Z-0.00302
G01 X0.1937Y0.6805Z-0.00303
G01 X0.1898Y0.6845Z-0.00305
G01 X0.1837Y0.6879Z-0.00308
G01 X0.1155Y0.7143Z-0.00339
G01 X0.0815Y0.7143Z-0.00354
G01 X0.0772Y0.7122Z-0.00356
G01 X0.0746Y0.7099Z-0.00357
G01 X0.0714Y0.7032Z-0.00357
G01 X0.0720Y0.6937Z-0.00355
G01 X0.0778Y0.6870Z-0.00351
G01 X0.0841Y0.6843Z-0.00348
G01 X0.1095Y0.6833Z-0.00338
G01 X0.1380Y0.6722Z-0.00325
G01 X0.1060Y0.6597Z-0.00336
G01 X0.0838Y0.6597Z-0.00344
G01 X0.0803Y0.6589Z-0.00346
G01 X0.0765Y0.6567Z-0.00347
G01 X0.0733Y0.6531Z-0.00347
G01 X0.0715Y0.6487Z-0.00347
G01 X0.0713Y0.6425Z-0.00346
G00 Z0.4000
G00 X0.3597Y0.6722
G01 Z-0.00236
G01 X0.3587Y0.6817Z-0.00236
G01 X0.3559Y0.6910Z-0.00236
G01 X0.3513Y0.6996Z-0.00237
G01 X0.3451Y0.7071Z-0.00239
G01 X0.3376Y0.7133Z-0.00242
G01 X0.3290Y0.7179Z-0.00245
G01 X0.3197Y0.7207Z-0.00249
G01 X0.3100Y0.7217Z-0.00254
G01 X0.3003Y0.7207Z-0.00258
G01 X0.2910Y0.7179Z-0.00262
G01 X0.2824Y0.7133Z-0.00266
G01 X0.2749Y0.7071Z-0.00270
G01 X0.2687Y0.6996Z-0.00272
G01 X0.2641Y0.6910Z-0.00274
G01 X0.2613Y0.6817Z-0.00275
G01 X0.2603Y0.6720Z-0.00276
G01 X0.2613Y0.6623Z-0.00276
G01 X0.2641Y0.6530Z-0.00274
G01 X0.2687Y0.6444Z-0.00273
G01 X0.2749Y0.6369Z-0.00271
G01 X0.2824Y0.6307Z-0.00268
G01 X0.2910Y0.6261Z-0.00265
G01 X0.3003Y0.6233Z-0.00262
G01 X0.3100Y0.6223Z-0.00258
G01 X0.3197Y0.6233Z-0.00255
G01 X0.3290Y0.6261Z-0.00251
G01 X0.3376Y0.6307Z-0.00248
G01 X0.3451Y0.6369Z-0.00245
G01 X0.3513Y0.6444Z-0.00242
G01 X0.3559Y0.6530Z-0.00239
G01 X0.3587Y0.6623Z-0.00238
G01 X0.3597Y0.6722Z-0.00236
G00 Z0.4000
G00 X0.4093Y0.6605
G01 Z-0.00218
G01 X0.4107Y0.6535Z-0.00218
G01 X0.4133Y0.6485Z-0.00218
G01 X0.4172Y0.6448Z-0.00217
G01 X0.4243Y0.6415Z-0.00215
G01 X0.5129Y0.6413Z-0.00175
G01 X0.5198Y0.6438Z-0.00171
G01 X0.5267Y0.6509Z-0.00166
G01 X0.5287Y0.6571Z-0.00164
G01 X0.5287Y0.6719Z-0.00162
G01 X0.5255Y0.6794Z-0.00162
G01 X0.5222Y0.6832Z-0.00163
G01 X0.5177Y0.6859Z-0.00165
G01 X0.5123Y0.6876Z-0.00167
G01 X0.4261Y0.6877Z-0.00207
G01 X0.4207Y0.6860Z-0.00210
G01 X0.4162Y0.6832Z-0.00212
G01 X0.4116Y0.6775Z-0.00215
G01 X0.4094Y0.6692Z-0.00217
G01 X0.4093Y0.6605Z-0.00218
G00 Z0.4000
G00 X0.4083Y0.4855
G01 Z-0.00243
G01 X0.4087Y0.4825Z-0.00243
G01 X0.4110Y0.4768Z-0.00243
G01 X0.4155Y0.4723Z-0.00243
G01 X0.4197Y0.4700Z-0.00242
G01 X0.4261Y0.4683Z-0.00241
G01 X0.4493Y0.4677Z-0.00237
G01 X0.4493Y0.4425Z-0.00241
G01 X0.4515Y0.4366Z-0.00241
G01 X0.4565Y0.4313Z-0.00240
G01 X0.4607Y0.4290Z-0.00238
G01 X0.4725Y0.4283Z-0.00232
G01 X0.4775Y0.4303Z-0.00229
G01 X0.4835Y0.4362Z-0.00225
G01 X0.4852Y0.4391Z-0.00224
G01 X0.4867Y0.4455Z-0.00222
G01 X0.4867Y0.4683Z-0.00218
G01 X0.5095Y0.4683Z-0.00206
G01 X0.5174Y0.4705Z-0.00202
G01 X0.5244Y0.4771Z-0.00197
G01 X0.5260Y0.4797Z-0.00196
G01 X0.5267Y0.4915Z-0.00194
G01 X0.5260Y0.4943Z-0.00194
G01 X0.5237Y0.4985Z-0.00194
G01 X0.5192Y0.5030Z-0.00196
G01 X0.5150Y0.5052Z-0.00197
G01 X0.4867Y0.5063Z-0.00211
G01 X0.4867Y0.5289Z-0.00207
G01 X0.4837Y0.5381Z-0.00207
G01 X0.4792Y0.5430Z-0.00209
G01 X0.4737Y0.5459Z-0.00211
G01 X0.4709Y0.5467Z-0.00212
G01 X0.4645Y0.5467Z-0.00215
G01 X0.4617Y0.5460Z-0.00217
G01 X0.4572Y0.5435Z-0.00219
G01 X0.4520Y0.5382Z-0.00223
G01 X0.4498Y0.5340Z-0.00225
G01 X0.4493Y0.5057Z-0.00230
G01 X0.4238Y0.5057Z-0.00236
G01 X0.4202Y0.5049Z-0.00237
G01 X0.4145Y0.5017Z-0.00239
G01 X0.4106Y0.4965Z-0.00241
G01 X0.4085Y0.4917Z-0.00242
G01 X0.4083Y0.4855Z-0.00243
G00 Z0.4000
G00 X0.3597Y0.4722
G01 Z-0.00255
G01 X0.3587Y0.4817Z-0.00254
G01 X0.3559Y0.4910Z-0.00254
G01 X0.3513Y0.4996Z-0.00254
G01 X0.3451Y0.5071Z-0.00255
G01 X0.3376Y0.5133Z-0.00257
G01 X0.3290Y0.5179Z-0.00258
G01 X0.3197Y0.5207Z-0.00261
G01 X0.3100Y0.5217Z-0.00263
G01 X0.3003Y0.5207Z-0.00266
G01 X0.2910Y0.5179Z-0.00268
G01 X0.2824Y0.5133Z-0.00271
G01 X0.2749Y0.5071Z-0.00272
G01 X0.2687Y0.4996Z-0.00274
G01 X0.2641Y0.4910Z-0.00275
G01 X0.2613Y0.4817Z-0.00276
G01 X0.2603Y0.4720Z-0.00276
G01 X0.2613Y0.4623Z-0.00276
G01 X0.2641Y0.4530Z-0.00275
G01 X0.2687Y0.4444Z-0.00275
G01 X0.2749Y0.4369Z-0.00273
G01 X0.2824Y0.4307Z-0.00272
G01 X0.2910Y0.4261Z-0.00271
G01 X0.3003Y0.4233Z-0.00270
G01 X0.3100Y0.4223Z-0.00269
G01 X0.3197Y0.4233Z-0.00267
G01 X0.3290Y0.4261Z-0.00264
G01 X0.3376Y0.4307Z-0.00263
G01 X0.3451Y0.4369Z-0.00261
G01 X0.3513Y0.4444Z-0.00259
G01 X0.3559Y0.4530Z-0.00257
G01 X0.3587Y0.4623Z-0.00256
G01 X0.3597Y0.4722Z-0.00255
G00 Z0.4000
G00 X0.3149Y0.2226
G01 Z-0.00328
G01 X0.3872Y0.1487Z-0.00324
G01 X0.3961Y0.1433Z-0.00322
G01 X0.4018Y0.1416Z-0.00320
G01 X0.4078Y0.1410Z-0.00318
G01 X0.59480Y0.14100Z-0.00239 ;segmented line. Max segment length set to 0.187
G01 X0.78180Y0.14100Z-0.00159 ;segmented line. Max segment length set to 0.187
G01 X0.96880Y0.14100Z-0.00087 ;segmented line. Max segment length set to 0.187
G01 X1.15580Y0.14100Z-0.00018 ;segmented line. Max segment length set to 0.187
G01 X1.34280Y0.14100Z0.00046 ;segmented line. Max segment length set to 0.187
G01 X1.52980Y0.14100Z0.00107 ;segmented line. Max segment length set to 0.187
G01 X1.71680Y0.14100Z0.00173 ;segmented line. Max segment length set to 0.187
G01 X1.90380Y0.14100Z0.00243 ;segmented line. Max segment length set to 0.187
G01 X2.09080Y0.14100Z0.00307 ;segmented line. Max segment length set to 0.187
G01 X2.27780Y0.14100Z0.00362 ;segmented line. Max segment length set to 0.187
G01 X2.46480Y0.14100Z0.00422 ;segmented line. Max segment length set to 0.187
G01 X2.65180Y0.14100Z0.00489 ;segmented line. Max segment length set to 0.187
G01 X2.83880Y0.14100Z0.00552 ;segmented line. Max segment length set to 0.187
G01 X3.02580Y0.14100Z0.00603 ;segmented line. Max segment length set to 0.187
G01 X3.21280Y0.14100Z0.00652 ;segmented line. Max segment length set to 0.187
G01 X3.39980Y0.14101Z0.00696 ;segmented line. Max segment length set to 0.187
G01 X3.58680Y0.14101Z0.00739 ;segmented line. Max segment length set to 0.187
G01 X3.77380Y0.14102Z0.00769 ;segmented line. Max segment length set to 0.187
G01 X3.96080Y0.14102Z0.00799 ;segmented line. Max segment length set to 0.187
G01 X4.14780Y0.14103Z0.00815 ;segmented line. Max segment length set to 0.187
G01 X4.33480Y0.14103Z0.00830 ;segmented line. Max segment length set to 0.187
G01 X4.52180Y0.14104Z0.00832 ;segmented line. Max segment length set to 0.187
G01 X4.70880Y0.14104Z0.00833 ;segmented line. Max segment length set to 0.187
G01 X4.89580Y0.14105Z0.00827 ;segmented line. Max segment length set to 0.187
G01 X5.08280Y0.14105Z0.00819 ;segmented line. Max segment length set to 0.187
G01 X5.26980Y0.14106Z0.00806 ;segmented line. Max segment length set to 0.187
G01 X5.45680Y0.14106Z0.00792 ;segmented line. Max segment length set to 0.187
G01 X5.64380Y0.14107Z0.00769 ;segmented line. Max segment length set to 0.187
G01 X5.83080Y0.14107Z0.00744 ;segmented line. Max segment length set to 0.187
G01 X6.01780Y0.14108Z0.00713 ;segmented line. Max segment length set to 0.187
G01 X6.20480Y0.14108Z0.00680 ;segmented line. Max segment length set to 0.187
G01 X6.39180Y0.14109Z0.00637 ;segmented line. Max segment length set to 0.187
G01 X6.57880Y0.14109Z0.00585 ;segmented line. Max segment length set to 0.187
G01 X6.76580Y0.14110Z0.00529 ;segmented line. Max segment length set to 0.187
G01 X6.9127Y0.1411Z0.00481
G01 X6.9226Y0.1436Z0.00479
G01 X6.9278Y0.1464Z0.00479
G01 X6.9324Y0.1502Z0.00479
G01 X7.06496Y0.28210Z0.00503 ;segmented line. Max segment length set to 0.187
G01 X7.1326Y0.3494Z0.00508
G01 X7.1366Y0.3542Z0.00509
G01 X7.1395Y0.3597Z0.00510
G01 X7.1414Y0.3657Z0.00512
G01 X7.1420Y0.3719Z0.00515
G01 X7.14194Y0.55890Z0.00586 ;segmented line. Max segment length set to 0.187
G01 X7.1419Y0.6770Z0.00626
G01 X7.1400Y0.6862Z0.00630
G01 X7.1356Y0.6942Z0.00634
G01 X7.02227Y0.84295Z0.00728 ;segmented line. Max segment length set to 0.187
G01 X6.9625Y0.9214Z0.00775
G01 X6.9583Y0.9258Z0.00778
G01 X6.9597Y0.9368Z0.00781
G01 X6.9586Y0.9471Z0.00784
G01 X6.9540Y0.9601Z0.00790
G01 X6.9481Y0.9688Z0.00795
G01 X6.9415Y0.9754Z0.00800
G01 X6.9334Y0.9808Z0.00804
G01 X6.9244Y0.9845Z0.00809
G01 X6.9149Y0.9864Z0.00813
G01 X6.9051Y0.9864Z0.00817
G01 X6.8956Y0.9845Z0.00820
G01 X6.8866Y0.9808Z0.00822
G01 X6.8782Y0.9751Z0.00823
G01 X6.8716Y0.9685Z0.00824
G01 X6.8662Y0.9604Z0.00823
G01 X6.8625Y0.9514Z0.00821
G01 X6.8606Y0.9423Z0.00819
G01 X6.8604Y0.9366Z0.00817
G01 X6.8614Y0.9269Z0.00814
G01 X6.8641Y0.9180Z0.00810
G01 X6.8687Y0.9094Z0.00805
G01 X6.8782Y0.8989Z0.00798
G01 X6.8866Y0.8932Z0.00793
G01 X6.8960Y0.8894Z0.00789
G01 X6.9085Y0.8874Z0.00783
G01 X6.9115Y0.8826Z0.00781
G01 X7.02487Y0.73389Z0.00692 ;segmented line. Max segment length set to 0.187
G01 X7.0780Y0.6642Z0.00650
G01 X7.07800Y0.47720Z0.00588 ;segmented line. Max segment length set to 0.187
G01 X7.0780Y0.3853Z0.00550
G01 X6.94544Y0.25340Z0.00527 ;segmented line. Max segment length set to 0.187
G01 X6.8968Y0.2050Z0.00519
G01 X6.70980Y0.20500Z0.00580 ;segmented line. Max segment length set to 0.187
G01 X6.52280Y0.20500Z0.00633 ;segmented line. Max segment length set to 0.187
G01 X6.33580Y0.20500Z0.00685 ;segmented line. Max segment length set to 0.187
G01 X6.1656Y0.2050Z0.00720
G01 X6.1773Y0.2168Z0.00724
G01 X6.1866Y0.2306Z0.00729
G01 X6.1906Y0.2391Z0.00733
G01 X6.1953Y0.2546Z0.00740
G01 X6.1967Y0.2639Z0.00744
G01 X6.1966Y0.2805Z0.00752
G01 X6.1953Y0.2894Z0.00757
G01 X6.1906Y0.3049Z0.00766
G01 X6.1866Y0.3134Z0.00771
G01 X6.1773Y0.3272Z0.00780
G01 X6.1655Y0.3390Z0.00788
G01 X6.1584Y0.3444Z0.00792
G01 X6.1507Y0.3490Z0.00795
G01 X6.1353Y0.3553Z0.00801
G01 X6.1266Y0.3574Z0.00804
G01 X6.1100Y0.3591Z0.00808
G01 X6.0934Y0.3574Z0.00810
G01 X6.0847Y0.3553Z0.00810
G01 X6.0693Y0.3490Z0.00810
G01 X6.0616Y0.3444Z0.00809
G01 X6.0545Y0.3390Z0.00807
G01 X6.0427Y0.3272Z0.00803
G01 X6.0334Y0.3134Z0.00798
G01 X6.0294Y0.3049Z0.00795
G01 X6.0247Y0.2894Z0.00787
G01 X6.0234Y0.2805Z0.00783
G01 X6.0233Y0.2639Z0.00775
G01 X6.0247Y0.2546Z0.00770
G01 X6.0294Y0.2391Z0.00761
G01 X6.0334Y0.2306Z0.00756
G01 X6.0427Y0.2168Z0.00747
G01 X6.0544Y0.2050Z0.00739
G01 X5.86740Y0.20500Z0.00771 ;segmented line. Max segment length set to 0.187
G01 X5.68040Y0.20500Z0.00795 ;segmented line. Max segment length set to 0.187
G01 X5.49340Y0.20500Z0.00818 ;segmented line. Max segment length set to 0.187
G01 X5.30640Y0.20500Z0.00832 ;segmented line. Max segment length set to 0.187
G01 X5.11940Y0.20500Z0.00846 ;segmented line. Max segment length set to 0.187
G01 X4.93240Y0.20500Z0.00854 ;segmented line. Max segment length set to 0.187
G01 X4.74540Y0.20500Z0.00861 ;segmented line. Max segment length set to 0.187
G01 X4.55840Y0.20500Z0.00859 ;segmented line. Max segment length set to 0.187
G01 X4.37140Y0.20500Z0.00857 ;segmented line. Max segment length set to 0.187
G01 X4.18440Y0.20500Z0.00843 ;segmented line. Max segment length set to 0.187
G01 X3.99740Y0.20500Z0.00827 ;segmented line. Max segment length set to 0.187
G01 X3.81040Y0.20500Z0.00801 ;segmented line. Max segment length set to 0.187
G01 X3.62340Y0.20500Z0.00772 ;segmented line. Max segment length set to 0.187
G01 X3.43640Y0.20500Z0.00732 ;segmented line. Max segment length set to 0.187
G01 X3.24940Y0.20500Z0.00687 ;segmented line. Max segment length set to 0.187
G01 X3.06240Y0.20500Z0.00639 ;segmented line. Max segment length set to 0.187
G01 X2.87540Y0.20500Z0.00589 ;segmented line. Max segment length set to 0.187
G01 X2.68840Y0.20500Z0.00530 ;segmented line. Max segment length set to 0.187
G01 X2.50140Y0.20500Z0.00462 ;segmented line. Max segment length set to 0.187
G01 X2.31440Y0.20500Z0.00400 ;segmented line. Max segment length set to 0.187
G01 X2.12740Y0.20500Z0.00345 ;segmented line. Max segment length set to 0.187
G01 X1.94040Y0.20500Z0.00284 ;segmented line. Max segment length set to 0.187
G01 X1.75340Y0.20500Z0.00212 ;segmented line. Max segment length set to 0.187
G01 X1.56640Y0.20500Z0.00141 ;segmented line. Max segment length set to 0.187
G01 X1.37940Y0.20500Z0.00077 ;segmented line. Max segment length set to 0.187
G01 X1.19240Y0.20500Z0.00012 ;segmented line. Max segment length set to 0.187
G01 X1.00540Y0.20500Z-0.00055 ;segmented line. Max segment length set to 0.187
G01 X0.81840Y0.20500Z-0.00124 ;segmented line. Max segment length set to 0.187
G01 X0.63140Y0.20500Z-0.00208 ;segmented line. Max segment length set to 0.187
G01 X0.44440Y0.20500Z-0.00291 ;segmented line. Max segment length set to 0.187
G01 X0.4214Y0.2050Z-0.00298
G01 X0.3594Y0.2672Z-0.00302
G01 X0.3594Y0.2773Z-0.00299
G01 X0.3560Y0.2906Z-0.00297
G01 X0.3513Y0.2996Z-0.00296
G01 X0.3451Y0.3071Z-0.00295
G01 X0.3373Y0.3135Z-0.00295
G01 X0.3248Y0.3194Z-0.00297
G01 X0.3149Y0.3214Z-0.00298
G01 X0.3051Y0.3214Z-0.00301
G01 X0.2956Y0.3195Z-0.00304
G01 X0.2866Y0.3158Z-0.00307
G01 X0.2785Y0.3104Z-0.00311
G01 X0.2716Y0.3035Z-0.00315
G01 X0.2662Y0.2954Z-0.00319
G01 X0.2625Y0.2864Z-0.00323
G01 X0.2606Y0.2769Z-0.00327
G01 X0.2606Y0.2671Z-0.00330
G01 X0.2625Y0.2576Z-0.00333
G01 X0.2662Y0.2486Z-0.00335
G01 X0.2716Y0.2405Z-0.00336
G01 X0.2785Y0.2336Z-0.00336
G01 X0.2866Y0.2282Z-0.00336
G01 X0.2956Y0.2245Z-0.00334
G01 X0.3051Y0.2226Z-0.00332
G01 X0.3149Y0.2226Z-0.00328
G00 Z0.4000
G00 X0.4971Y1.0722
G01 Z-0.00125
G01 X0.4954Y1.0890Z-0.00124
G01 X0.4904Y1.1053Z-0.00125
G01 X0.4824Y1.1204Z-0.00127
G01 X0.4716Y1.1336Z-0.00131
G01 X0.4584Y1.1444Z-0.00137
G01 X0.4433Y1.1524Z-0.00145
G01 X0.4270Y1.1574Z-0.00153
G01 X0.4100Y1.1591Z-0.00162
G01 X0.3930Y1.1574Z-0.00172
G01 X0.3767Y1.1524Z-0.00181
G01 X0.3616Y1.1444Z-0.00190
G01 X0.3484Y1.1336Z-0.00199
G01 X0.3376Y1.1204Z-0.00206
G01 X0.3296Y1.1053Z-0.00212
G01 X0.3246Y1.0890Z-0.00216
G01 X0.3229Y1.0720Z-0.00218
G01 X0.3246Y1.0550Z-0.00219
G01 X0.3296Y1.0387Z-0.00218
G01 X0.3376Y1.0236Z-0.00215
G01 X0.3484Y1.0104Z-0.00210
G01 X0.3616Y0.9996Z-0.00204
G01 X0.3767Y0.9916Z-0.00197
G01 X0.3930Y0.9866Z-0.00188
G01 X0.4100Y0.9849Z-0.00179
G01 X0.4270Y0.9866Z-0.00170
G01 X0.4433Y0.9916Z-0.00161
G01 X0.4584Y0.9996Z-0.00152
G01 X0.4716Y1.0104Z-0.00144
G01 X0.4824Y1.0236Z-0.00137
G01 X0.4904Y1.0387Z-0.00132
G01 X0.4954Y1.0550Z-0.00127
G01 X0.4971Y1.0722Z-0.00125
G00 Z0.4000
G00 X1.2923Y1.3875
G01 Z0.00313
G01 X1.2940Y1.3807Z0.00313
G01 X1.2968Y1.3758Z0.00313
G01 X1.3032Y1.3695Z0.00315
G01 X1.3072Y1.3668Z0.00316
G01 X1.3143Y1.3645Z0.00319
G01 X1.3583Y1.3644Z0.00338
G01 X1.3645Y1.3666Z0.00341
G01 X1.3685Y1.3693Z0.00343
G01 X1.3727Y1.3735Z0.00345
G01 X1.3776Y1.3838Z0.00349
G01 X1.3777Y1.3929Z0.00351
G01 X1.3759Y1.3988Z0.00351
G01 X1.3304Y1.4579Z0.00341
G01 X1.3477Y1.4575Z0.00349
G01 X1.3498Y1.4532Z0.00349
G01 X1.3521Y1.4506Z0.00350
G01 X1.3583Y1.4475Z0.00352
G01 X1.3663Y1.4474Z0.00355
G01 X1.3718Y1.4498Z0.00358
G01 X1.3750Y1.4528Z0.00360
G01 X1.3772Y1.4571Z0.00362
G01 X1.3777Y1.4669Z0.00364
G01 X1.3745Y1.4754Z0.00364
G01 X1.3685Y1.4827Z0.00362
G01 X1.3641Y1.4857Z0.00361
G01 X1.3569Y1.4887Z0.00358
G01 X1.3106Y1.4887Z0.00338
G01 X1.3077Y1.4880Z0.00336
G01 X1.3022Y1.4852Z0.00333
G01 X1.2963Y1.4795Z0.00330
G01 X1.2940Y1.4753Z0.00328
G01 X1.2923Y1.4699Z0.00327
G01 X1.2924Y1.4598Z0.00325
G01 X1.2943Y1.4539Z0.00325
G01 X1.3396Y1.3951Z0.00335
G01 X1.3223Y1.3956Z0.00328
G01 X1.3200Y1.4002Z0.00327
G01 X1.3154Y1.4045Z0.00326
G01 X1.3107Y1.4065Z0.00324
G01 X1.3037Y1.4066Z0.00321
G01 X1.2995Y1.4047Z0.00319
G01 X1.2935Y1.3984Z0.00316
G01 X1.2923Y1.3949Z0.00315
G01 X1.2923Y1.3875Z0.00313
G00 Z0.4000
G00 X1.3923Y1.3875
G01 Z0.00356
G01 X1.3940Y1.3807Z0.00356
G01 X1.3968Y1.3758Z0.00356
G01 X1.4032Y1.3695Z0.00358
G01 X1.4072Y1.3668Z0.00359
G01 X1.4147Y1.3644Z0.00362
G01 X1.4583Y1.3644Z0.00380
G01 X1.4668Y1.3678Z0.00384
G01 X1.4730Y1.3738Z0.00388
G01 X1.4759Y1.3783Z0.00390
G01 X1.4777Y1.3841Z0.00392
G01 X1.4776Y1.3932Z0.00394
G01 X1.4757Y1.3991Z0.00394
G01 X1.4304Y1.4579Z0.00385
G01 X1.4477Y1.4575Z0.00393
G01 X1.4498Y1.4532Z0.00393
G01 X1.4521Y1.4506Z0.00393
G01 X1.4583Y1.4475Z0.00395
G01 X1.4667Y1.4475Z0.00399
G01 X1.4722Y1.4500Z0.00402
G01 X1.4752Y1.4532Z0.00404
G01 X1.4773Y1.4575Z0.00405
G01 X1.4776Y1.4672Z0.00407
G01 X1.4734Y1.4775Z0.00407
G01 X1.4672Y1.4840Z0.00406
G01 X1.4569Y1.4887Z0.00402
G01 X1.4105Y1.4887Z0.00382
G01 X1.4025Y1.4854Z0.00378
G01 X1.3970Y1.4802Z0.00374
G01 X1.3940Y1.4753Z0.00372
G01 X1.3923Y1.4694Z0.00370
G01 X1.3925Y1.4593Z0.00369
G01 X1.3961Y1.4512Z0.00369
G01 X1.4396Y1.3951Z0.00378
G01 X1.4223Y1.3956Z0.00370
G01 X1.4200Y1.4002Z0.00370
G01 X1.4154Y1.4045Z0.00369
G01 X1.4107Y1.4065Z0.00367
G01 X1.4037Y1.4066Z0.00364
G01 X1.3995Y1.4047Z0.00362
G01 X1.3935Y1.3984Z0.00359
G01 X1.3923Y1.3949Z0.00357
G01 X1.3923Y1.3875Z0.00356
G00 Z0.4000
G00 X1.4923Y1.3775
G01 Z0.00397
G01 X1.4928Y1.3741Z0.00397
G01 X1.4945Y1.3712Z0.00397
G01 X1.4988Y1.3670Z0.00398
G01 X1.5039Y1.3645Z0.00400
G01 X1.5094Y1.3643Z0.00402
G01 X1.5123Y1.3650Z0.00403
G01 X1.5162Y1.3670Z0.00405
G01 X1.5200Y1.3708Z0.00408
G01 X1.5227Y1.3775Z0.00410
G01 X1.5227Y1.4173Z0.00418
G01 X1.5486Y1.3725Z0.00420
G01 X1.5535Y1.3673Z0.00421
G01 X1.5589Y1.3645Z0.00423
G01 X1.5657Y1.3645Z0.00426
G01 X1.5712Y1.3670Z0.00429
G01 X1.5762Y1.3722Z0.00432
G01 X1.5777Y1.3765Z0.00433
G01 X1.5770Y1.3853Z0.00435
G01 X1.5550Y1.4235Z0.00433
G01 X1.5648Y1.4278Z0.00438
G01 X1.5722Y1.4348Z0.00442
G01 X1.5759Y1.4413Z0.00445
G01 X1.5776Y1.4468Z0.00447
G01 X1.5777Y1.4655Z0.00451
G01 X1.5762Y1.4710Z0.00451
G01 X1.5705Y1.4798Z0.00451
G01 X1.5638Y1.4852Z0.00449
G01 X1.5545Y1.4887Z0.00445
G01 X1.5010Y1.4887Z0.00422
G01 X1.4969Y1.4877Z0.00420
G01 X1.4938Y1.4848Z0.00418
G01 X1.4923Y1.4800Z0.00416
G01 X1.4923Y1.3775Z0.00397
G00 Z0.4000
G00 X1.5227Y1.4581
G01 Z0.00425
G01 X1.5227Y1.4537Z0.00425
G01 X1.5473Y1.4539Z0.00435
G01 X1.5473Y1.4574Z0.00436
G01 X1.5227Y1.4581Z0.00425
G00 Z0.4000
G00 X1.5923Y1.3645
G01 Z0.00437
G01 X1.5928Y1.3610Z0.00437
G01 X1.5953Y1.3565Z0.00437
G01 X1.5998Y1.3520Z0.00438
G01 X1.6033Y1.3505Z0.00439
G01 X1.6654Y1.3503Z0.00467
G01 X1.6694Y1.3515Z0.00469
G01 X1.6752Y1.3562Z0.00473
G01 X1.6775Y1.3613Z0.00475
G01 X1.6777Y1.3684Z0.00477
G01 X1.6770Y1.3713Z0.00477
G01 X1.6744Y1.3759Z0.00477
G01 X1.6714Y1.3785Z0.00476
G01 X1.6663Y1.3806Z0.00474
G01 X1.6046Y1.3807Z0.00446
G01 X1.6002Y1.3792Z0.00443
G01 X1.5950Y1.3742Z0.00440
G01 X1.5927Y1.3695Z0.00438
G01 X1.5923Y1.3645Z0.00437
G00 Z0.4000
G00 X1.6923Y1.3785
G01 Z0.00486
G01 X1.6930Y1.3747Z0.00485
G01 X1.6956Y1.3701Z0.00486
G01 X1.6996Y1.3665Z0.00487
G01 X1.7055Y1.3643Z0.00489
G01 X1.7662Y1.3644Z0.00517
G01 X1.7725Y1.3673Z0.00521
G01 X1.7750Y1.3698Z0.00523
G01 X1.7769Y1.3732Z0.00524
G01 X1.7777Y1.3770Z0.00525
G01 X1.7774Y1.4201Z0.00534
G01 X1.7760Y1.4232Z0.00533
G01 X1.7715Y1.4277Z0.00532
G01 X1.7643Y1.4306Z0.00529
G01 X1.7613Y1.4305Z0.00528
G01 X1.7567Y1.4290Z0.00526
G01 X1.7528Y1.4270Z0.00523
G01 X1.7507Y1.4247Z0.00522
G01 X1.7507Y1.4809Z0.00533
G01 X1.7492Y1.4848Z0.00533
G01 X1.7458Y1.4879Z0.00532
G01 X1.7422Y1.4887Z0.00531
G01 X1.7037Y1.4886Z0.00513
G01 X1.6975Y1.4857Z0.00509
G01 X1.6931Y1.4798Z0.00506
G01 X1.6923Y1.4764Z0.00505
G01 X1.6927Y1.4695Z0.00504
G01 X1.6950Y1.4648Z0.00504
G01 X1.6985Y1.4613Z0.00505
G01 X1.7011Y1.4598Z0.00506
G01 X1.7067Y1.4584Z0.00508
G01 X1.7203Y1.4578Z0.00514
G01 X1.7203Y1.3955Z0.00502
G01 X1.7203Y1.3947Z0.00502
G01 X1.7041Y1.3947Z0.00494
G01 X1.7005Y1.3934Z0.00492
G01 X1.6943Y1.3871Z0.00488
G01 X1.6925Y1.3831Z0.00487
G01 X1.6923Y1.3785Z0.00486
G00 Z0.4000
G00 X1.5971Y2.2722
G01 Z0.00578
G01 X1.5954Y2.2890Z0.00578
G01 X1.5904Y2.3053Z0.00577
G01 X1.5824Y2.3204Z0.00574
G01 X1.5716Y2.3336Z0.00570
G01 X1.5584Y2.3444Z0.00564
G01 X1.5433Y2.3524Z0.00558
G01 X1.5270Y2.3574Z0.00551
G01 X1.5100Y2.3591Z0.00543
G01 X1.4930Y2.3574Z0.00535
G01 X1.4767Y2.3524Z0.00527
G01 X1.4616Y2.3444Z0.00520
G01 X1.4484Y2.3336Z0.00513
G01 X1.4376Y2.3204Z0.00506
G01 X1.4296Y2.3053Z0.00501
G01 X1.4246Y2.2890Z0.00498
G01 X1.4229Y2.2720Z0.00495
G01 X1.4246Y2.2550Z0.00495
G01 X1.4296Y2.2387Z0.00496
G01 X1.4376Y2.2236Z0.00498
G01 X1.4484Y2.2104Z0.00502
G01 X1.4616Y2.1996Z0.00508
G01 X1.4767Y2.1916Z0.00515
G01 X1.4930Y2.1866Z0.00522
G01 X1.5100Y2.1849Z0.00530
G01 X1.5270Y2.1866Z0.00539
G01 X1.5433Y2.1916Z0.00547
G01 X1.5584Y2.1996Z0.00555
G01 X1.5716Y2.2104Z0.00562
G01 X1.5824Y2.2236Z0.00568
G01 X1.5904Y2.2387Z0.00573
G01 X1.5954Y2.2550Z0.00576
G01 X1.5971Y2.2722Z0.00578
G00 Z0.4000
G00 X1.7333Y2.8685
G01 Z0.00661
G01 X1.7343Y2.8639Z0.00662
G01 X1.7398Y2.8568Z0.00664
G01 X1.7447Y2.8540Z0.00667
G01 X1.7501Y2.8523Z0.00669
G01 X1.7561Y2.8525Z0.00672
G01 X1.7635Y2.8556Z0.00675
G01 X1.7677Y2.8595Z0.00677
G01 X1.7712Y2.8651Z0.00678
G01 X1.7717Y2.9793Z0.00676
G01 X1.7773Y2.9714Z0.00679
G01 X1.7776Y2.9649Z0.00679
G01 X1.7810Y2.9568Z0.00681
G01 X1.7865Y2.9516Z0.00683
G01 X1.7920Y2.9488Z0.00686
G01 X1.7950Y2.9483Z0.00687
G01 X1.8003Y2.9484Z0.00690
G01 X1.8053Y2.9500Z0.00692
G01 X1.8092Y2.9520Z0.00694
G01 X1.8125Y2.9552Z0.00695
G01 X1.8164Y2.9629Z0.00697
G01 X1.8167Y2.9704Z0.00697
G01 X1.8223Y2.9790Z0.00699
G01 X1.8227Y2.8685Z0.00702
G01 X1.8256Y2.8615Z0.00703
G01 X1.8298Y2.8568Z0.00705
G01 X1.8343Y2.8541Z0.00707
G01 X1.8393Y2.8525Z0.00710
G01 X1.8442Y2.8524Z0.00712
G01 X1.8508Y2.8541Z0.00715
G01 X1.8590Y2.8618Z0.00718
G01 X1.8612Y2.8660Z0.00719
G01 X1.8617Y2.8690Z0.00720
G01 X1.8617Y3.0370Z0.00715
G01 X1.8607Y3.0411Z0.00715
G01 X1.8582Y3.0440Z0.00714
G01 X1.8532Y3.0457Z0.00711
G01 X1.8248Y3.0457Z0.00698
G01 X1.8209Y3.0447Z0.00697
G01 X1.8180Y3.0422Z0.00695
G01 X1.7974Y3.0126Z0.00687
G01 X1.7780Y3.0402Z0.00677
G01 X1.7728Y3.0449Z0.00675
G01 X1.7692Y3.0457Z0.00673
G01 X1.7415Y3.0457Z0.00660
G01 X1.7379Y3.0447Z0.00659
G01 X1.7350Y3.0422Z0.00658
G01 X1.7333Y3.0370Z0.00657
G01 X1.7333Y2.8685Z0.00661
G00 Z0.4000
G00 X1.8953Y2.8695
G01 Z0.00735
G01 X1.8957Y2.8665Z0.00735
G01 X1.8973Y2.8629Z0.00736
G01 X1.9018Y2.8570Z0.00738
G01 X1.9079Y2.8536Z0.00741
G01 X1.9131Y2.8523Z0.00743
G01 X1.9181Y2.8526Z0.00746
G01 X1.9258Y2.8558Z0.00749
G01 X1.9324Y2.8625Z0.00752
G01 X1.9343Y2.8665Z0.00753
G01 X1.9415Y2.8912Z0.00755
G01 X1.9790Y2.8906Z0.00772
G01 X1.9871Y2.8633Z0.00777
G01 X1.9959Y2.8543Z0.00781
G01 X2.0038Y2.8523Z0.00785
G01 X2.0077Y2.8525Z0.00786
G01 X2.0123Y2.8540Z0.00788
G01 X2.0165Y2.8563Z0.00789
G01 X2.0212Y2.8608Z0.00791
G01 X2.0240Y2.8657Z0.00792
G01 X2.0247Y2.8744Z0.00792
G01 X2.0234Y2.8801Z0.00791
G01 X1.9793Y3.0315Z0.00769
G01 X1.9745Y3.0398Z0.00767
G01 X1.9683Y3.0440Z0.00764
G01 X1.9610Y3.0457Z0.00761
G01 X1.9567Y3.0456Z0.00759
G01 X1.9520Y3.0442Z0.00756
G01 X1.9488Y3.0422Z0.00755
G01 X1.9420Y3.0343Z0.00752
G01 X1.8957Y2.8775Z0.00735
G01 X1.8953Y2.8695Z0.00735
G00 Z0.4000
G00 X1.9532Y2.9311
G01 Z0.00760
G01 X1.9669Y2.9309Z0.00766
G01 X1.9600Y2.9546Z0.00762
G01 X1.9557Y2.9409Z0.00761
G01 X1.9532Y2.9311Z0.00760
G00 Z0.4000
G00 X2.0583Y3.0045
G01 Z0.00801
G01 X2.0588Y3.0010Z0.00801
G01 X2.0615Y2.9956Z0.00802
G01 X2.0668Y2.9900Z0.00804
G01 X2.0723Y2.9875Z0.00806
G01 X2.0822Y2.9873Z0.00810
G01 X2.0885Y2.9896Z0.00812
G01 X2.0937Y2.9945Z0.00813
G01 X2.0972Y3.0011Z0.00815
G01 X2.0977Y3.0060Z0.00815
G01 X2.1033Y3.0058Z0.00817
G01 X2.1035Y2.8673Z0.00820
G01 X2.1063Y2.8615Z0.00821
G01 X2.1142Y2.8541Z0.00824
G01 X2.1220Y2.8523Z0.00827
G01 X2.1257Y2.8525Z0.00828
G01 X2.1308Y2.8541Z0.00830
G01 X2.1345Y2.8563Z0.00831
G01 X2.1390Y2.8608Z0.00833
G01 X2.1410Y2.8647Z0.00833
G01 X2.1427Y2.8701Z0.00834
G01 X2.1427Y3.0060Z0.00830
G01 X2.1483Y3.0058Z0.00832
G01 X2.1486Y3.0009Z0.00833
G01 X2.1508Y2.9962Z0.00834
G01 X2.1565Y2.9903Z0.00836
G01 X2.1607Y2.9880Z0.00837
G01 X2.1636Y2.9873Z0.00838
G01 X2.1733Y2.9874Z0.00842
G01 X2.1802Y2.9910Z0.00844
G01 X2.1845Y2.9956Z0.00845
G01 X2.1876Y3.0038Z0.00846
G01 X2.1877Y3.0360Z0.00846
G01 X2.1869Y3.0398Z0.00845
G01 X2.1828Y3.0442Z0.00844
G01 X2.1784Y3.0457Z0.00842
G01 X2.0649Y3.0454Z0.00802
G01 X2.0606Y3.0429Z0.00801
G01 X2.0584Y3.0383Z0.00800
G01 X2.0583Y3.0045Z0.00801
G00 Z0.4000
G00 X2.1243Y3.0845
G01 Z0.00822
G01 X2.1248Y3.0811Z0.00822
G01 X2.1266Y3.0781Z0.00823
G01 X2.1297Y3.0760Z0.00824
G01 X2.1330Y3.0753Z0.00825
G01 X2.2389Y3.0753Z0.00863
G01 X2.2452Y3.0780Z0.00865
G01 X2.2512Y3.0842Z0.00867
G01 X2.2537Y3.0901Z0.00867
G01 X2.2532Y3.1009Z0.00867
G01 X2.2502Y3.1062Z0.00866
G01 X2.2452Y3.1110Z0.00864
G01 X2.2409Y3.1132Z0.00862
G01 X2.1637Y3.1146Z0.00835
G01 X2.1637Y3.1523Z0.00834
G01 X2.1959Y3.1528Z0.00845
G01 X2.2005Y3.1553Z0.00847
G01 X2.2057Y3.1605Z0.00848
G01 X2.2080Y3.1647Z0.00849
G01 X2.2087Y3.1680Z0.00849
G01 X2.2086Y3.1752Z0.00848
G01 X2.2069Y3.1807Z0.00847
G01 X2.1991Y3.1887Z0.00844
G01 X2.1939Y3.1907Z0.00842
G01 X2.1637Y3.1915Z0.00831
G01 X2.1637Y3.2283Z0.00829
G01 X2.2362Y3.2283Z0.00855
G01 X2.2423Y3.2300Z0.00857
G01 X2.2487Y3.2345Z0.00859
G01 X2.2517Y3.2389Z0.00860
G01 X2.2537Y3.2441Z0.00860
G01 X2.2530Y3.2543Z0.00859
G01 X2.2500Y3.2602Z0.00858
G01 X2.2458Y3.2642Z0.00856
G01 X2.2403Y3.2670Z0.00854
G01 X2.2372Y3.2677Z0.00853
G01 X2.1330Y3.2677Z0.00815
G01 X2.1289Y3.2667Z0.00814
G01 X2.1258Y3.2638Z0.00813
G01 X2.1243Y3.2590Z0.00812
G01 X2.1243Y3.0845Z0.00822
G00 Z0.4000
G00 X1.9613Y3.0945
G01 Z0.00760
G01 X1.9627Y3.0875Z0.00760
G01 X1.9650Y3.0828Z0.00761
G01 X1.9698Y3.0780Z0.00764
G01 X1.9749Y3.0756Z0.00766
G01 X1.9852Y3.0753Z0.00771
G01 X1.9883Y3.0760Z0.00772
G01 X1.9928Y3.0785Z0.00774
G01 X1.9987Y3.0849Z0.00777
G01 X2.0007Y3.0910Z0.00778
G01 X2.0007Y3.1708Z0.00774
G01 X2.0035Y3.1706Z0.00775
G01 X2.0465Y3.0966Z0.00794
G01 X2.0558Y3.0818Z0.00798
G01 X2.0598Y3.0780Z0.00800
G01 X2.0641Y3.0758Z0.00801
G01 X2.0755Y3.0753Z0.00805
G01 X2.0818Y3.0778Z0.00807
G01 X2.0882Y3.0842Z0.00809
G01 X2.0907Y3.0906Z0.00810
G01 X2.0906Y3.0982Z0.00810
G01 X2.0889Y3.1037Z0.00809
G01 X2.0496Y3.1713Z0.00792
G01 X2.0573Y3.1714Z0.00795
G01 X2.0650Y3.1738Z0.00797
G01 X2.0765Y3.1813Z0.00801
G01 X2.0845Y3.1906Z0.00803
G01 X2.0890Y3.1997Z0.00804
G01 X2.0905Y3.2053Z0.00804
G01 X2.0907Y3.2325Z0.00802
G01 X2.0882Y3.2410Z0.00801
G01 X2.0827Y3.2505Z0.00798
G01 X2.0739Y3.2594Z0.00794
G01 X2.0698Y3.2622Z0.00793
G01 X2.0639Y3.2652Z0.00790
G01 X2.0542Y3.2677Z0.00787
G01 X1.9696Y3.2677Z0.00752
G01 X1.9659Y3.2667Z0.00751
G01 X1.9628Y3.2638Z0.00750
G01 X1.9613Y3.2590Z0.00749
G01 X1.9613Y3.0945Z0.00760
G00 Z0.4000
G00 X2.0007Y3.2097
G01 Z0.00771
G01 X2.0460Y3.2097Z0.00788
G01 X2.0498Y3.2111Z0.00789
G01 X2.0513Y3.2131Z0.00790
G01 X2.0513Y3.2259Z0.00789
G01 X2.0504Y3.2273Z0.00788
G01 X2.0007Y3.2282Z0.00770
G01 X2.0007Y3.2097Z0.00771
G00 Z0.4000
G00 X1.8377Y3.1907
G01 Z0.00698
G01 X1.8730Y3.1907Z0.00714
G01 X1.8808Y3.1931Z0.00718
G01 X1.8839Y3.1952Z0.00719
G01 X1.8883Y3.2031Z0.00720
G01 X1.8883Y3.2159Z0.00719
G01 X1.8859Y3.2218Z0.00718
G01 X1.8818Y3.2259Z0.00715
G01 X1.8786Y3.2273Z0.00714
G01 X1.8377Y3.2281Z0.00695
G01 X1.8377Y3.1907Z0.00698
G00 Z0.4000
G00 X1.8377Y3.1521
G01 Z0.00701
G01 X1.8377Y3.1145Z0.00703
G01 X1.8721Y3.1138Z0.00718
G01 X1.8792Y3.1155Z0.00722
G01 X1.8835Y3.1185Z0.00723
G01 X1.8859Y3.1212Z0.00724
G01 X1.8883Y3.1271Z0.00725
G01 X1.8883Y3.1389Z0.00725
G01 X1.8859Y3.1448Z0.00724
G01 X1.8808Y3.1499Z0.00721
G01 X1.8742Y3.1513Z0.00718
G01 X1.8377Y3.1521Z0.00701
G00 Z0.4000
G00 X1.7983Y3.0845
G01 Z0.00685
G01 X1.7987Y3.0815Z0.00686
G01 X1.8003Y3.0785Z0.00686
G01 X1.8029Y3.0763Z0.00688
G01 X1.8061Y3.0753Z0.00689
G01 X1.8842Y3.0754Z0.00725
G01 X1.8953Y3.0790Z0.00730
G01 X1.9042Y3.0840Z0.00734
G01 X1.9154Y3.0941Z0.00739
G01 X1.9215Y3.1026Z0.00741
G01 X1.9242Y3.1081Z0.00742
G01 X1.9276Y3.1198Z0.00744
G01 X1.9277Y3.1449Z0.00743
G01 X1.9239Y3.1587Z0.00740
G01 X1.9212Y3.1638Z0.00738
G01 X1.9158Y3.1715Z0.00735
G01 X1.9212Y3.1792Z0.00737
G01 X1.9239Y3.1842Z0.00738
G01 X1.9275Y3.1959Z0.00739
G01 X1.9276Y3.2222Z0.00737
G01 X1.9250Y3.2323Z0.00735
G01 X1.9182Y3.2448Z0.00731
G01 X1.9109Y3.2534Z0.00727
G01 X1.9014Y3.2605Z0.00722
G01 X1.8919Y3.2652Z0.00717
G01 X1.8812Y3.2677Z0.00712
G01 X1.8065Y3.2677Z0.00678
G01 X1.8025Y3.2664Z0.00676
G01 X1.7995Y3.2634Z0.00675
G01 X1.7983Y3.2590Z0.00675
G01 X1.7983Y3.0845Z0.00685
G00 Z0.4000
G00 X1.5383Y3.3765
G01 Z0.00548
G01 X1.5388Y3.3730Z0.00549
G01 X1.5413Y3.3685Z0.00550
G01 X1.5452Y3.3648Z0.00552
G01 X1.5507Y3.3620Z0.00555
G01 X1.5536Y3.3613Z0.00556
G01 X1.5783Y3.3607Z0.00567
G01 X1.5783Y3.3371Z0.00569
G01 X1.5813Y3.3289Z0.00571
G01 X1.5855Y3.3243Z0.00573
G01 X1.5912Y3.3211Z0.00576
G01 X1.5941Y3.3203Z0.00577
G01 X1.5995Y3.3203Z0.00580
G01 X1.6075Y3.3233Z0.00583
G01 X1.6127Y3.3285Z0.00585
G01 X1.6150Y3.3327Z0.00586
G01 X1.6157Y3.3360Z0.00586
G01 X1.6157Y3.3613Z0.00584
G01 X1.6415Y3.3613Z0.00596
G01 X1.6471Y3.3633Z0.00598
G01 X1.6535Y3.3692Z0.00601
G01 X1.6559Y3.3732Z0.00601
G01 X1.6567Y3.3761Z0.00602
G01 X1.6567Y3.3835Z0.00601
G01 X1.6560Y3.3863Z0.00600
G01 X1.6537Y3.3905Z0.00599
G01 X1.6492Y3.3950Z0.00597
G01 X1.6450Y3.3972Z0.00595
G01 X1.6395Y3.3987Z0.00592
G01 X1.6157Y3.3993Z0.00581
G01 X1.6157Y3.4244Z0.00579
G01 X1.6149Y3.4278Z0.00579
G01 X1.6127Y3.4315Z0.00577
G01 X1.6078Y3.4362Z0.00575
G01 X1.6005Y3.4393Z0.00571
G01 X1.5965Y3.4397Z0.00570
G01 X1.5897Y3.4380Z0.00567
G01 X1.5852Y3.4352Z0.00565
G01 X1.5801Y3.4287Z0.00563
G01 X1.5783Y3.4225Z0.00563
G01 X1.5783Y3.3987Z0.00565
G01 X1.5545Y3.3987Z0.00554
G01 X1.5479Y3.3967Z0.00551
G01 X1.5415Y3.3908Z0.00549
G01 X1.5391Y3.3868Z0.00548
G01 X1.5383Y3.3839Z0.00548
G01 X1.5383Y3.3765Z0.00548
G00 Z0.4000
G00 X1.3973Y3.3375
G01 Z0.00487
G01 X1.3980Y3.3337Z0.00487
G01 X1.4006Y3.3291Z0.00489
G01 X1.4052Y3.3248Z0.00491
G01 X1.4111Y3.3223Z0.00494
G01 X1.4309Y3.3228Z0.00503
G01 X1.4359Y3.3256Z0.00505
G01 X1.4407Y3.3305Z0.00507
G01 X1.4423Y3.3335Z0.00507
G01 X1.4437Y3.3410Z0.00508
G01 X1.4437Y3.4219Z0.00503
G01 X1.4423Y3.4285Z0.00502
G01 X1.4400Y3.4332Z0.00501
G01 X1.4358Y3.4372Z0.00499
G01 X1.4295Y3.4403Z0.00496
G01 X1.4128Y3.4407Z0.00489
G01 X1.4097Y3.4400Z0.00487
G01 X1.4055Y3.4377Z0.00486
G01 X1.4008Y3.4332Z0.00484
G01 X1.3977Y3.4275Z0.00483
G01 X1.3973Y3.3375Z0.00487
G00 Z0.4000
G00 X1.4597Y3.5722
G01 Z0.00502
G01 X1.4587Y3.5817Z0.00502
G01 X1.4559Y3.5910Z0.00500
G01 X1.4513Y3.5996Z0.00497
G01 X1.4451Y3.6071Z0.00494
G01 X1.4376Y3.6133Z0.00491
G01 X1.4290Y3.6179Z0.00487
G01 X1.4197Y3.6207Z0.00483
G01 X1.4100Y3.6217Z0.00479
G01 X1.4003Y3.6207Z0.00474
G01 X1.3910Y3.6179Z0.00471
G01 X1.3824Y3.6133Z0.00467
G01 X1.3749Y3.6071Z0.00464
G01 X1.3687Y3.5996Z0.00462
G01 X1.3641Y3.5910Z0.00460
G01 X1.3613Y3.5817Z0.00460
G01 X1.3603Y3.5720Z0.00460
G01 X1.3613Y3.5623Z0.00461
G01 X1.3641Y3.5530Z0.00462
G01 X1.3687Y3.5444Z0.00465
G01 X1.3749Y3.5369Z0.00468
G01 X1.3824Y3.5307Z0.00471
G01 X1.3910Y3.5261Z0.00475
G01 X1.4003Y3.5233Z0.00479
G01 X1.4100Y3.5223Z0.00484
G01 X1.4197Y3.5233Z0.00488
G01 X1.4290Y3.5261Z0.00492
G01 X1.4376Y3.5307Z0.00495
G01 X1.4451Y3.5369Z0.00498
G01 X1.4513Y3.5444Z0.00500
G01 X1.4559Y3.5530Z0.00502
G01 X1.4587Y3.5623Z0.00503
G01 X1.4597Y3.5722Z0.00502
G00 Z0.4000
G00 X1.6597Y3.5722
G01 Z0.00589
G01 X1.6587Y3.5817Z0.00588
G01 X1.6559Y3.5910Z0.00587
G01 X1.6513Y3.5996Z0.00584
G01 X1.6451Y3.6071Z0.00581
G01 X1.6376Y3.6133Z0.00577
G01 X1.6290Y3.6179Z0.00573
G01 X1.6197Y3.6207Z0.00569
G01 X1.6100Y3.6217Z0.00564
G01 X1.6003Y3.6207Z0.00560
G01 X1.5910Y3.6179Z0.00556
G01 X1.5824Y3.6133Z0.00553
G01 X1.5749Y3.6071Z0.00550
G01 X1.5687Y3.5996Z0.00548
G01 X1.5641Y3.5910Z0.00546
G01 X1.5613Y3.5817Z0.00546
G01 X1.5603Y3.5720Z0.00546
G01 X1.5613Y3.5623Z0.00547
G01 X1.5641Y3.5530Z0.00548
G01 X1.5687Y3.5444Z0.00551
G01 X1.5749Y3.5369Z0.00554
G01 X1.5824Y3.5307Z0.00557
G01 X1.5910Y3.5261Z0.00561
G01 X1.6003Y3.5233Z0.00565
G01 X1.6100Y3.5223Z0.00570
G01 X1.6197Y3.5233Z0.00574
G01 X1.6290Y3.5261Z0.00578
G01 X1.6376Y3.5307Z0.00581
G01 X1.6451Y3.5369Z0.00584
G01 X1.6513Y3.5444Z0.00587
G01 X1.6559Y3.5530Z0.00589
G01 X1.6587Y3.5623Z0.00589
G01 X1.6597Y3.5722Z0.00589
G00 Z0.4000
G00 X1.8863Y3.7155
G01 Z0.00688
G01 X1.8868Y3.7121Z0.00688
G01 X1.8886Y3.7091Z0.00689
G01 X1.8913Y3.7071Z0.00691
G01 X1.8948Y3.7063Z0.00692
G01 X1.9459Y3.7063Z0.00716
G01 X1.9502Y3.7080Z0.00718
G01 X1.9552Y3.7132Z0.00720
G01 X1.9567Y3.7171Z0.00721
G01 X1.9563Y3.7245Z0.00721
G01 X1.9545Y3.7278Z0.00720
G01 X1.9491Y3.7327Z0.00717
G01 X1.9454Y3.7337Z0.00715
G01 X1.9137Y3.7343Z0.00700
G01 X1.9137Y3.7433Z0.00700
G01 X1.9425Y3.7437Z0.00714
G01 X1.9498Y3.7475Z0.00717
G01 X1.9537Y3.7515Z0.00719
G01 X1.9559Y3.7552Z0.00719
G01 X1.9567Y3.7590Z0.00720
G01 X1.9566Y3.7933Z0.00719
G01 X1.9540Y3.7992Z0.00717
G01 X1.9478Y3.8052Z0.00714
G01 X1.9414Y3.8077Z0.00711
G01 X1.8976Y3.8077Z0.00690
G01 X1.8919Y3.8057Z0.00688
G01 X1.8888Y3.8028Z0.00686
G01 X1.8865Y3.7977Z0.00685
G01 X1.8864Y3.7908Z0.00686
G01 X1.8878Y3.7872Z0.00686
G01 X1.8915Y3.7833Z0.00688
G01 X1.8981Y3.7803Z0.00691
G01 X1.9293Y3.7797Z0.00706
G01 X1.9293Y3.7707Z0.00706
G01 X1.9003Y3.7705Z0.00693
G01 X1.8948Y3.7680Z0.00690
G01 X1.8890Y3.7622Z0.00688
G01 X1.8863Y3.7555Z0.00687
G01 X1.8863Y3.7155Z0.00688
G00 Z0.4000
G00 X1.8555Y3.7722
G01 Z0.00672
G01 X1.8546Y3.7809Z0.00671
G01 X1.8520Y3.7894Z0.00669
G01 X1.8478Y3.7973Z0.00667
G01 X1.8422Y3.8042Z0.00664
G01 X1.8353Y3.8098Z0.00661
G01 X1.8274Y3.8140Z0.00657
G01 X1.8189Y3.8166Z0.00653
G01 X1.8100Y3.8175Z0.00649
G01 X1.8011Y3.8166Z0.00644
G01 X1.7926Y3.8140Z0.00640
G01 X1.7847Y3.8098Z0.00637
G01 X1.7778Y3.8042Z0.00634
G01 X1.7722Y3.7973Z0.00631
G01 X1.7680Y3.7894Z0.00630
G01 X1.7654Y3.7809Z0.00629
G01 X1.7645Y3.7720Z0.00629
G01 X1.7654Y3.7631Z0.00630
G01 X1.7680Y3.7546Z0.00631
G01 X1.7722Y3.7467Z0.00634
G01 X1.7778Y3.7398Z0.00636
G01 X1.7847Y3.7342Z0.00640
G01 X1.7926Y3.7300Z0.00644
G01 X1.8011Y3.7274Z0.00648
G01 X1.8100Y3.7265Z0.00652
G01 X1.8189Y3.7274Z0.00656
G01 X1.8274Y3.7300Z0.00660
G01 X1.8353Y3.7342Z0.00664
G01 X1.8422Y3.7398Z0.00667
G01 X1.8478Y3.7467Z0.00669
G01 X1.8520Y3.7546Z0.00671
G01 X1.8546Y3.7631Z0.00672
G01 X1.8555Y3.7722Z0.00672
G00 Z0.4000
G00 X1.8568Y3.8722
G01 Z0.00669
G01 X1.8560Y3.8809Z0.00668
G01 X1.8533Y3.8895Z0.00666
G01 X1.8491Y3.8975Z0.00664
G01 X1.8434Y3.9044Z0.00661
G01 X1.8365Y3.9101Z0.00658
G01 X1.8285Y3.9143Z0.00654
G01 X1.8199Y3.9170Z0.00649
G01 X1.8110Y3.9178Z0.00645
G01 X1.8021Y3.9170Z0.00641
G01 X1.7935Y3.9143Z0.00637
G01 X1.7855Y3.9101Z0.00633
G01 X1.7786Y3.9044Z0.00630
G01 X1.7729Y3.8975Z0.00628
G01 X1.7687Y3.8895Z0.00626
G01 X1.7660Y3.8809Z0.00625
G01 X1.7652Y3.8720Z0.00625
G01 X1.7660Y3.8631Z0.00626
G01 X1.7687Y3.8545Z0.00627
G01 X1.7729Y3.8465Z0.00630
G01 X1.7786Y3.8396Z0.00633
G01 X1.7855Y3.8339Z0.00636
G01 X1.7935Y3.8297Z0.00640
G01 X1.8021Y3.8270Z0.00644
G01 X1.8110Y3.8262Z0.00649
G01 X1.8199Y3.8270Z0.00653
G01 X1.8285Y3.8297Z0.00657
G01 X1.8365Y3.8339Z0.00660
G01 X1.8434Y3.8396Z0.00664
G01 X1.8491Y3.8465Z0.00666
G01 X1.8533Y3.8545Z0.00668
G01 X1.8560Y3.8631Z0.00669
G01 X1.8568Y3.8722Z0.00669
G00 Z0.4000
G00 X1.8558Y3.9722
G01 Z0.00663
G01 X1.8550Y3.9809Z0.00662
G01 X1.8524Y3.9895Z0.00661
G01 X1.8481Y3.9975Z0.00658
G01 X1.8424Y4.0044Z0.00655
G01 X1.8355Y4.0101Z0.00651
G01 X1.8275Y4.0144Z0.00647
G01 X1.8189Y4.0170Z0.00643
G01 X1.8100Y4.0178Z0.00638
G01 X1.8011Y4.0170Z0.00634
G01 X1.7925Y4.0144Z0.00630
G01 X1.7845Y4.0101Z0.00626
G01 X1.7776Y4.0044Z0.00623
G01 X1.7719Y3.9975Z0.00621
G01 X1.7676Y3.9895Z0.00619
G01 X1.7650Y3.9809Z0.00619
G01 X1.7642Y3.9720Z0.00619
G01 X1.7650Y3.9631Z0.00620
G01 X1.7676Y3.9545Z0.00622
G01 X1.7719Y3.9465Z0.00624
G01 X1.7776Y3.9396Z0.00628
G01 X1.7845Y3.9339Z0.00631
G01 X1.7925Y3.9296Z0.00635
G01 X1.8011Y3.9270Z0.00640
G01 X1.8100Y3.9262Z0.00644
G01 X1.8189Y3.9270Z0.00648
G01 X1.8275Y3.9296Z0.00652
G01 X1.8355Y3.9339Z0.00656
G01 X1.8424Y3.9396Z0.00659
G01 X1.8481Y3.9465Z0.00661
G01 X1.8524Y3.9545Z0.00663
G01 X1.8550Y3.9631Z0.00663
G01 X1.8558Y3.9722Z0.00663
G00 Z0.4000
G00 X1.8983Y4.0465
G01 Z0.00679
G01 X1.8988Y4.0431Z0.00680
G01 X1.9005Y4.0402Z0.00681
G01 X1.9033Y4.0381Z0.00682
G01 X1.9066Y4.0373Z0.00684
G01 X1.9589Y4.0373Z0.00710
G01 X1.9628Y4.0388Z0.00711
G01 X1.9672Y4.0432Z0.00713
G01 X1.9687Y4.0471Z0.00714
G01 X1.9683Y4.0555Z0.00713
G01 X1.9665Y4.0588Z0.00712
G01 X1.9611Y4.0637Z0.00709
G01 X1.9574Y4.0647Z0.00707
G01 X1.9257Y4.0653Z0.00692
G01 X1.9257Y4.0743Z0.00691
G01 X1.9555Y4.0747Z0.00706
G01 X1.9609Y4.0776Z0.00708
G01 X1.9657Y4.0825Z0.00710
G01 X1.9679Y4.0862Z0.00711
G01 X1.9697Y4.0935Z0.00712
G01 X1.9696Y4.1203Z0.00710
G01 X1.9674Y4.1285Z0.00709
G01 X1.9598Y4.1362Z0.00705
G01 X1.9534Y4.1387Z0.00701
G01 X1.9095Y4.1387Z0.00680
G01 X1.9052Y4.1372Z0.00678
G01 X1.8998Y4.1318Z0.00675
G01 X1.8983Y4.1279Z0.00675
G01 X1.8986Y4.1209Z0.00675
G01 X1.9003Y4.1175Z0.00676
G01 X1.9048Y4.1130Z0.00679
G01 X1.9095Y4.1113Z0.00681
G01 X1.9413Y4.1107Z0.00697
G01 X1.9413Y4.1017Z0.00697
G01 X1.9133Y4.1015Z0.00684
G01 X1.9062Y4.0982Z0.00680
G01 X1.9020Y4.0942Z0.00678
G01 X1.8983Y4.0859Z0.00677
G01 X1.8983Y4.0465Z0.00679
G00 Z0.4000
G00 X1.8555Y4.0724
G01 Z0.00657
G01 X1.8546Y4.0809Z0.00656
G01 X1.8520Y4.0894Z0.00654
G01 X1.8478Y4.0973Z0.00652
G01 X1.8422Y4.1042Z0.00649
G01 X1.8353Y4.1098Z0.00645
G01 X1.8274Y4.1140Z0.00641
G01 X1.8189Y4.1166Z0.00636
G01 X1.8100Y4.1175Z0.00632
G01 X1.8011Y4.1166Z0.00628
G01 X1.7926Y4.1140Z0.00624
G01 X1.7847Y4.1098Z0.00620
G01 X1.7778Y4.1042Z0.00617
G01 X1.7722Y4.0973Z0.00615
G01 X1.7680Y4.0894Z0.00613
G01 X1.7654Y4.0809Z0.00612
G01 X1.7645Y4.0720Z0.00612
G01 X1.7654Y4.0631Z0.00614
G01 X1.7680Y4.0546Z0.00615
G01 X1.7722Y4.0467Z0.00618
G01 X1.7778Y4.0398Z0.00621
G01 X1.7847Y4.0342Z0.00625
G01 X1.7926Y4.0300Z0.00629
G01 X1.8011Y4.0274Z0.00633
G01 X1.8100Y4.0265Z0.00638
G01 X1.8189Y4.0274Z0.00642
G01 X1.8274Y4.0300Z0.00646
G01 X1.8353Y4.0342Z0.00649
G01 X1.8422Y4.0398Z0.00652
G01 X1.8478Y4.0467Z0.00655
G01 X1.8520Y4.0546Z0.00656
G01 X1.8546Y4.0631Z0.00657
G01 X1.8555Y4.0724Z0.00657
G00 Z0.4000
G00 X1.9773Y4.0465
G01 Z0.00718
G01 X1.9778Y4.0431Z0.00718
G01 X1.9795Y4.0402Z0.00719
G01 X1.9822Y4.0381Z0.00721
G01 X1.9855Y4.0373Z0.00722
G01 X2.0369Y4.0373Z0.00744
G01 X2.0424Y4.0395Z0.00746
G01 X2.0452Y4.0422Z0.00747
G01 X2.0475Y4.0473Z0.00748
G01 X2.0475Y4.0547Z0.00748
G01 X2.0457Y4.0585Z0.00747
G01 X2.0414Y4.0625Z0.00745
G01 X2.0359Y4.0647Z0.00743
G01 X2.0047Y4.0653Z0.00730
G01 X2.0047Y4.0743Z0.00730
G01 X2.0335Y4.0747Z0.00741
G01 X2.0398Y4.0775Z0.00743
G01 X2.0447Y4.0825Z0.00745
G01 X2.0469Y4.0862Z0.00746
G01 X2.0477Y4.0900Z0.00746
G01 X2.0476Y4.1243Z0.00744
G01 X2.0450Y4.1302Z0.00743
G01 X2.0388Y4.1362Z0.00740
G01 X2.0324Y4.1387Z0.00738
G01 X1.9886Y4.1387Z0.00719
G01 X1.9829Y4.1367Z0.00716
G01 X1.9798Y4.1338Z0.00715
G01 X1.9775Y4.1287Z0.00714
G01 X1.9775Y4.1213Z0.00714
G01 X1.9790Y4.1178Z0.00715
G01 X1.9835Y4.1133Z0.00717
G01 X1.9885Y4.1113Z0.00720
G01 X2.0203Y4.1107Z0.00734
G01 X2.0203Y4.1017Z0.00735
G01 X1.9923Y4.1015Z0.00722
G01 X1.9852Y4.0982Z0.00719
G01 X1.9800Y4.0932Z0.00717
G01 X1.9773Y4.0865Z0.00716
G01 X1.9773Y4.0465Z0.00718
G00 Z0.4000
G00 X2.0563Y4.0525
G01 Z0.00751
G01 X2.0571Y4.0483Z0.00752
G01 X2.0608Y4.0428Z0.00753
G01 X2.0639Y4.0403Z0.00755
G01 X2.0711Y4.0373Z0.00757
G01 X2.1123Y4.0374Z0.00773
G01 X2.1182Y4.0400Z0.00775
G01 X2.1240Y4.0458Z0.00777
G01 X2.1267Y4.0536Z0.00778
G01 X2.1267Y4.1225Z0.00774
G01 X2.1234Y4.1305Z0.00773
G01 X2.1182Y4.1360Z0.00770
G01 X2.1105Y4.1387Z0.00767
G01 X2.0711Y4.1387Z0.00752
G01 X2.0652Y4.1362Z0.00750
G01 X2.0590Y4.1302Z0.00748
G01 X2.0563Y4.1234Z0.00747
G01 X2.0563Y4.0525Z0.00751
G00 Z0.4000
G00 X2.0837Y4.1111
G01 Z0.00758
G01 X2.0837Y4.0647Z0.00761
G01 X2.0993Y4.0647Z0.00767
G01 X2.0993Y4.1107Z0.00764
G01 X2.0837Y4.1111Z0.00758
G00 Z0.4000
G00 X2.1558Y3.9722
G01 Z0.00793
G01 X2.1550Y3.9809Z0.00792
G01 X2.1524Y3.9895Z0.00791
G01 X2.1481Y3.9975Z0.00789
G01 X2.1424Y4.0044Z0.00786
G01 X2.1355Y4.0101Z0.00783
G01 X2.1275Y4.0144Z0.00780
G01 X2.1189Y4.0170Z0.00777
G01 X2.1100Y4.0178Z0.00773
G01 X2.1011Y4.0170Z0.00770
G01 X2.0925Y4.0144Z0.00767
G01 X2.0845Y4.0101Z0.00764
G01 X2.0776Y4.0044Z0.00762
G01 X2.0719Y3.9975Z0.00760
G01 X2.0676Y3.9895Z0.00759
G01 X2.0650Y3.9809Z0.00758
G01 X2.0642Y3.9720Z0.00758
G01 X2.0650Y3.9631Z0.00759
G01 X2.0676Y3.9545Z0.00760
G01 X2.0719Y3.9465Z0.00762
G01 X2.0776Y3.9396Z0.00765
G01 X2.0845Y3.9339Z0.00768
G01 X2.0925Y3.9296Z0.00771
G01 X2.1011Y3.9270Z0.00775
G01 X2.1100Y3.9262Z0.00778
G01 X2.1189Y3.9270Z0.00781
G01 X2.1275Y3.9296Z0.00784
G01 X2.1355Y3.9339Z0.00787
G01 X2.1424Y3.9396Z0.00790
G01 X2.1481Y3.9465Z0.00791
G01 X2.1524Y3.9545Z0.00793
G01 X2.1550Y3.9631Z0.00793
G01 X2.1558Y3.9722Z0.00793
G00 Z0.4000
G00 X2.2555Y4.0724
G01 Z0.00826
G01 X2.2546Y4.0809Z0.00825
G01 X2.2520Y4.0894Z0.00823
G01 X2.2478Y4.0973Z0.00821
G01 X2.2422Y4.1042Z0.00819
G01 X2.2353Y4.1098Z0.00816
G01 X2.2274Y4.1140Z0.00813
G01 X2.2189Y4.1166Z0.00810
G01 X2.2100Y4.1175Z0.00806
G01 X2.2011Y4.1166Z0.00803
G01 X2.1926Y4.1140Z0.00800
G01 X2.1847Y4.1098Z0.00797
G01 X2.1778Y4.1042Z0.00795
G01 X2.1722Y4.0973Z0.00793
G01 X2.1680Y4.0894Z0.00792
G01 X2.1654Y4.0809Z0.00791
G01 X2.1645Y4.0720Z0.00791
G01 X2.1654Y4.0631Z0.00792
G01 X2.1680Y4.0546Z0.00793
G01 X2.1722Y4.0467Z0.00795
G01 X2.1778Y4.0398Z0.00798
G01 X2.1847Y4.0342Z0.00801
G01 X2.1926Y4.0300Z0.00804
G01 X2.2011Y4.0274Z0.00807
G01 X2.2100Y4.0265Z0.00811
G01 X2.2189Y4.0274Z0.00814
G01 X2.2274Y4.0300Z0.00817
G01 X2.2353Y4.0342Z0.00820
G01 X2.2422Y4.0398Z0.00822
G01 X2.2478Y4.0467Z0.00824
G01 X2.2520Y4.0546Z0.00825
G01 X2.2546Y4.0631Z0.00826
G01 X2.2555Y4.0724Z0.00826
G00 Z0.4000
G00 X2.4469Y4.0051
G01 Z0.00906
G01 X2.4415Y4.0104Z0.00903
G01 X2.4334Y4.0158Z0.00899
G01 X2.4244Y4.0195Z0.00895
G01 X2.4149Y4.0214Z0.00890
G01 X2.4051Y4.0214Z0.00886
G01 X2.3956Y4.0195Z0.00882
G01 X2.3866Y4.0158Z0.00878
G01 X2.3785Y4.0104Z0.00876
G01 X2.3716Y4.0035Z0.00873
G01 X2.3662Y3.9954Z0.00872
G01 X2.3625Y3.9864Z0.00871
G01 X2.3606Y3.9769Z0.00871
G01 X2.3606Y3.9671Z0.00871
G01 X2.3625Y3.9576Z0.00872
G01 X2.3662Y3.9486Z0.00874
G01 X2.3716Y3.9405Z0.00877
G01 X2.3824Y3.9307Z0.00881
G01 X2.3956Y3.9245Z0.00887
G01 X2.4100Y3.9223Z0.00893
G01 X2.4193Y3.9232Z0.00897
G01 X2.4248Y3.9246Z0.00900
G01 X2.4376Y3.9307Z0.00905
G01 X2.4484Y3.9405Z0.00910
G01 X2.4559Y3.9530Z0.00912
G01 X2.4594Y3.9671Z0.00913
G01 X2.63659Y4.02686Z0.00991 ;segmented line. Max segment length set to 0.187
G01 X2.7144Y4.0531Z0.01025
G01 X2.7201Y4.0561Z0.01027
G01 X2.7240Y4.0600Z0.01029
G01 X2.83620Y4.20960Z0.01066 ;segmented line. Max segment length set to 0.187
G01 X2.94840Y4.35920Z0.01085 ;segmented line. Max segment length set to 0.187
G01 X3.0090Y4.4400Z0.01086
G01 X3.19600Y4.44000Z0.01147 ;segmented line. Max segment length set to 0.187
G01 X3.38300Y4.44000Z0.01201 ;segmented line. Max segment length set to 0.187
G01 X3.3909Y4.4400Z0.01203
G01 X3.49472Y4.28447Z0.01263 ;segmented line. Max segment length set to 0.187
G01 X3.5824Y4.1531Z0.01301
G01 X3.5864Y4.1484Z0.01302
G01 X3.5909Y4.1446Z0.01304
G01 X3.6002Y4.1402Z0.01307
G01 X3.6090Y4.1390Z0.01309
G01 X3.79600Y4.13977Z0.01359 ;segmented line. Max segment length set to 0.187
G01 X3.9716Y4.1405Z0.01404
G01 X3.9788Y4.1334Z0.01406
G01 X3.9910Y4.1261Z0.01408
G01 X4.0047Y4.1226Z0.01411
G01 X4.0149Y4.1226Z0.01412
G01 X4.0244Y4.1245Z0.01414
G01 X4.0334Y4.1282Z0.01415
G01 X4.0415Y4.1336Z0.01415
G01 X4.0484Y4.1405Z0.01416
G01 X4.0538Y4.1486Z0.01416
G01 X4.0575Y4.1576Z0.01416
G01 X4.0594Y4.1671Z0.01416
G01 X4.0594Y4.1769Z0.01415
G01 X4.0575Y4.1864Z0.01414
G01 X4.0540Y4.1951Z0.01413
G01 X4.0511Y4.1999Z0.01412
G01 X4.0451Y4.2071Z0.01411
G01 X4.0376Y4.2133Z0.01409
G01 X4.0294Y4.2177Z0.01407
G01 X4.0201Y4.2206Z0.01406
G01 X4.0145Y4.2214Z0.01405
G01 X4.0007Y4.2208Z0.01403
G01 X3.9910Y4.2179Z0.01402
G01 X3.9788Y4.2106Z0.01400
G01 X3.9716Y4.2035Z0.01400
G01 X3.9659Y4.2040Z0.01399
G01 X3.77890Y4.20345Z0.01349 ;segmented line. Max segment length set to 0.187
G01 X3.6261Y4.2030Z0.01307
G01 X3.52226Y4.35852Z0.01257 ;segmented line. Max segment length set to 0.187
G01 X3.4346Y4.4898Z0.01205
G01 X3.4306Y4.4946Z0.01203
G01 X3.4258Y4.4986Z0.01200
G01 X3.4203Y4.5016Z0.01198
G01 X3.4146Y4.5033Z0.01196
G01 X3.4080Y4.5040Z0.01194
G01 X3.22100Y4.50400Z0.01140 ;segmented line. Max segment length set to 0.187
G01 X3.03400Y4.50400Z0.01080 ;segmented line. Max segment length set to 0.187
G01 X2.84700Y4.50400Z0.01019 ;segmented line. Max segment length set to 0.187
G01 X2.66000Y4.50400Z0.00943 ;segmented line. Max segment length set to 0.187
G01 X2.6540Y4.5040Z0.00940
G01 X2.6484Y4.5035Z0.00938
G01 X2.6412Y4.5106Z0.00933
G01 X2.6290Y4.5179Z0.00926
G01 X2.6193Y4.5208Z0.00921
G01 X2.6051Y4.5214Z0.00915
G01 X2.5960Y4.5196Z0.00911
G01 X2.5906Y4.5177Z0.00909
G01 X2.5824Y4.5133Z0.00906
G01 X2.5749Y4.5071Z0.00904
G01 X2.5687Y4.4996Z0.00903
G01 X2.5643Y4.4914Z0.00903
G01 X2.5624Y4.4860Z0.00903
G01 X2.5606Y4.4765Z0.00905
G01 X2.5606Y4.4671Z0.00907
G01 X2.5624Y4.4580Z0.00909
G01 X2.5643Y4.4526Z0.00911
G01 X2.5689Y4.4441Z0.00915
G01 X2.5749Y4.4369Z0.00919
G01 X2.5824Y4.4307Z0.00924
G01 X2.5910Y4.4261Z0.00929
G01 X2.5999Y4.4234Z0.00933
G01 X2.6104Y4.4224Z0.00938
G01 X2.6193Y4.4232Z0.00942
G01 X2.6248Y4.4246Z0.00944
G01 X2.6376Y4.4307Z0.00949
G01 X2.6484Y4.4405Z0.00951
G01 X2.6540Y4.4400Z0.00954
G01 X2.84100Y4.44000Z0.01031 ;segmented line. Max segment length set to 0.187
G01 X2.9590Y4.4400Z0.01070
G01 X2.84679Y4.29041Z0.01065 ;segmented line. Max segment length set to 0.187
G01 X2.73457Y4.14082Z0.01029 ;segmented line. Max segment length set to 0.187
G01 X2.6957Y4.0890Z0.01014
G01 X2.51850Y4.02925Z0.00937 ;segmented line. Max segment length set to 0.187
G01 X2.4469Y4.0051Z0.00906
G00 Z0.4000
G00 X2.4463Y3.7382
G01 Z0.00914
G01 X2.62397Y3.67986Z0.00997 ;segmented line. Max segment length set to 0.187
G01 X2.6890Y3.6585Z0.01027
G01 X2.68926Y3.47150Z0.01034 ;segmented line. Max segment length set to 0.187
G01 X2.68953Y3.28450Z0.01047 ;segmented line. Max segment length set to 0.187
G01 X2.68979Y3.09750Z0.01056 ;segmented line. Max segment length set to 0.187
G01 X2.69006Y2.91050Z0.01050 ;segmented line. Max segment length set to 0.187
G01 X2.69032Y2.72350Z0.01044 ;segmented line. Max segment length set to 0.187
G01 X2.6904Y2.6681Z0.01040
G01 X2.6924Y2.6626Z0.01040
G01 X2.6959Y2.6579Z0.01041
G01 X2.82813Y2.52567Z0.01080 ;segmented line. Max segment length set to 0.187
G01 X2.8949Y2.4589Z0.01095
G01 X2.8999Y2.4552Z0.01096
G01 X2.9047Y2.4535Z0.01097
G01 X2.9090Y2.4530Z0.01099
G01 X3.09600Y2.45300Z0.01155 ;segmented line. Max segment length set to 0.187
G01 X3.28300Y2.45300Z0.01209 ;segmented line. Max segment length set to 0.187
G01 X3.47000Y2.45300Z0.01259 ;segmented line. Max segment length set to 0.187
G01 X3.65700Y2.45300Z0.01308 ;segmented line. Max segment length set to 0.187
G01 X3.84400Y2.45300Z0.01354 ;segmented line. Max segment length set to 0.187
G01 X4.03100Y2.45300Z0.01396 ;segmented line. Max segment length set to 0.187
G01 X4.21800Y2.45300Z0.01431 ;segmented line. Max segment length set to 0.187
G01 X4.40500Y2.45300Z0.01461 ;segmented line. Max segment length set to 0.187
G01 X4.59200Y2.45300Z0.01479 ;segmented line. Max segment length set to 0.187
G01 X4.77900Y2.45300Z0.01494 ;segmented line. Max segment length set to 0.187
G01 X4.96600Y2.45300Z0.01499 ;segmented line. Max segment length set to 0.187
G01 X5.0070Y2.4530Z0.01500
G01 X5.0128Y2.4539Z0.01500
G01 X5.0175Y2.4560Z0.01500
G01 X5.0209Y2.4586Z0.01500
G01 X5.15539Y2.58852Z0.01509 ;segmented line. Max segment length set to 0.187
G01 X5.2269Y2.6576Z0.01511
G01 X5.2308Y2.6629Z0.01511
G01 X5.2329Y2.6697Z0.01511
G01 X5.23264Y2.85670Z0.01516 ;segmented line. Max segment length set to 0.187
G01 X5.23239Y3.04370Z0.01517 ;segmented line. Max segment length set to 0.187
G01 X5.23213Y3.23070Z0.01520 ;segmented line. Max segment length set to 0.187
G01 X5.23188Y3.41770Z0.01523 ;segmented line. Max segment length set to 0.187
G01 X5.23162Y3.60470Z0.01524 ;segmented line. Max segment length set to 0.187
G01 X5.23137Y3.79170Z0.01522 ;segmented line. Max segment length set to 0.187
G01 X5.23111Y3.97870Z0.01512 ;segmented line. Max segment length set to 0.187
G01 X5.2310Y4.0615Z0.01503
G01 X5.39893Y4.14378Z0.01486 ;segmented line. Max segment length set to 0.187
G01 X5.56686Y4.22606Z0.01466 ;segmented line. Max segment length set to 0.187
G01 X5.6198Y4.2520Z0.01455
G01 X5.6243Y4.2551Z0.01454
G01 X5.6277Y4.2589Z0.01453
G01 X5.6302Y4.2642Z0.01452
G01 X5.6310Y4.2701Z0.01451
G01 X5.63048Y4.45710Z0.01417 ;segmented line. Max segment length set to 0.187
G01 X5.6300Y4.6295Z0.01382
G01 X5.6361Y4.6329Z0.01380
G01 X5.6432Y4.6388Z0.01378
G01 X5.6491Y4.6459Z0.01375
G01 X5.6533Y4.6537Z0.01373
G01 X5.6560Y4.6624Z0.01370
G01 X5.6568Y4.6678Z0.01369
G01 X5.6568Y4.6766Z0.01367
G01 X5.6550Y4.6856Z0.01366
G01 X5.6516Y4.6938Z0.01364
G01 X5.6489Y4.6984Z0.01363
G01 X5.6432Y4.7052Z0.01362
G01 X5.6361Y4.7111Z0.01362
G01 X5.6283Y4.7153Z0.01362
G01 X5.6233Y4.7171Z0.01362
G01 X5.6146Y4.7188Z0.01363
G01 X5.6058Y4.7188Z0.01365
G01 X5.6004Y4.7180Z0.01366
G01 X5.5920Y4.7154Z0.01368
G01 X5.5842Y4.7113Z0.01371
G01 X5.5799Y4.7081Z0.01372
G01 X5.5737Y4.7018Z0.01376
G01 X5.5687Y4.6945Z0.01379
G01 X5.5651Y4.6860Z0.01382
G01 X5.5638Y4.6808Z0.01383
G01 X5.5630Y4.6720Z0.01385
G01 X5.5638Y4.6632Z0.01387
G01 X5.5651Y4.6580Z0.01387
G01 X5.5685Y4.6498Z0.01389
G01 X5.5734Y4.6425Z0.01389
G01 X5.5771Y4.6385Z0.01389
G01 X5.5839Y4.6329Z0.01389
G01 X5.5900Y4.6295Z0.01389
G01 X5.59054Y4.44250Z0.01427 ;segmented line. Max segment length set to 0.187
G01 X5.5910Y4.2825Z0.01457
G01 X5.42307Y4.20022Z0.01480 ;segmented line. Max segment length set to 0.187
G01 X5.25514Y4.11794Z0.01495 ;segmented line. Max segment length set to 0.187
G01 X5.2020Y4.0919Z0.01501
G01 X5.1955Y4.0867Z0.01502
G01 X5.1919Y4.0798Z0.01503
G01 X5.1910Y4.0740Z0.01504
G01 X5.19127Y3.88700Z0.01523 ;segmented line. Max segment length set to 0.187
G01 X5.19154Y3.70000Z0.01525 ;segmented line. Max segment length set to 0.187
G01 X5.19181Y3.51300Z0.01526 ;segmented line. Max segment length set to 0.187
G01 X5.19208Y3.32600Z0.01522 ;segmented line. Max segment length set to 0.187
G01 X5.19235Y3.13900Z0.01518 ;segmented line. Max segment length set to 0.187
G01 X5.19262Y2.95200Z0.01517 ;segmented line. Max segment length set to 0.187
G01 X5.19288Y2.76500Z0.01516 ;segmented line. Max segment length set to 0.187
G01 X5.1930Y2.6805Z0.01513
G01 X5.05850Y2.55058Z0.01506 ;segmented line. Max segment length set to 0.187
G01 X4.9989Y2.4930Z0.01501
G01 X4.81190Y2.49300Z0.01497 ;segmented line. Max segment length set to 0.187
G01 X4.62490Y2.49300Z0.01484 ;segmented line. Max segment length set to 0.187
G01 X4.43790Y2.49300Z0.01467 ;segmented line. Max segment length set to 0.187
G01 X4.25090Y2.49300Z0.01441 ;segmented line. Max segment length set to 0.187
G01 X4.06390Y2.49300Z0.01406 ;segmented line. Max segment length set to 0.187
G01 X3.87690Y2.49300Z0.01367 ;segmented line. Max segment length set to 0.187
G01 X3.68990Y2.49300Z0.01322 ;segmented line. Max segment length set to 0.187
G01 X3.50290Y2.49300Z0.01274 ;segmented line. Max segment length set to 0.187
G01 X3.31590Y2.49300Z0.01222 ;segmented line. Max segment length set to 0.187
G01 X3.12890Y2.49300Z0.01168 ;segmented line. Max segment length set to 0.187
G01 X2.94190Y2.49300Z0.01112 ;segmented line. Max segment length set to 0.187
G01 X2.9173Y2.4930Z0.01104
G01 X2.78507Y2.62523Z0.01074 ;segmented line. Max segment length set to 0.187
G01 X2.7300Y2.6803Z0.01056
G01 X2.72981Y2.86730Z0.01066 ;segmented line. Max segment length set to 0.187
G01 X2.72962Y3.05430Z0.01073 ;segmented line. Max segment length set to 0.187
G01 X2.72943Y3.24130Z0.01069 ;segmented line. Max segment length set to 0.187
G01 X2.72924Y3.42830Z0.01055 ;segmented line. Max segment length set to 0.187
G01 X2.72906Y3.61530Z0.01046 ;segmented line. Max segment length set to 0.187
G01 X2.7290Y3.6730Z0.01045
G01 X2.7276Y3.6802Z0.01044
G01 X2.7231Y3.6872Z0.01042
G01 X2.7198Y3.6899Z0.01040
G01 X2.7154Y3.6919Z0.01038
G01 X2.53775Y3.75028Z0.00956 ;segmented line. Max segment length set to 0.187
G01 X2.4595Y3.7760Z0.00920
G01 X2.4574Y3.7868Z0.00918
G01 X2.4540Y3.7951Z0.00917
G01 X2.4511Y3.7999Z0.00915
G01 X2.4415Y3.8104Z0.00910
G01 X2.4337Y3.8156Z0.00907
G01 X2.4286Y3.8180Z0.00904
G01 X2.4149Y3.8214Z0.00898
G01 X2.4003Y3.8207Z0.00891
G01 X2.3866Y3.8158Z0.00886
G01 X2.3749Y3.8071Z0.00882
G01 X2.3687Y3.7996Z0.00880
G01 X2.3641Y3.7910Z0.00878
G01 X2.3613Y3.7817Z0.00877
G01 X2.3603Y3.7720Z0.00877
G01 X2.3613Y3.7623Z0.00878
G01 X2.3641Y3.7530Z0.00879
G01 X2.3687Y3.7444Z0.00881
G01 X2.3749Y3.7369Z0.00884
G01 X2.3824Y3.7307Z0.00887
G01 X2.3910Y3.7261Z0.00890
G01 X2.4003Y3.7233Z0.00894
G01 X2.4100Y3.7223Z0.00898
G01 X2.4197Y3.7233Z0.00903
G01 X2.4290Y3.7261Z0.00907
G01 X2.4376Y3.7307Z0.00911
G01 X2.4463Y3.7382Z0.00914
G00 Z0.4000
G00 X2.2555Y3.7722
G01 Z0.00838
G01 X2.2546Y3.7809Z0.00837
G01 X2.2520Y3.7894Z0.00836
G01 X2.2478Y3.7973Z0.00834
G01 X2.2422Y3.8042Z0.00832
G01 X2.2353Y3.8098Z0.00829
G01 X2.2274Y3.8140Z0.00826
G01 X2.2189Y3.8166Z0.00822
G01 X2.2100Y3.8175Z0.00819
G01 X2.2011Y3.8166Z0.00816
G01 X2.1926Y3.8140Z0.00813
G01 X2.1847Y3.8098Z0.00810
G01 X2.1778Y3.8042Z0.00807
G01 X2.1722Y3.7973Z0.00805
G01 X2.1680Y3.7894Z0.00804
G01 X2.1654Y3.7809Z0.00803
G01 X2.1645Y3.7720Z0.00803
G01 X2.1654Y3.7631Z0.00804
G01 X2.1680Y3.7546Z0.00805
G01 X2.1722Y3.7467Z0.00807
G01 X2.1778Y3.7398Z0.00809
G01 X2.1847Y3.7342Z0.00812
G01 X2.1926Y3.7300Z0.00815
G01 X2.2011Y3.7274Z0.00818
G01 X2.2100Y3.7265Z0.00821
G01 X2.2189Y3.7274Z0.00825
G01 X2.2274Y3.7300Z0.00828
G01 X2.2353Y3.7342Z0.00831
G01 X2.2422Y3.7398Z0.00833
G01 X2.2478Y3.7467Z0.00835
G01 X2.2520Y3.7546Z0.00837
G01 X2.2546Y3.7631Z0.00837
G01 X2.2555Y3.7722Z0.00838
G00 Z0.4000
G00 X2.0707Y3.7801
G01 Z0.00767
G01 X2.0707Y3.7337Z0.00768
G01 X2.0873Y3.7337Z0.00775
G01 X2.0873Y3.7797Z0.00773
G01 X2.0707Y3.7801Z0.00767
G00 Z0.4000
G00 X2.0718Y3.8262
G01 Z0.00766
G01 X2.1482Y3.8262Z0.00795
G01 X2.1513Y3.8269Z0.00797
G01 X2.1538Y3.8288Z0.00797
G01 X2.1558Y3.8338Z0.00798
G01 X2.1558Y3.9098Z0.00796
G01 X2.1551Y3.9133Z0.00796
G01 X2.1532Y3.9158Z0.00795
G01 X2.1482Y3.9178Z0.00793
G01 X2.0722Y3.9178Z0.00764
G01 X2.0687Y3.9171Z0.00763
G01 X2.0662Y3.9152Z0.00762
G01 X2.0642Y3.9102Z0.00761
G01 X2.0642Y3.8338Z0.00763
G01 X2.0662Y3.8288Z0.00764
G01 X2.0687Y3.8269Z0.00765
G01 X2.0718Y3.8262Z0.00766
G00 Z0.4000
G00 X2.0433Y3.7255
G01 Z0.00758
G01 X2.0448Y3.7180Z0.00759
G01 X2.0483Y3.7125Z0.00760
G01 X2.0535Y3.7086Z0.00762
G01 X2.0583Y3.7065Z0.00764
G01 X2.0992Y3.7064Z0.00780
G01 X2.1065Y3.7096Z0.00783
G01 X2.1107Y3.7135Z0.00784
G01 X2.1140Y3.7197Z0.00785
G01 X2.1147Y3.7225Z0.00785
G01 X2.1147Y3.7914Z0.00784
G01 X2.1114Y3.7995Z0.00782
G01 X2.1065Y3.8047Z0.00780
G01 X2.1023Y3.8070Z0.00778
G01 X2.0995Y3.8077Z0.00777
G01 X2.0585Y3.8077Z0.00762
G01 X2.0522Y3.8052Z0.00759
G01 X2.0473Y3.8005Z0.00758
G01 X2.0450Y3.7963Z0.00757
G01 X2.0433Y3.7905Z0.00756
G01 X2.0433Y3.7255Z0.00758
G00 Z0.4000
G00 X1.9653Y3.7155
G01 Z0.00725
G01 X1.9658Y3.7121Z0.00725
G01 X1.9676Y3.7091Z0.00726
G01 X1.9703Y3.7071Z0.00728
G01 X1.9738Y3.7063Z0.00729
G01 X2.0249Y3.7063Z0.00752
G01 X2.0292Y3.7080Z0.00753
G01 X2.0342Y3.7132Z0.00755
G01 X2.0357Y3.7171Z0.00755
G01 X2.0353Y3.7245Z0.00755
G01 X2.0335Y3.7278Z0.00754
G01 X2.0281Y3.7327Z0.00752
G01 X2.0244Y3.7337Z0.00751
G01 X1.9927Y3.7343Z0.00737
G01 X1.9927Y3.7433Z0.00737
G01 X2.0215Y3.7437Z0.00749
G01 X2.0289Y3.7476Z0.00752
G01 X2.0322Y3.7512Z0.00753
G01 X2.0349Y3.7562Z0.00754
G01 X2.0357Y3.7600Z0.00754
G01 X2.0356Y3.7933Z0.00753
G01 X2.0330Y3.7992Z0.00752
G01 X2.0268Y3.8052Z0.00750
G01 X2.0204Y3.8077Z0.00747
G01 X1.9755Y3.8077Z0.00727
G01 X1.9712Y3.8062Z0.00725
G01 X1.9668Y3.8018Z0.00723
G01 X1.9653Y3.7979Z0.00723
G01 X1.9655Y3.7903Z0.00723
G01 X1.9670Y3.7868Z0.00724
G01 X1.9708Y3.7830Z0.00726
G01 X1.9771Y3.7803Z0.00729
G01 X2.0083Y3.7797Z0.00743
G01 X2.0083Y3.7707Z0.00744
G01 X1.9793Y3.7705Z0.00730
G01 X1.9738Y3.7680Z0.00727
G01 X1.9680Y3.7622Z0.00725
G01 X1.9653Y3.7555Z0.00724
G01 X1.9653Y3.7155Z0.00725
G00 Z0.4000
G00 X1.5555Y3.8722
G01 Z0.00528
G01 X1.5546Y3.8809Z0.00527
G01 X1.5520Y3.8894Z0.00526
G01 X1.5478Y3.8973Z0.00523
G01 X1.5422Y3.9042Z0.00521
G01 X1.5353Y3.9098Z0.00517
G01 X1.5274Y3.9140Z0.00514
G01 X1.5189Y3.9166Z0.00510
G01 X1.5100Y3.9175Z0.00506
G01 X1.5011Y3.9166Z0.00502
G01 X1.4926Y3.9140Z0.00499
G01 X1.4847Y3.9098Z0.00496
G01 X1.4778Y3.9042Z0.00493
G01 X1.4722Y3.8973Z0.00491
G01 X1.4680Y3.8894Z0.00490
G01 X1.4654Y3.8809Z0.00489
G01 X1.4645Y3.8720Z0.00489
G01 X1.4654Y3.8631Z0.00490
G01 X1.4680Y3.8546Z0.00491
G01 X1.4722Y3.8467Z0.00494
G01 X1.4778Y3.8398Z0.00496
G01 X1.4847Y3.8342Z0.00500
G01 X1.4926Y3.8300Z0.00503
G01 X1.5011Y3.8274Z0.00507
G01 X1.5100Y3.8265Z0.00511
G01 X1.5189Y3.8274Z0.00515
G01 X1.5274Y3.8300Z0.00518
G01 X1.5353Y3.8342Z0.00521
G01 X1.5422Y3.8398Z0.00524
G01 X1.5478Y3.8467Z0.00526
G01 X1.5520Y3.8546Z0.00527
G01 X1.5546Y3.8631Z0.00528
G01 X1.5555Y3.8722Z0.00528
G00 Z0.4000
G00 X1.5555Y3.9722
G01 Z0.00522
G01 X1.5546Y3.9809Z0.00521
G01 X1.5520Y3.9894Z0.00519
G01 X1.5478Y3.9973Z0.00517
G01 X1.5422Y4.0042Z0.00514
G01 X1.5353Y4.0098Z0.00511
G01 X1.5274Y4.0140Z0.00507
G01 X1.5189Y4.0166Z0.00503
G01 X1.5100Y4.0175Z0.00499
G01 X1.5011Y4.0166Z0.00496
G01 X1.4926Y4.0140Z0.00492
G01 X1.4847Y4.0098Z0.00489
G01 X1.4778Y4.0042Z0.00487
G01 X1.4722Y3.9973Z0.00485
G01 X1.4680Y3.9894Z0.00483
G01 X1.4654Y3.9809Z0.00483
G01 X1.4645Y3.9720Z0.00483
G01 X1.4654Y3.9631Z0.00484
G01 X1.4680Y3.9546Z0.00486
G01 X1.4722Y3.9467Z0.00488
G01 X1.4778Y3.9398Z0.00491
G01 X1.4847Y3.9342Z0.00494
G01 X1.4926Y3.9300Z0.00498
G01 X1.5011Y3.9274Z0.00502
G01 X1.5100Y3.9265Z0.00506
G01 X1.5189Y3.9274Z0.00509
G01 X1.5274Y3.9300Z0.00513
G01 X1.5353Y3.9342Z0.00516
G01 X1.5422Y3.9398Z0.00518
G01 X1.5478Y3.9467Z0.00520
G01 X1.5520Y3.9546Z0.00521
G01 X1.5546Y3.9631Z0.00522
G01 X1.5555Y3.9722Z0.00522
G00 Z0.4000
G00 X1.5555Y4.0724
G01 Z0.00515
G01 X1.5546Y4.0809Z0.00514
G01 X1.5520Y4.0894Z0.00512
G01 X1.5478Y4.0973Z0.00510
G01 X1.5422Y4.1042Z0.00507
G01 X1.5353Y4.1098Z0.00504
G01 X1.5274Y4.1140Z0.00500
G01 X1.5189Y4.1166Z0.00496
G01 X1.5100Y4.1175Z0.00492
G01 X1.5011Y4.1166Z0.00489
G01 X1.4926Y4.1140Z0.00485
G01 X1.4847Y4.1098Z0.00482
G01 X1.4778Y4.1042Z0.00480
G01 X1.4722Y4.0973Z0.00478
G01 X1.4680Y4.0894Z0.00477
G01 X1.4654Y4.0809Z0.00476
G01 X1.4645Y4.0720Z0.00476
G01 X1.4654Y4.0631Z0.00477
G01 X1.4680Y4.0546Z0.00479
G01 X1.4722Y4.0467Z0.00481
G01 X1.4778Y4.0398Z0.00484
G01 X1.4847Y4.0342Z0.00487
G01 X1.4926Y4.0300Z0.00491
G01 X1.5011Y4.0274Z0.00495
G01 X1.5100Y4.0265Z0.00499
G01 X1.5189Y4.0274Z0.00502
G01 X1.5274Y4.0300Z0.00506
G01 X1.5353Y4.0342Z0.00509
G01 X1.5422Y4.0398Z0.00511
G01 X1.5478Y4.0467Z0.00513
G01 X1.5520Y4.0546Z0.00514
G01 X1.5546Y4.0631Z0.00515
G01 X1.5555Y4.0724Z0.00515
G00 Z0.4000
G00 X1.1227Y4.1287
G01 Z0.00322
G01 X1.1920Y4.0643Z0.00360
G01 X1.19203Y3.87730Z0.00370 ;segmented line. Max segment length set to 0.187
G01 X1.19206Y3.69030Z0.00380 ;segmented line. Max segment length set to 0.187
G01 X1.19209Y3.50330Z0.00389 ;segmented line. Max segment length set to 0.187
G01 X1.19212Y3.31630Z0.00393 ;segmented line. Max segment length set to 0.187
G01 X1.19215Y3.12930Z0.00398 ;segmented line. Max segment length set to 0.187
G01 X1.19218Y2.94230Z0.00407 ;segmented line. Max segment length set to 0.187
G01 X1.19221Y2.75530Z0.00416 ;segmented line. Max segment length set to 0.187
G01 X1.19223Y2.56830Z0.00407 ;segmented line. Max segment length set to 0.187
G01 X1.19226Y2.38130Z0.00397 ;segmented line. Max segment length set to 0.187
G01 X1.19228Y2.19430Z0.00376 ;segmented line. Max segment length set to 0.187
G01 X1.1923Y2.0655Z0.00360
G01 X1.1943Y2.0596Z0.00360
G01 X1.1978Y2.0549Z0.00361
G01 X1.32981Y1.92245Z0.00412 ;segmented line. Max segment length set to 0.187
G01 X1.46181Y1.79000Z0.00457 ;segmented line. Max segment length set to 0.187
G01 X1.4939Y1.7578Z0.00468
G01 X1.5004Y1.7535Z0.00470
G01 X1.5080Y1.7520Z0.00473
G01 X1.69500Y1.75221Z0.00561 ;segmented line. Max segment length set to 0.187
G01 X1.88200Y1.75242Z0.00644 ;segmented line. Max segment length set to 0.187
G01 X2.06900Y1.75263Z0.00721 ;segmented line. Max segment length set to 0.187
G01 X2.25600Y1.75284Z0.00784 ;segmented line. Max segment length set to 0.187
G01 X2.44300Y1.75305Z0.00850 ;segmented line. Max segment length set to 0.187
G01 X2.63000Y1.75326Z0.00925 ;segmented line. Max segment length set to 0.187
G01 X2.81700Y1.75346Z0.00995 ;segmented line. Max segment length set to 0.187
G01 X3.00400Y1.75367Z0.01042 ;segmented line. Max segment length set to 0.187
G01 X3.19100Y1.75387Z0.01088 ;segmented line. Max segment length set to 0.187
G01 X3.37800Y1.75408Z0.01132 ;segmented line. Max segment length set to 0.187
G01 X3.56500Y1.75428Z0.01177 ;segmented line. Max segment length set to 0.187
G01 X3.75200Y1.75449Z0.01208 ;segmented line. Max segment length set to 0.187
G01 X3.93900Y1.75469Z0.01239 ;segmented line. Max segment length set to 0.187
G01 X4.12600Y1.75490Z0.01265 ;segmented line. Max segment length set to 0.187
G01 X4.3120Y1.7551Z0.01290
G01 X4.3202Y1.7578Z0.01291
G01 X4.48098Y1.85330Z0.01336 ;segmented line. Max segment length set to 0.187
G01 X4.64176Y1.94880Z0.01381 ;segmented line. Max segment length set to 0.187
G01 X4.80254Y2.04430Z0.01420 ;segmented line. Max segment length set to 0.187
G01 X4.8155Y2.0520Z0.01422
G01 X5.00250Y2.05200Z0.01435 ;segmented line. Max segment length set to 0.187
G01 X5.18950Y2.05200Z0.01440 ;segmented line. Max segment length set to 0.187
G01 X5.37650Y2.05200Z0.01431 ;segmented line. Max segment length set to 0.187
G01 X5.56350Y2.05200Z0.01418 ;segmented line. Max segment length set to 0.187
G01 X5.6070Y2.0520Z0.01412
G01 X5.6132Y2.0530Z0.01411
G01 X5.6178Y2.0552Z0.01411
G01 X5.6211Y2.0579Z0.01411
G01 X5.75333Y2.19013Z0.01416 ;segmented line. Max segment length set to 0.187
G01 X5.8241Y2.2609Z0.01416
G01 X5.8285Y2.2673Z0.01417
G01 X5.8300Y2.2750Z0.01418
G01 X5.8300Y2.4266Z0.01437
G01 X5.8376Y2.4307Z0.01436
G01 X5.8448Y2.4366Z0.01435
G01 X5.8486Y2.4408Z0.01435
G01 X5.8536Y2.4483Z0.01434
G01 X5.8560Y2.4534Z0.01434
G01 X5.8587Y2.4623Z0.01434
G01 X5.8594Y2.4769Z0.01435
G01 X5.8575Y2.4864Z0.01436
G01 X5.8538Y2.4954Z0.01438
G01 X5.8484Y2.5035Z0.01439
G01 X5.8415Y2.5104Z0.01441
G01 X5.8334Y2.5158Z0.01443
G01 X5.8244Y2.5195Z0.01444
G01 X5.8149Y2.5214Z0.01446
G01 X5.8051Y2.5214Z0.01448
G01 X5.7956Y2.5195Z0.01449
G01 X5.7869Y2.5160Z0.01450
G01 X5.7821Y2.5131Z0.01451
G01 X5.7749Y2.5071Z0.01452
G01 X5.7687Y2.4996Z0.01452
G01 X5.7643Y2.4914Z0.01453
G01 X5.7614Y2.4821Z0.01452
G01 X5.7606Y2.4765Z0.01452
G01 X5.7613Y2.4623Z0.01451
G01 X5.7640Y2.4534Z0.01450
G01 X5.7664Y2.4483Z0.01449
G01 X5.7714Y2.4408Z0.01448
G01 X5.7752Y2.4366Z0.01447
G01 X5.7824Y2.4307Z0.01445
G01 X5.7900Y2.4266Z0.01444
G01 X5.7900Y2.2833Z0.01426
G01 X5.65777Y2.15107Z0.01423 ;segmented line. Max segment length set to 0.187
G01 X5.5987Y2.0920Z0.01421
G01 X5.41170Y2.09200Z0.01437 ;segmented line. Max segment length set to 0.187
G01 X5.22470Y2.09200Z0.01445 ;segmented line. Max segment length set to 0.187
G01 X5.03770Y2.09200Z0.01444 ;segmented line. Max segment length set to 0.187
G01 X4.85070Y2.09200Z0.01433 ;segmented line. Max segment length set to 0.187
G01 X4.8100Y2.0920Z0.01431
G01 X4.8052Y2.0914Z0.01430
G01 X4.7998Y2.0892Z0.01430
G01 X4.63902Y1.99370Z0.01392 ;segmented line. Max segment length set to 0.187
G01 X4.47824Y1.89820Z0.01347 ;segmented line. Max segment length set to 0.187
G01 X4.31746Y1.80270Z0.01302 ;segmented line. Max segment length set to 0.187
G01 X4.3045Y1.7950Z0.01298
G01 X4.11750Y1.79480Z0.01272 ;segmented line. Max segment length set to 0.187
G01 X3.93050Y1.79460Z0.01245 ;segmented line. Max segment length set to 0.187
G01 X3.74350Y1.79440Z0.01214 ;segmented line. Max segment length set to 0.187
G01 X3.55650Y1.79420Z0.01183 ;segmented line. Max segment length set to 0.187
G01 X3.36950Y1.79400Z0.01138 ;segmented line. Max segment length set to 0.187
G01 X3.18250Y1.79380Z0.01093 ;segmented line. Max segment length set to 0.187
G01 X2.99550Y1.79360Z0.01046 ;segmented line. Max segment length set to 0.187
G01 X2.80850Y1.79340Z0.00998 ;segmented line. Max segment length set to 0.187
G01 X2.62150Y1.79320Z0.00928 ;segmented line. Max segment length set to 0.187
G01 X2.43450Y1.79300Z0.00855 ;segmented line. Max segment length set to 0.187
G01 X2.24750Y1.79280Z0.00789 ;segmented line. Max segment length set to 0.187
G01 X2.06050Y1.79260Z0.00725 ;segmented line. Max segment length set to 0.187
G01 X1.87350Y1.79239Z0.00648 ;segmented line. Max segment length set to 0.187
G01 X1.68650Y1.79219Z0.00565 ;segmented line. Max segment length set to 0.187
G01 X1.5163Y1.7920Z0.00485
G01 X1.38430Y1.92446Z0.00440 ;segmented line. Max segment length set to 0.187
G01 X1.25231Y2.05692Z0.00388 ;segmented line. Max segment length set to 0.187
G01 X1.2320Y2.0773Z0.00380
G01 X1.23200Y2.26430Z0.00404 ;segmented line. Max segment length set to 0.187
G01 X1.23200Y2.45130Z0.00421 ;segmented line. Max segment length set to 0.187
G01 X1.23200Y2.63830Z0.00430 ;segmented line. Max segment length set to 0.187
G01 X1.23200Y2.82530Z0.00432 ;segmented line. Max segment length set to 0.187
G01 X1.23200Y3.01230Z0.00423 ;segmented line. Max segment length set to 0.187
G01 X1.23200Y3.19930Z0.00415 ;segmented line. Max segment length set to 0.187
G01 X1.23200Y3.38630Z0.00411 ;segmented line. Max segment length set to 0.187
G01 X1.23200Y3.57330Z0.00405 ;segmented line. Max segment length set to 0.187
G01 X1.23200Y3.76030Z0.00395 ;segmented line. Max segment length set to 0.187
G01 X1.23200Y3.94730Z0.00385 ;segmented line. Max segment length set to 0.187
G01 X1.2320Y4.0737Z0.00379
G01 X1.2305Y4.0807Z0.00378
G01 X1.2261Y4.0871Z0.00376
G01 X1.1497Y4.1582Z0.00334
G01 X1.1515Y4.1710Z0.00334
G01 X1.1496Y4.1838Z0.00332
G01 X1.1459Y4.1928Z0.00330
G01 X1.1382Y4.2032Z0.00326
G01 X1.1274Y4.2111Z0.00320
G01 X1.1149Y4.2156Z0.00313
G01 X1.1015Y4.2163Z0.00307
G01 X1.0886Y4.2130Z0.00300
G01 X1.0807Y4.2088Z0.00297
G01 X1.0738Y4.2032Z0.00294
G01 X1.0682Y4.1963Z0.00291
G01 X1.0640Y4.1884Z0.00290
G01 X1.0614Y4.1799Z0.00289
G01 X1.0605Y4.1710Z0.00289
G01 X1.0614Y4.1621Z0.00290
G01 X1.0640Y4.1536Z0.00292
G01 X1.0682Y4.1457Z0.00294
G01 X1.0738Y4.1388Z0.00298
G01 X1.0807Y4.1332Z0.00301
G01 X1.0886Y4.1290Z0.00305
G01 X1.0971Y4.1264Z0.00310
G01 X1.1060Y4.1255Z0.00314
G01 X1.1149Y4.1264Z0.00319
G01 X1.1227Y4.1287Z0.00322
G00 Z0.4000
G00 X0.9203Y4.1295
G01 Z0.00222
G01 X0.9207Y4.1255Z0.00223
G01 X0.9225Y4.1222Z0.00224
G01 X0.9265Y4.1186Z0.00226
G01 X0.9321Y4.1163Z0.00229
G01 X0.9357Y4.1165Z0.00231
G01 X0.9403Y4.1180Z0.00233
G01 X0.9450Y4.1218Z0.00235
G01 X0.9475Y4.1273Z0.00236
G01 X0.9477Y4.1370Z0.00235
G01 X0.9685Y4.1193Z0.00247
G01 X0.9711Y4.1178Z0.00248
G01 X0.9761Y4.1163Z0.00251
G01 X0.9805Y4.1167Z0.00253
G01 X0.9852Y4.1190Z0.00255
G01 X0.9890Y4.1228Z0.00257
G01 X0.9907Y4.1280Z0.00257
G01 X0.9906Y4.1343Z0.00257
G01 X0.9890Y4.1382Z0.00256
G01 X0.9554Y4.1675Z0.00237
G01 X0.9838Y4.1915Z0.00249
G01 X0.9894Y4.1975Z0.00252
G01 X0.9907Y4.2011Z0.00252
G01 X0.9905Y4.2091Z0.00252
G01 X0.9890Y4.2122Z0.00251
G01 X0.9852Y4.2160Z0.00248
G01 X0.9775Y4.2187Z0.00244
G01 X0.9702Y4.2169Z0.00241
G01 X0.9477Y4.1980Z0.00231
G01 X0.9472Y4.2089Z0.00230
G01 X0.9447Y4.2135Z0.00228
G01 X0.9411Y4.2167Z0.00226
G01 X0.9357Y4.2185Z0.00224
G01 X0.9319Y4.2185Z0.00222
G01 X0.9265Y4.2164Z0.00219
G01 X0.9220Y4.2122Z0.00217
G01 X0.9203Y4.2070Z0.00217
G01 X0.9203Y4.1295Z0.00222
G00 Z0.4000
G00 X0.8413Y4.1295
G01 Z0.00183
G01 X0.8420Y4.1257Z0.00184
G01 X0.8448Y4.1208Z0.00186
G01 X0.8482Y4.1181Z0.00187
G01 X0.8541Y4.1163Z0.00191
G01 X0.9002Y4.1164Z0.00213
G01 X0.9062Y4.1190Z0.00216
G01 X0.9107Y4.1239Z0.00218
G01 X0.9127Y4.1306Z0.00218
G01 X0.9124Y4.1601Z0.00216
G01 X0.9100Y4.1662Z0.00214
G01 X0.9047Y4.1709Z0.00211
G01 X0.9019Y4.1717Z0.00210
G01 X0.8955Y4.1717Z0.00207
G01 X0.8907Y4.1699Z0.00205
G01 X0.8907Y4.2109Z0.00202
G01 X0.8892Y4.2148Z0.00201
G01 X0.8861Y4.2177Z0.00199
G01 X0.8822Y4.2187Z0.00197
G01 X0.8538Y4.2186Z0.00183
G01 X0.8475Y4.2164Z0.00180
G01 X0.8433Y4.2121Z0.00178
G01 X0.8415Y4.2077Z0.00177
G01 X0.8413Y4.2025Z0.00178
G01 X0.8420Y4.1997Z0.00178
G01 X0.8446Y4.1951Z0.00180
G01 X0.8509Y4.1915Z0.00183
G01 X0.8633Y4.1907Z0.00189
G01 X0.8633Y4.1437Z0.00193
G01 X0.8521Y4.1437Z0.00187
G01 X0.8482Y4.1422Z0.00186
G01 X0.8423Y4.1361Z0.00183
G01 X0.8413Y4.1295Z0.00183
G00 Z0.4000
G00 X0.7554Y4.2520
G01 Z0.00130
G01 X0.94240Y4.25158Z0.00225 ;segmented line. Max segment length set to 0.187
G01 X1.12940Y4.25116Z0.00318 ;segmented line. Max segment length set to 0.187
G01 X1.2033Y4.2510Z0.00356
G01 X1.2880Y4.1601Z0.00398
G01 X1.28839Y3.97310Z0.00408 ;segmented line. Max segment length set to 0.187
G01 X1.28877Y3.78610Z0.00418 ;segmented line. Max segment length set to 0.187
G01 X1.28916Y3.59910Z0.00428 ;segmented line. Max segment length set to 0.187
G01 X1.28954Y3.41210Z0.00435 ;segmented line. Max segment length set to 0.187
G01 X1.28993Y3.22510Z0.00441 ;segmented line. Max segment length set to 0.187
G01 X1.29031Y3.03810Z0.00449 ;segmented line. Max segment length set to 0.187
G01 X1.29070Y2.85110Z0.00458 ;segmented line. Max segment length set to 0.187
G01 X1.29108Y2.66410Z0.00459 ;segmented line. Max segment length set to 0.187
G01 X1.29147Y2.47710Z0.00449 ;segmented line. Max segment length set to 0.187
G01 X1.29185Y2.29010Z0.00435 ;segmented line. Max segment length set to 0.187
G01 X1.2921Y2.1696Z0.00422
G01 X1.2942Y2.1629Z0.00422
G01 X1.2979Y2.1578Z0.00423
G01 X1.43035Y2.02579Z0.00477 ;segmented line. Max segment length set to 0.187
G01 X1.56280Y1.89378Z0.00527 ;segmented line. Max segment length set to 0.187
G01 X1.6009Y1.8558Z0.00539
G01 X1.6077Y1.8514Z0.00542
G01 X1.6150Y1.8500Z0.00545
G01 X1.80200Y1.85008Z0.00627 ;segmented line. Max segment length set to 0.187
G01 X1.98900Y1.85016Z0.00709 ;segmented line. Max segment length set to 0.187
G01 X2.17600Y1.85024Z0.00776 ;segmented line. Max segment length set to 0.187
G01 X2.36300Y1.85032Z0.00840 ;segmented line. Max segment length set to 0.187
G01 X2.55000Y1.85040Z0.00910 ;segmented line. Max segment length set to 0.187
G01 X2.73700Y1.85048Z0.00981 ;segmented line. Max segment length set to 0.187
G01 X2.92400Y1.85056Z0.01036 ;segmented line. Max segment length set to 0.187
G01 X3.11100Y1.85064Z0.01084 ;segmented line. Max segment length set to 0.187
G01 X3.29800Y1.85072Z0.01131 ;segmented line. Max segment length set to 0.187
G01 X3.48500Y1.85080Z0.01177 ;segmented line. Max segment length set to 0.187
G01 X3.67200Y1.85088Z0.01214 ;segmented line. Max segment length set to 0.187
G01 X3.85900Y1.85096Z0.01243 ;segmented line. Max segment length set to 0.187
G01 X4.04600Y1.85103Z0.01273 ;segmented line. Max segment length set to 0.187
G01 X4.2160Y1.8511Z0.01299
G01 X4.2244Y1.8539Z0.01301
G01 X4.38389Y1.95154Z0.01349 ;segmented line. Max segment length set to 0.187
G01 X4.54338Y2.04918Z0.01393 ;segmented line. Max segment length set to 0.187
G01 X4.70287Y2.14682Z0.01435 ;segmented line. Max segment length set to 0.187
G01 X4.7146Y2.1540Z0.01438
G01 X4.90160Y2.15400Z0.01449 ;segmented line. Max segment length set to 0.187
G01 X5.08860Y2.15400Z0.01459 ;segmented line. Max segment length set to 0.187
G01 X5.27560Y2.15400Z0.01455 ;segmented line. Max segment length set to 0.187
G01 X5.46260Y2.15400Z0.01447 ;segmented line. Max segment length set to 0.187
G01 X5.5140Y2.1540Z0.01445
G01 X5.5202Y2.1550Z0.01445
G01 X5.5247Y2.1571Z0.01444
G01 X5.5281Y2.1598Z0.01444
G01 X5.66067Y2.29169Z0.01449 ;segmented line. Max segment length set to 0.187
G01 X5.7231Y2.3538Z0.01449
G01 X5.7276Y2.3607Z0.01450
G01 X5.7290Y2.3679Z0.01450
G01 X5.7299Y2.5266Z0.01461
G01 X5.7376Y2.5307Z0.01460
G01 X5.7448Y2.5366Z0.01459
G01 X5.7486Y2.5408Z0.01458
G01 X5.7536Y2.5483Z0.01458
G01 X5.7560Y2.5534Z0.01458
G01 X5.7587Y2.5623Z0.01458
G01 X5.7594Y2.5769Z0.01459
G01 X5.7575Y2.5864Z0.01460
G01 X5.7538Y2.5954Z0.01461
G01 X5.7484Y2.6035Z0.01463
G01 X5.7415Y2.6104Z0.01464
G01 X5.7334Y2.6158Z0.01466
G01 X5.7244Y2.6195Z0.01468
G01 X5.7149Y2.6214Z0.01469
G01 X5.7051Y2.6214Z0.01471
G01 X5.6956Y2.6195Z0.01472
G01 X5.6869Y2.6160Z0.01473
G01 X5.6821Y2.6131Z0.01474
G01 X5.6749Y2.6071Z0.01475
G01 X5.6687Y2.5996Z0.01475
G01 X5.6643Y2.5914Z0.01476
G01 X5.6614Y2.5821Z0.01475
G01 X5.6606Y2.5765Z0.01475
G01 X5.6613Y2.5623Z0.01474
G01 X5.6640Y2.5534Z0.01473
G01 X5.6664Y2.5483Z0.01473
G01 X5.6714Y2.5408Z0.01471
G01 X5.6752Y2.5366Z0.01470
G01 X5.6824Y2.5307Z0.01469
G01 X5.6899Y2.5266Z0.01467
G01 X5.6890Y2.3764Z0.01458
G01 X5.55645Y2.24450Z0.01457 ;segmented line. Max segment length set to 0.187
G01 X5.5057Y2.1940Z0.01454
G01 X5.31870Y2.19400Z0.01461 ;segmented line. Max segment length set to 0.187
G01 X5.13170Y2.19400Z0.01468 ;segmented line. Max segment length set to 0.187
G01 X4.94470Y2.19400Z0.01459 ;segmented line. Max segment length set to 0.187
G01 X4.75770Y2.19400Z0.01451 ;segmented line. Max segment length set to 0.187
G01 X4.7090Y2.1940Z0.01446
G01 X4.7043Y2.1934Z0.01446
G01 X4.6986Y2.1911Z0.01445
G01 X4.53911Y2.09346Z0.01403 ;segmented line. Max segment length set to 0.187
G01 X4.37962Y1.99582Z0.01359 ;segmented line. Max segment length set to 0.187
G01 X4.22013Y1.89818Z0.01310 ;segmented line. Max segment length set to 0.187
G01 X4.2084Y1.8910Z0.01306
G01 X4.02140Y1.89093Z0.01276 ;segmented line. Max segment length set to 0.187
G01 X3.83440Y1.89086Z0.01247 ;segmented line. Max segment length set to 0.187
G01 X3.64740Y1.89079Z0.01218 ;segmented line. Max segment length set to 0.187
G01 X3.46040Y1.89072Z0.01179 ;segmented line. Max segment length set to 0.187
G01 X3.27340Y1.89065Z0.01133 ;segmented line. Max segment length set to 0.187
G01 X3.08640Y1.89058Z0.01085 ;segmented line. Max segment length set to 0.187
G01 X2.89940Y1.89051Z0.01035 ;segmented line. Max segment length set to 0.187
G01 X2.71240Y1.89044Z0.00977 ;segmented line. Max segment length set to 0.187
G01 X2.52540Y1.89036Z0.00908 ;segmented line. Max segment length set to 0.187
G01 X2.33840Y1.89029Z0.00840 ;segmented line. Max segment length set to 0.187
G01 X2.15140Y1.89021Z0.00775 ;segmented line. Max segment length set to 0.187
G01 X1.96440Y1.89014Z0.00706 ;segmented line. Max segment length set to 0.187
G01 X1.77740Y1.89006Z0.00624 ;segmented line. Max segment length set to 0.187
G01 X1.6233Y1.8900Z0.00557
G01 X1.49084Y2.02200Z0.00509 ;segmented line. Max segment length set to 0.187
G01 X1.35839Y2.15400Z0.00453 ;segmented line. Max segment length set to 0.187
G01 X1.3320Y2.1803Z0.00442
G01 X1.33162Y2.36730Z0.00462 ;segmented line. Max segment length set to 0.187
G01 X1.33124Y2.55430Z0.00471 ;segmented line. Max segment length set to 0.187
G01 X1.33086Y2.74130Z0.00481 ;segmented line. Max segment length set to 0.187
G01 X1.33049Y2.92830Z0.00473 ;segmented line. Max segment length set to 0.187
G01 X1.33011Y3.11530Z0.00464 ;segmented line. Max segment length set to 0.187
G01 X1.32974Y3.30230Z0.00457 ;segmented line. Max segment length set to 0.187
G01 X1.32936Y3.48930Z0.00450 ;segmented line. Max segment length set to 0.187
G01 X1.32899Y3.67630Z0.00441 ;segmented line. Max segment length set to 0.187
G01 X1.32861Y3.86330Z0.00431 ;segmented line. Max segment length set to 0.187
G01 X1.32824Y4.05030Z0.00421 ;segmented line. Max segment length set to 0.187
G01 X1.3280Y4.1680Z0.00414
G01 X1.3267Y4.1750Z0.00413
G01 X1.3226Y4.1816Z0.00411
G01 X1.2262Y4.2851Z0.00365
G01 X1.2207Y4.2890Z0.00362
G01 X1.2147Y4.2908Z0.00359
G01 X1.02770Y4.29129Z0.00265 ;segmented line. Max segment length set to 0.187
G01 X0.84070Y4.29178Z0.00170 ;segmented line. Max segment length set to 0.187
G01 X0.7554Y4.2920Z0.00127
G01 X0.7484Y4.3035Z0.00123
G01 X0.7376Y4.3133Z0.00115
G01 X0.7244Y4.3195Z0.00107
G01 X0.7100Y4.3217Z0.00099
G01 X0.6956Y4.3195Z0.00093
G01 X0.6824Y4.3133Z0.00087
G01 X0.6716Y4.3035Z0.00084
G01 X0.6641Y4.2910Z0.00081
G01 X0.6613Y4.2817Z0.00080
G01 X0.6603Y4.2720Z0.00080
G01 X0.6613Y4.2623Z0.00081
G01 X0.6641Y4.2530Z0.00083
G01 X0.6687Y4.2444Z0.00086
G01 X0.6749Y4.2369Z0.00090
G01 X0.6824Y4.2307Z0.00094
G01 X0.6910Y4.2261Z0.00099
G01 X0.7003Y4.2233Z0.00104
G01 X0.7100Y4.2223Z0.00109
G01 X0.7197Y4.2233Z0.00114
G01 X0.7290Y4.2261Z0.00118
G01 X0.7376Y4.2307Z0.00122
G01 X0.7451Y4.2369Z0.00126
G01 X0.7513Y4.2444Z0.00128
G01 X0.7554Y4.2520Z0.00130
G00 Z0.4000
G00 X0.5554Y4.1519
G01 Z0.00034
G01 X0.6651Y4.1511Z0.00091
G01 X0.6684Y4.1454Z0.00093
G01 X0.6738Y4.1388Z0.00096
G01 X0.6846Y4.1309Z0.00102
G01 X0.6971Y4.1264Z0.00109
G01 X0.7105Y4.1257Z0.00116
G01 X0.7192Y4.1275Z0.00120
G01 X0.7274Y4.1309Z0.00124
G01 X0.7349Y4.1358Z0.00128
G01 X0.7412Y4.1421Z0.00131
G01 X0.7461Y4.1496Z0.00133
G01 X0.7495Y4.1578Z0.00134
G01 X0.7513Y4.1665Z0.00134
G01 X0.7513Y4.1755Z0.00133
G01 X0.7495Y4.1842Z0.00132
G01 X0.7463Y4.1921Z0.00130
G01 X0.7382Y4.2032Z0.00125
G01 X0.7313Y4.2088Z0.00121
G01 X0.7238Y4.2129Z0.00117
G01 X0.7153Y4.2155Z0.00112
G01 X0.7101Y4.2163Z0.00109
G01 X0.6971Y4.2156Z0.00103
G01 X0.6846Y4.2111Z0.00097
G01 X0.6738Y4.2032Z0.00092
G01 X0.6684Y4.1966Z0.00089
G01 X0.6652Y4.1911Z0.00088
G01 X0.5555Y4.1919Z0.00032
G01 X0.5513Y4.1996Z0.00029
G01 X0.5454Y4.2068Z0.00026
G01 X0.5412Y4.2106Z0.00023
G01 X0.5337Y4.2156Z0.00019
G01 X0.5286Y4.2180Z0.00016
G01 X0.5197Y4.2207Z0.00012
G01 X0.5051Y4.2214Z0.00004
G01 X0.4910Y4.2179Z-0.00003
G01 X0.4788Y4.2106Z-0.00009
G01 X0.4714Y4.2032Z-0.00012
G01 X0.4641Y4.1910Z-0.00015
G01 X0.4613Y4.1817Z-0.00016
G01 X0.4603Y4.1720Z-0.00016
G01 X0.4613Y4.1623Z-0.00015
G01 X0.4641Y4.1530Z-0.00013
G01 X0.4687Y4.1444Z-0.00010
G01 X0.4749Y4.1369Z-0.00007
G01 X0.4824Y4.1307Z-0.00002
G01 X0.4910Y4.1261Z0.00002
G01 X0.5003Y4.1233Z0.00007
G01 X0.5100Y4.1223Z0.00012
G01 X0.5197Y4.1233Z0.00017
G01 X0.5290Y4.1261Z0.00022
G01 X0.5376Y4.1307Z0.00026
G01 X0.5451Y4.1369Z0.00030
G01 X0.5513Y4.1444Z0.00032
G01 X0.5554Y4.1519Z0.00034
G00 Z0.4000
G00 X0.5484Y4.4035
G01 Z-0.00002
G01 X0.5415Y4.4104Z-0.00007
G01 X0.5334Y4.4158Z-0.00013
G01 X0.5244Y4.4195Z-0.00018
G01 X0.5149Y4.4214Z-0.00024
G01 X0.5051Y4.4214Z-0.00029
G01 X0.4956Y4.4195Z-0.00034
G01 X0.4866Y4.4158Z-0.00038
G01 X0.4785Y4.4104Z-0.00040
G01 X0.4716Y4.4035Z-0.00042
G01 X0.4662Y4.3954Z-0.00043
G01 X0.4625Y4.3864Z-0.00043
G01 X0.4606Y4.3769Z-0.00041
G01 X0.4606Y4.3671Z-0.00039
G01 X0.4625Y4.3576Z-0.00036
G01 X0.4662Y4.3486Z-0.00032
G01 X0.4716Y4.3405Z-0.00027
G01 X0.4785Y4.3336Z-0.00021
G01 X0.4869Y4.3280Z-0.00016
G01 X0.4999Y4.3234Z-0.00008
G01 X0.5100Y4.3223Z-0.00003
G01 X0.5201Y4.3234Z0.00002
G01 X0.5331Y4.3280Z0.00008
G01 X0.5415Y4.3336Z0.00011
G01 X0.5484Y4.3405Z0.00013
G01 X0.5540Y4.3400Z0.00016
G01 X0.74100Y4.33978Z0.00112 ;segmented line. Max segment length set to 0.187
G01 X0.92800Y4.33956Z0.00207 ;segmented line. Max segment length set to 0.187
G01 X1.11500Y4.33934Z0.00302 ;segmented line. Max segment length set to 0.187
G01 X1.30200Y4.33913Z0.00389 ;segmented line. Max segment length set to 0.187
G01 X1.4135Y4.3390Z0.00433
G01 X1.4193Y4.3396Z0.00435
G01 X1.4252Y4.3414Z0.00437
G01 X1.4307Y4.3444Z0.00439
G01 X1.4353Y4.3481Z0.00440
G01 X1.56722Y4.48064Z0.00460 ;segmented line. Max segment length set to 0.187
G01 X1.6263Y4.5400Z0.00467
G01 X1.81330Y4.54000Z0.00567 ;segmented line. Max segment length set to 0.187
G01 X2.00030Y4.54000Z0.00668 ;segmented line. Max segment length set to 0.187
G01 X2.18730Y4.54000Z0.00740 ;segmented line. Max segment length set to 0.187
G01 X2.37430Y4.54000Z0.00810 ;segmented line. Max segment length set to 0.187
G01 X2.56130Y4.54000Z0.00891 ;segmented line. Max segment length set to 0.187
G01 X2.74830Y4.54000Z0.00974 ;segmented line. Max segment length set to 0.187
G01 X2.93530Y4.54000Z0.01039 ;segmented line. Max segment length set to 0.187
G01 X3.12230Y4.54000Z0.01101 ;segmented line. Max segment length set to 0.187
G01 X3.30930Y4.54000Z0.01158 ;segmented line. Max segment length set to 0.187
G01 X3.4918Y4.5400Z0.01211
G01 X3.59520Y4.38419Z0.01272 ;segmented line. Max segment length set to 0.187
G01 X3.6814Y4.2543Z0.01318
G01 X3.6853Y4.2494Z0.01319
G01 X3.6898Y4.2457Z0.01321
G01 X3.6991Y4.2413Z0.01324
G01 X3.7079Y4.2400Z0.01326
G01 X3.89490Y4.23979Z0.01378 ;segmented line. Max segment length set to 0.187
G01 X4.08190Y4.23958Z0.01414 ;segmented line. Max segment length set to 0.187
G01 X4.26890Y4.23937Z0.01442 ;segmented line. Max segment length set to 0.187
G01 X4.45590Y4.23916Z0.01461 ;segmented line. Max segment length set to 0.187
G01 X4.5967Y4.2390Z0.01471
G01 X4.6810Y4.1547Z0.01482
G01 X4.68117Y3.96770Z0.01492 ;segmented line. Max segment length set to 0.187
G01 X4.68134Y3.78070Z0.01501 ;segmented line. Max segment length set to 0.187
G01 X4.68151Y3.59370Z0.01509 ;segmented line. Max segment length set to 0.187
G01 X4.68168Y3.40670Z0.01516 ;segmented line. Max segment length set to 0.187
G01 X4.68186Y3.21970Z0.01520 ;segmented line. Max segment length set to 0.187
G01 X4.6820Y3.0683Z0.01519
G01 X4.6794Y2.9111Z0.01511
G01 X4.6714Y2.9032Z0.01510
G01 X4.6641Y2.8910Z0.01509
G01 X4.6612Y2.8813Z0.01508
G01 X4.6606Y2.8671Z0.01508
G01 X4.6624Y2.8580Z0.01507
G01 X4.6643Y2.8526Z0.01507
G01 X4.6687Y2.8444Z0.01507
G01 X4.6749Y2.8369Z0.01507
G01 X4.6821Y2.8309Z0.01508
G01 X4.6869Y2.8280Z0.01508
G01 X4.6956Y2.8245Z0.01509
G01 X4.7047Y2.8226Z0.01509
G01 X4.7104Y2.8224Z0.01510
G01 X4.7201Y2.8234Z0.01510
G01 X4.7290Y2.8261Z0.01511
G01 X4.7373Y2.8305Z0.01512
G01 X4.7418Y2.8339Z0.01512
G01 X4.7484Y2.8405Z0.01513
G01 X4.7536Y2.8483Z0.01513
G01 X4.7560Y2.8534Z0.01514
G01 X4.7594Y2.8671Z0.01514
G01 X4.7594Y2.8765Z0.01515
G01 X4.7586Y2.8821Z0.01515
G01 X4.7560Y2.8906Z0.01515
G01 X4.7536Y2.8957Z0.01516
G01 X4.7484Y2.9035Z0.01516
G01 X4.7423Y2.9096Z0.01516
G01 X4.7430Y2.9154Z0.01516
G01 X4.7460Y3.0680Z0.01524
G01 X4.74583Y3.25500Z0.01525 ;segmented line. Max segment length set to 0.187
G01 X4.74566Y3.44200Z0.01520 ;segmented line. Max segment length set to 0.187
G01 X4.74549Y3.62900Z0.01513 ;segmented line. Max segment length set to 0.187
G01 X4.74532Y3.81600Z0.01504 ;segmented line. Max segment length set to 0.187
G01 X4.74515Y4.00300Z0.01494 ;segmented line. Max segment length set to 0.187
G01 X4.7450Y4.1680Z0.01485
G01 X4.74532Y4.35500Z0.01465 ;segmented line. Max segment length set to 0.187
G01 X4.74563Y4.54200Z0.01418 ;segmented line. Max segment length set to 0.187
G01 X4.74595Y4.72900Z0.01367 ;segmented line. Max segment length set to 0.187
G01 X4.7460Y4.7590Z0.01358
G01 X4.8030Y4.8177Z0.01342
G01 X4.8068Y4.8225Z0.01340
G01 X4.8197Y4.8233Z0.01341
G01 X4.8334Y4.8282Z0.01340
G01 X4.8451Y4.8369Z0.01338
G01 X4.8538Y4.8486Z0.01335
G01 X4.8575Y4.8576Z0.01332
G01 X4.8594Y4.8675Z0.01329
G01 X4.8588Y4.8813Z0.01324
G01 X4.8560Y4.8906Z0.01321
G01 X4.8513Y4.8996Z0.01318
G01 X4.8451Y4.9071Z0.01315
G01 X4.8376Y4.9133Z0.01313
G01 X4.8286Y4.9180Z0.01311
G01 X4.8149Y4.9214Z0.01309
G01 X4.8003Y4.9207Z0.01308
G01 X4.7866Y4.9158Z0.01309
G01 X4.7749Y4.9071Z0.01311
G01 X4.7685Y4.8993Z0.01313
G01 X4.7626Y4.8868Z0.01316
G01 X4.7606Y4.8769Z0.01320
G01 X4.7608Y4.8656Z0.01323
G01 X4.6908Y4.7940Z0.01341
G01 X4.6856Y4.7867Z0.01343
G01 X4.6826Y4.7783Z0.01346
G01 X4.6820Y4.7721Z0.01348
G01 X4.68168Y4.58510Z0.01401 ;segmented line. Max segment length set to 0.187
G01 X4.68136Y4.39810Z0.01449 ;segmented line. Max segment length set to 0.187
G01 X4.6811Y4.2451Z0.01477
G01 X4.6303Y4.2957Z0.01471
G01 X4.6222Y4.3006Z0.01470
G01 X4.6127Y4.3029Z0.01469
G01 X4.42570Y4.30313Z0.01455 ;segmented line. Max segment length set to 0.187
G01 X4.23870Y4.30336Z0.01432 ;segmented line. Max segment length set to 0.187
G01 X4.05170Y4.30359Z0.01404 ;segmented line. Max segment length set to 0.187
G01 X3.86470Y4.30382Z0.01364 ;segmented line. Max segment length set to 0.187
G01 X3.7252Y4.3040Z0.01325
G01 X3.62182Y4.45983Z0.01262 ;segmented line. Max segment length set to 0.187
G01 X3.5354Y4.5901Z0.01214
G01 X3.5297Y4.5964Z0.01211
G01 X3.5242Y4.6002Z0.01208
G01 X3.5179Y4.6027Z0.01206
G01 X3.5095Y4.6040Z0.01203
G01 X3.32250Y4.60399Z0.01148 ;segmented line. Max segment length set to 0.187
G01 X3.13550Y4.60398Z0.01091 ;segmented line. Max segment length set to 0.187
G01 X2.94850Y4.60397Z0.01029 ;segmented line. Max segment length set to 0.187
G01 X2.76150Y4.60396Z0.00965 ;segmented line. Max segment length set to 0.187
G01 X2.57450Y4.60395Z0.00883 ;segmented line. Max segment length set to 0.187
G01 X2.38750Y4.60394Z0.00802 ;segmented line. Max segment length set to 0.187
G01 X2.20050Y4.60393Z0.00732 ;segmented line. Max segment length set to 0.187
G01 X2.01350Y4.60392Z0.00661 ;segmented line. Max segment length set to 0.187
G01 X1.82650Y4.60391Z0.00560 ;segmented line. Max segment length set to 0.187
G01 X1.63950Y4.60390Z0.00458 ;segmented line. Max segment length set to 0.187
G01 X1.6103Y4.6039Z0.00444
G01 X1.6003Y4.6014Z0.00441
G01 X1.5952Y4.5986Z0.00440
G01 X1.5904Y4.5946Z0.00440
G01 X1.45848Y4.46206Z0.00425 ;segmented line. Max segment length set to 0.187
G01 X1.3997Y4.4030Z0.00415
G01 X1.21270Y4.40322Z0.00342 ;segmented line. Max segment length set to 0.187
G01 X1.02570Y4.40344Z0.00246 ;segmented line. Max segment length set to 0.187
G01 X0.83870Y4.40366Z0.00150 ;segmented line. Max segment length set to 0.187
G01 X0.65170Y4.40388Z0.00052 ;segmented line. Max segment length set to 0.187
G01 X0.5540Y4.4040Z0.00001
G01 X0.5484Y4.4035Z-0.00002
G00 Z0.4000
G00 X0.5570Y4.5724
G01 Z-0.00037
G01 X0.5561Y4.5812Z-0.00039
G01 X0.5534Y4.5900Z-0.00043
G01 X0.5491Y4.5981Z-0.00047
G01 X0.5432Y4.6052Z-0.00052
G01 X0.5361Y4.6111Z-0.00058
G01 X0.5280Y4.6154Z-0.00063
G01 X0.5192Y4.6181Z-0.00069
G01 X0.5100Y4.6190Z-0.00074
G01 X0.5008Y4.6181Z-0.00079
G01 X0.4920Y4.6154Z-0.00084
G01 X0.4839Y4.6111Z-0.00087
G01 X0.4768Y4.6052Z-0.00090
G01 X0.4709Y4.5981Z-0.00091
G01 X0.4666Y4.5900Z-0.00092
G01 X0.4639Y4.5812Z-0.00091
G01 X0.4630Y4.5720Z-0.00089
G01 X0.4639Y4.5628Z-0.00086
G01 X0.4666Y4.5540Z-0.00083
G01 X0.4709Y4.5459Z-0.00078
G01 X0.4768Y4.5388Z-0.00073
G01 X0.4839Y4.5329Z-0.00068
G01 X0.4920Y4.5286Z-0.00062
G01 X0.5008Y4.5259Z-0.00057
G01 X0.5100Y4.5250Z-0.00052
G01 X0.5192Y4.5259Z-0.00047
G01 X0.5280Y4.5286Z-0.00043
G01 X0.5361Y4.5329Z-0.00039
G01 X0.5432Y4.5388Z-0.00037
G01 X0.5491Y4.5459Z-0.00035
G01 X0.5534Y4.5540Z-0.00034
G01 X0.5561Y4.5628Z-0.00035
G01 X0.5570Y4.5724Z-0.00037
G00 Z0.4000
G00 X0.4570Y4.5724
G01 Z-0.00093
G01 X0.4561Y4.5812Z-0.00095
G01 X0.4534Y4.5900Z-0.00099
G01 X0.4491Y4.5981Z-0.00103
G01 X0.4432Y4.6052Z-0.00108
G01 X0.4361Y4.6111Z-0.00114
G01 X0.4280Y4.6154Z-0.00119
G01 X0.4192Y4.6181Z-0.00124
G01 X0.4100Y4.6190Z-0.00130
G01 X0.4008Y4.6181Z-0.00134
G01 X0.3920Y4.6154Z-0.00138
G01 X0.3839Y4.6111Z-0.00142
G01 X0.3768Y4.6052Z-0.00144
G01 X0.3709Y4.5981Z-0.00145
G01 X0.3666Y4.5900Z-0.00146
G01 X0.3639Y4.5812Z-0.00145
G01 X0.3630Y4.5720Z-0.00143
G01 X0.3639Y4.5628Z-0.00140
G01 X0.3666Y4.5540Z-0.00137
G01 X0.3709Y4.5459Z-0.00132
G01 X0.3768Y4.5388Z-0.00127
G01 X0.3839Y4.5329Z-0.00122
G01 X0.3920Y4.5286Z-0.00117
G01 X0.4008Y4.5259Z-0.00111
G01 X0.4100Y4.5250Z-0.00106
G01 X0.4192Y4.5259Z-0.00101
G01 X0.4280Y4.5286Z-0.00097
G01 X0.4361Y4.5329Z-0.00094
G01 X0.4432Y4.5388Z-0.00092
G01 X0.4491Y4.5459Z-0.00090
G01 X0.4534Y4.5540Z-0.00090
G01 X0.4561Y4.5628Z-0.00091
G01 X0.4570Y4.5724Z-0.00093
G00 Z0.4000
G00 X0.4549Y4.6509
G01 Z-0.00113
G01 X0.64189Y4.64881Z-0.00006 ;segmented line. Max segment length set to 0.187
G01 X0.7140Y4.6480Z0.00035
G01 X0.90100Y4.64801Z0.00140 ;segmented line. Max segment length set to 0.187
G01 X1.08800Y4.64802Z0.00239 ;segmented line. Max segment length set to 0.187
G01 X1.27500Y4.64803Z0.00328 ;segmented line. Max segment length set to 0.187
G01 X1.46200Y4.64804Z0.00386 ;segmented line. Max segment length set to 0.187
G01 X1.64900Y4.64804Z0.00452 ;segmented line. Max segment length set to 0.187
G01 X1.83600Y4.64805Z0.00555 ;segmented line. Max segment length set to 0.187
G01 X2.02300Y4.64805Z0.00656 ;segmented line. Max segment length set to 0.187
G01 X2.21000Y4.64806Z0.00726 ;segmented line. Max segment length set to 0.187
G01 X2.39700Y4.64806Z0.00797 ;segmented line. Max segment length set to 0.187
G01 X2.58400Y4.64807Z0.00878 ;segmented line. Max segment length set to 0.187
G01 X2.77100Y4.64807Z0.00959 ;segmented line. Max segment length set to 0.187
G01 X2.95800Y4.64808Z0.01022 ;segmented line. Max segment length set to 0.187
G01 X3.14500Y4.64808Z0.01084 ;segmented line. Max segment length set to 0.187
G01 X3.33200Y4.64809Z0.01141 ;segmented line. Max segment length set to 0.187
G01 X3.51900Y4.64809Z0.01197 ;segmented line. Max segment length set to 0.187
G01 X3.70600Y4.64810Z0.01237 ;segmented line. Max segment length set to 0.187
G01 X3.7080Y4.6481Z0.01238
G01 X3.7140Y4.6497Z0.01239
G01 X3.7200Y4.6537Z0.01239
G01 X3.8241Y4.7579Z0.01229
G01 X3.8276Y4.7626Z0.01229
G01 X3.8295Y4.7677Z0.01227
G01 X3.8300Y4.7720Z0.01226
G01 X3.83000Y4.95900Z0.01174 ;segmented line. Max segment length set to 0.187
G01 X3.8300Y4.9632Z0.01173
G01 X3.9218Y5.0480Z0.01165
G01 X4.10880Y5.04800Z0.01195 ;segmented line. Max segment length set to 0.187
G01 X4.29580Y5.04800Z0.01223 ;segmented line. Max segment length set to 0.187
G01 X4.48280Y5.04800Z0.01242 ;segmented line. Max segment length set to 0.187
G01 X4.66980Y5.04800Z0.01256 ;segmented line. Max segment length set to 0.187
G01 X4.85680Y5.04800Z0.01270 ;segmented line. Max segment length set to 0.187
G01 X5.04380Y5.04800Z0.01284 ;segmented line. Max segment length set to 0.187
G01 X5.23080Y5.04800Z0.01285 ;segmented line. Max segment length set to 0.187
G01 X5.41780Y5.04800Z0.01276 ;segmented line. Max segment length set to 0.187
G01 X5.60480Y5.04800Z0.01260 ;segmented line. Max segment length set to 0.187
G01 X5.79180Y5.04800Z0.01236 ;segmented line. Max segment length set to 0.187
