(This GCode script was designed to adjust the Z height of a CNC machine according)
(to the minute variations in the surface height in order to achieve a better result in the milling/etching process)
(This script is the output of AutoLevellerAE, 0.9.4u2 Changeset: ...e37a75 @ http://autoleveller.co.uk)
(Author: James Hawthorne PhD. File creation date: 02-05-2018 18:33)
(This program and any of its output is licensed under GPLv2 and as such...)
(AutoLevellerAE comes with ABSOLUTELY NO WARRANTY; for details, see sections 11 and 12 of the GPLv2 @ http://www.gnu.org/licenses/old-licenses/gpl-2.0.html)

(The following is a checklist which can be used before the probe routine starts)
(The checklist may not be entirely correct given your machine, therefore you should make your own adaptations as appropriate)
(1. Make sure wires/clips are attached and the probe is working correctly)
(Test probe connections within control software before starting)
(2. Home all axis)
(3. Load GCode file that contains the probe routine into your software controller)
(4. Jog tool tip close to surface and touch off Z)
(5. Jog Z up a fraction to make sure surface is cleared)
(6. Jog to and touch off X and Y at the desired bottom left corner of the probe area)
(Note: The first probe will touch off Z to 0.0 when it first touches to the surface,)
(all other probe values are relative to this first point)

G90 G20 S20000 G17

M0 (Attach probe wires and clips that need attaching)
(Initialize probe routine)
G0 Z1.5 (Move clear of the board first)
G1 X0.0606 Y0.0354 F35 (Move to bottom left corner)
G0 Z0.0787 (Quick move to probe clearance height)
G31 Z-0.0625 F5 (Probe to a maximum of the specified probe height at the specified feed rate)
G92 Z0 (Touch off Z to 0 once contact is made)
G0 Z0.0787 (Move Z to above the contact point)
G31 Z-0.0625 F2.5 (Repeat at a more accurate slower rate)
G92 Z0
G0 Z0.0787

M40 (Begins a probe log file, when the window appears, enter a name for the log file such as "RawProbeLog.txt")
G0 Z0.0787
G1 X0.0606 Y0.0354 F35
G31 Z-0.0625 F5
G0 Z0.0787
G1 X0.45038 Y0.0354 F35
G31 Z-0.0625 F5
G0 Z0.0787
G1 X0.84016 Y0.0354 F35
G31 Z-0.0625 F5
G0 Z0.0787
G1 X1.22994 Y0.0354 F35
G31 Z-0.0625 F5
G0 Z0.0787
G1 X1.61972 Y0.0354 F35
G31 Z-0.0625 F5
G0 Z0.0787
G1 X2.0095 Y0.0354 F35
G31 Z-0.0625 F5
G0 Z0.0787
G1 X2.39928 Y0.0354 F35
G31 Z-0.0625 F5
G0 Z0.0787
G1 X2.78906 Y0.0354 F35
G31 Z-0.0625 F5
G0 Z0.0787
G1 X3.17884 Y0.0354 F35
G31 Z-0.0625 F5
G0 Z0.0787
G1 X3.56862 Y0.0354 F35
G31 Z-0.0625 F5
G0 Z0.0787
G1 X3.9584 Y0.0354 F35
G31 Z-0.0625 F5
G0 Z0.0787
G1 X4.34818 Y0.0354 F35
G31 Z-0.0625 F5
G0 Z0.0787
G1 X4.73796 Y0.0354 F35
G31 Z-0.0625 F5
G0 Z0.0787
G1 X5.12774 Y0.0354 F35
G31 Z-0.0625 F5
G0 Z0.0787
G1 X5.51752 Y0.0354 F35
G31 Z-0.0625 F5
G0 Z0.0787
G1 X5.9073 Y0.0354 F35
G31 Z-0.0625 F5
G0 Z0.0787
G1 X6.29708 Y0.0354 F35
G31 Z-0.0625 F5
G0 Z0.0787
G1 X6.68686 Y0.0354 F35
G31 Z-0.0625 F5
G0 Z0.0787
G1 X7.07664 Y0.0354 F35
G31 Z-0.0625 F5
G0 Z0.0787
G1 X7.46642 Y0.0354 F35
G31 Z-0.0625 F5
G0 Z0.0787
G1 X7.8562 Y0.0354 F35
G31 Z-0.0625 F5
G0 Z0.0787
G1 X8.24598 Y0.0354 F35
G31 Z-0.0625 F5
G0 Z0.0787
G1 X8.24598 Y0.42273 F35
G31 Z-0.0625 F5
G0 Z0.0787
G1 X7.8562 Y0.42273 F35
G31 Z-0.0625 F5
G0 Z0.0787
G1 X7.46642 Y0.42273 F35
G31 Z-0.0625 F5
G0 Z0.0787
G1 X7.07664 Y0.42273 F35
G31 Z-0.0625 F5
G0 Z0.0787
G1 X6.68686 Y0.42273 F35
G31 Z-0.0625 F5
G0 Z0.0787
G1 X6.29708 Y0.42273 F35
G31 Z-0.0625 F5
G0 Z0.0787
G1 X5.9073 Y0.42273 F35
G31 Z-0.0625 F5
G0 Z0.0787
G1 X5.51752 Y0.42273 F35
G31 Z-0.0625 F5
G0 Z0.0787
G1 X5.12774 Y0.42273 F35
G31 Z-0.0625 F5
G0 Z0.0787
G1 X4.73796 Y0.42273 F35
G31 Z-0.0625 F5
G0 Z0.0787
G1 X4.34818 Y0.42273 F35
G31 Z-0.0625 F5
G0 Z0.0787
G1 X3.9584 Y0.42273 F35
G31 Z-0.0625 F5
G0 Z0.0787
G1 X3.56862 Y0.42273 F35
G31 Z-0.0625 F5
G0 Z0.0787
G1 X3.17884 Y0.42273 F35
G31 Z-0.0625 F5
G0 Z0.0787
G1 X2.78906 Y0.42273 F35
G31 Z-0.0625 F5
G0 Z0.0787
G1 X2.39928 Y0.42273 F35
G31 Z-0.0625 F5
G0 Z0.0787
G1 X2.0095 Y0.42273 F35
G31 Z-0.0625 F5
G0 Z0.0787
G1 X1.61972 Y0.42273 F35
G31 Z-0.0625 F5
G0 Z0.0787
G1 X1.22994 Y0.42273 F35
G31 Z-0.0625 F5
G0 Z0.0787
G1 X0.84016 Y0.42273 F35
G31 Z-0.0625 F5
G0 Z0.0787
G1 X0.45038 Y0.42273 F35
G31 Z-0.0625 F5
G0 Z0.0787
G1 X0.0606 Y0.42273 F35
G31 Z-0.0625 F5
G0 Z0.0787
G1 X0.0606 Y0.81006 F35
G31 Z-0.0625 F5
G0 Z0.0787
G1 X0.45038 Y0.81006 F35
G31 Z-0.0625 F5
G0 Z0.0787
G1 X0.84016 Y0.81006 F35
G31 Z-0.0625 F5
G0 Z0.0787
G1 X1.22994 Y0.81006 F35
G31 Z-0.0625 F5
G0 Z0.0787
G1 X1.61972 Y0.81006 F35
G31 Z-0.0625 F5
G0 Z0.0787
G1 X2.0095 Y0.81006 F35
G31 Z-0.0625 F5
G0 Z0.0787
G1 X2.39928 Y0.81006 F35
G31 Z-0.0625 F5
G0 Z0.0787
G1 X2.78906 Y0.81006 F35
G31 Z-0.0625 F5
G0 Z0.0787
G1 X3.17884 Y0.81006 F35
G31 Z-0.0625 F5
G0 Z0.0787
G1 X3.56862 Y0.81006 F35
G31 Z-0.0625 F5
G0 Z0.0787
G1 X3.9584 Y0.81006 F35
G31 Z-0.0625 F5
G0 Z0.0787
G1 X4.34818 Y0.81006 F35
G31 Z-0.0625 F5
G0 Z0.0787
G1 X4.73796 Y0.81006 F35
G31 Z-0.0625 F5
G0 Z0.0787
G1 X5.12774 Y0.81006 F35
G31 Z-0.0625 F5
G0 Z0.0787
G1 X5.51752 Y0.81006 F35
G31 Z-0.0625 F5
G0 Z0.0787
G1 X5.9073 Y0.81006 F35
G31 Z-0.0625 F5
G0 Z0.0787
G1 X6.29708 Y0.81006 F35
G31 Z-0.0625 F5
G0 Z0.0787
G1 X6.68686 Y0.81006 F35
G31 Z-0.0625 F5
G0 Z0.0787
G1 X7.07664 Y0.81006 F35
G31 Z-0.0625 F5
G0 Z0.0787
G1 X7.46642 Y0.81006 F35
G31 Z-0.0625 F5
G0 Z0.0787
G1 X7.8562 Y0.81006 F35
G31 Z-0.0625 F5
G0 Z0.0787
G1 X8.24598 Y0.81006 F35
G31 Z-0.0625 F5
G0 Z0.0787
G1 X8.24598 Y1.19739 F35
G31 Z-0.0625 F5
G0 Z0.0787
G1 X7.8562 Y1.19739 F35
G31 Z-0.0625 F5
G0 Z0.0787
G1 X7.46642 Y1.19739 F35
G31 Z-0.0625 F5
G0 Z0.0787
G1 X7.07664 Y1.19739 F35
G31 Z-0.0625 F5
G0 Z0.0787
G1 X6.68686 Y1.19739 F35
G31 Z-0.0625 F5
G0 Z0.0787
G1 X6.29708 Y1.19739 F35
G31 Z-0.0625 F5
G0 Z0.0787
G1 X5.9073 Y1.19739 F35
G31 Z-0.0625 F5
G0 Z0.0787
G1 X5.51752 Y1.19739 F35
G31 Z-0.0625 F5
G0 Z0.0787
G1 X5.12774 Y1.19739 F35
G31 Z-0.0625 F5
G0 Z0.0787
G1 X4.73796 Y1.19739 F35
G31 Z-0.0625 F5
G0 Z0.0787
G1 X4.34818 Y1.19739 F35
G31 Z-0.0625 F5
G0 Z0.0787
G1 X3.9584 Y1.19739 F35
G31 Z-0.0625 F5
G0 Z0.0787
G1 X3.56862 Y1.19739 F35
G31 Z-0.0625 F5
G0 Z0.0787
G1 X3.17884 Y1.19739 F35
G31 Z-0.0625 F5
G0 Z0.0787
G1 X2.78906 Y1.19739 F35
G31 Z-0.0625 F5
G0 Z0.0787
G1 X2.39928 Y1.19739 F35
G31 Z-0.0625 F5
G0 Z0.0787
G1 X2.0095 Y1.19739 F35
G31 Z-0.0625 F5
G0 Z0.0787
G1 X1.61972 Y1.19739 F35
G31 Z-0.0625 F5
G0 Z0.0787
G1 X1.22994 Y1.19739 F35
G31 Z-0.0625 F5
G0 Z0.0787
G1 X0.84016 Y1.19739 F35
G31 Z-0.0625 F5
G0 Z0.0787
G1 X0.45038 Y1.19739 F35
G31 Z-0.0625 F5
G0 Z0.0787
G1 X0.0606 Y1.19739 F35
G31 Z-0.0625 F5
G0 Z0.0787
G1 X0.0606 Y1.58472 F35
G31 Z-0.0625 F5
G0 Z0.0787
G1 X0.45038 Y1.58472 F35
G31 Z-0.0625 F5
G0 Z0.0787
G1 X0.84016 Y1.58472 F35
G31 Z-0.0625 F5
G0 Z0.0787
G1 X1.22994 Y1.58472 F35
G31 Z-0.0625 F5
G0 Z0.0787
G1 X1.61972 Y1.58472 F35
G31 Z-0.0625 F5
G0 Z0.0787
G1 X2.0095 Y1.58472 F35
G31 Z-0.0625 F5
G0 Z0.0787
G1 X2.39928 Y1.58472 F35
G31 Z-0.0625 F5
G0 Z0.0787
G1 X2.78906 Y1.58472 F35
G31 Z-0.0625 F5
G0 Z0.0787
G1 X3.17884 Y1.58472 F35
G31 Z-0.0625 F5
G0 Z0.0787
G1 X3.56862 Y1.58472 F35
G31 Z-0.0625 F5
G0 Z0.0787
G1 X3.9584 Y1.58472 F35
G31 Z-0.0625 F5
G0 Z0.0787
G1 X4.34818 Y1.58472 F35
G31 Z-0.0625 F5
G0 Z0.0787
G1 X4.73796 Y1.58472 F35
G31 Z-0.0625 F5
G0 Z0.0787
G1 X5.12774 Y1.58472 F35
G31 Z-0.0625 F5
G0 Z0.0787
G1 X5.51752 Y1.58472 F35
G31 Z-0.0625 F5
G0 Z0.0787
G1 X5.9073 Y1.58472 F35
G31 Z-0.0625 F5
G0 Z0.0787
G1 X6.29708 Y1.58472 F35
G31 Z-0.0625 F5
G0 Z0.0787
G1 X6.68686 Y1.58472 F35
G31 Z-0.0625 F5
G0 Z0.0787
G1 X7.07664 Y1.58472 F35
G31 Z-0.0625 F5
G0 Z0.0787
G1 X7.46642 Y1.58472 F35
G31 Z-0.0625 F5
G0 Z0.0787
G1 X7.8562 Y1.58472 F35
G31 Z-0.0625 F5
G0 Z0.0787
G1 X8.24598 Y1.58472 F35
G31 Z-0.0625 F5
G0 Z0.0787
G1 X8.24598 Y1.97205 F35
G31 Z-0.0625 F5
G0 Z0.0787
G1 X7.8562 Y1.97205 F35
G31 Z-0.0625 F5
G0 Z0.0787
G1 X7.46642 Y1.97205 F35
G31 Z-0.0625 F5
G0 Z0.0787
G1 X7.07664 Y1.97205 F35
G31 Z-0.0625 F5
G0 Z0.0787
G1 X6.68686 Y1.97205 F35
G31 Z-0.0625 F5
G0 Z0.0787
G1 X6.29708 Y1.97205 F35
G31 Z-0.0625 F5
G0 Z0.0787
G1 X5.9073 Y1.97205 F35
G31 Z-0.0625 F5
G0 Z0.0787
G1 X5.51752 Y1.97205 F35
G31 Z-0.0625 F5
G0 Z0.0787
G1 X5.12774 Y1.97205 F35
G31 Z-0.0625 F5
G0 Z0.0787
G1 X4.73796 Y1.97205 F35
G31 Z-0.0625 F5
G0 Z0.0787
G1 X4.34818 Y1.97205 F35
G31 Z-0.0625 F5
G0 Z0.0787
G1 X3.9584 Y1.97205 F35
G31 Z-0.0625 F5
G0 Z0.0787
G1 X3.56862 Y1.97205 F35
G31 Z-0.0625 F5
G0 Z0.0787
G1 X3.17884 Y1.97205 F35
G31 Z-0.0625 F5
G0 Z0.0787
G1 X2.78906 Y1.97205 F35
G31 Z-0.0625 F5
G0 Z0.0787
G1 X2.39928 Y1.97205 F35
G31 Z-0.0625 F5
G0 Z0.0787
G1 X2.0095 Y1.97205 F35
G31 Z-0.0625 F5
G0 Z0.0787
G1 X1.61972 Y1.97205 F35
G31 Z-0.0625 F5
G0 Z0.0787
G1 X1.22994 Y1.97205 F35
G31 Z-0.0625 F5
G0 Z0.0787
G1 X0.84016 Y1.97205 F35
G31 Z-0.0625 F5
G0 Z0.0787
G1 X0.45038 Y1.97205 F35
G31 Z-0.0625 F5
G0 Z0.0787
G1 X0.0606 Y1.97205 F35
G31 Z-0.0625 F5
G0 Z0.0787
G1 X0.0606 Y2.35938 F35
G31 Z-0.0625 F5
G0 Z0.0787
G1 X0.45038 Y2.35938 F35
G31 Z-0.0625 F5
G0 Z0.0787
G1 X0.84016 Y2.35938 F35
G31 Z-0.0625 F5
G0 Z0.0787
G1 X1.22994 Y2.35938 F35
G31 Z-0.0625 F5
G0 Z0.0787
G1 X1.61972 Y2.35938 F35
G31 Z-0.0625 F5
G0 Z0.0787
G1 X2.0095 Y2.35938 F35
G31 Z-0.0625 F5
G0 Z0.0787
G1 X2.39928 Y2.35938 F35
G31 Z-0.0625 F5
G0 Z0.0787
G1 X2.78906 Y2.35938 F35
G31 Z-0.0625 F5
G0 Z0.0787
G1 X3.17884 Y2.35938 F35
G31 Z-0.0625 F5
G0 Z0.0787
G1 X3.56862 Y2.35938 F35
G31 Z-0.0625 F5
G0 Z0.0787
G1 X3.9584 Y2.35938 F35
G31 Z-0.0625 F5
G0 Z0.0787
G1 X4.34818 Y2.35938 F35
G31 Z-0.0625 F5
G0 Z0.0787
G1 X4.73796 Y2.35938 F35
G31 Z-0.0625 F5
G0 Z0.0787
G1 X5.12774 Y2.35938 F35
G31 Z-0.0625 F5
G0 Z0.0787
G1 X5.51752 Y2.35938 F35
G31 Z-0.0625 F5
G0 Z0.0787
G1 X5.9073 Y2.35938 F35
G31 Z-0.0625 F5
G0 Z0.0787
G1 X6.29708 Y2.35938 F35
G31 Z-0.0625 F5
G0 Z0.0787
G1 X6.68686 Y2.35938 F35
G31 Z-0.0625 F5
G0 Z0.0787
G1 X7.07664 Y2.35938 F35
G31 Z-0.0625 F5
G0 Z0.0787
G1 X7.46642 Y2.35938 F35
G31 Z-0.0625 F5
G0 Z0.0787
G1 X7.8562 Y2.35938 F35
G31 Z-0.0625 F5
G0 Z0.0787
G1 X8.24598 Y2.35938 F35
G31 Z-0.0625 F5
G0 Z0.0787
G1 X8.24598 Y2.74671 F35
G31 Z-0.0625 F5
G0 Z0.0787
G1 X7.8562 Y2.74671 F35
G31 Z-0.0625 F5
G0 Z0.0787
G1 X7.46642 Y2.74671 F35
G31 Z-0.0625 F5
G0 Z0.0787
G1 X7.07664 Y2.74671 F35
G31 Z-0.0625 F5
G0 Z0.0787
G1 X6.68686 Y2.74671 F35
G31 Z-0.0625 F5
G0 Z0.0787
G1 X6.29708 Y2.74671 F35
G31 Z-0.0625 F5
G0 Z0.0787
G1 X5.9073 Y2.74671 F35
G31 Z-0.0625 F5
G0 Z0.0787
G1 X5.51752 Y2.74671 F35
G31 Z-0.0625 F5
G0 Z0.0787
G1 X5.12774 Y2.74671 F35
G31 Z-0.0625 F5
G0 Z0.0787
G1 X4.73796 Y2.74671 F35
G31 Z-0.0625 F5
G0 Z0.0787
G1 X4.34818 Y2.74671 F35
G31 Z-0.0625 F5
G0 Z0.0787
G1 X3.9584 Y2.74671 F35
G31 Z-0.0625 F5
G0 Z0.0787
G1 X3.56862 Y2.74671 F35
G31 Z-0.0625 F5
G0 Z0.0787
G1 X3.17884 Y2.74671 F35
G31 Z-0.0625 F5
G0 Z0.0787
G1 X2.78906 Y2.74671 F35
G31 Z-0.0625 F5
G0 Z0.0787
G1 X2.39928 Y2.74671 F35
G31 Z-0.0625 F5
G0 Z0.0787
G1 X2.0095 Y2.74671 F35
G31 Z-0.0625 F5
G0 Z0.0787
G1 X1.61972 Y2.74671 F35
G31 Z-0.0625 F5
G0 Z0.0787
G1 X1.22994 Y2.74671 F35
G31 Z-0.0625 F5
G0 Z0.0787
G1 X0.84016 Y2.74671 F35
G31 Z-0.0625 F5
G0 Z0.0787
G1 X0.45038 Y2.74671 F35
G31 Z-0.0625 F5
G0 Z0.0787
G1 X0.0606 Y2.74671 F35
G31 Z-0.0625 F5
G0 Z0.0787
G1 X0.0606 Y3.13404 F35
G31 Z-0.0625 F5
G0 Z0.0787
G1 X0.45038 Y3.13404 F35
G31 Z-0.0625 F5
G0 Z0.0787
G1 X0.84016 Y3.13404 F35
G31 Z-0.0625 F5
G0 Z0.0787
G1 X1.22994 Y3.13404 F35
G31 Z-0.0625 F5
G0 Z0.0787
G1 X1.61972 Y3.13404 F35
G31 Z-0.0625 F5
G0 Z0.0787
G1 X2.0095 Y3.13404 F35
G31 Z-0.0625 F5
G0 Z0.0787
G1 X2.39928 Y3.13404 F35
G31 Z-0.0625 F5
G0 Z0.0787
G1 X2.78906 Y3.13404 F35
G31 Z-0.0625 F5
G0 Z0.0787
G1 X3.17884 Y3.13404 F35
G31 Z-0.0625 F5
G0 Z0.0787
G1 X3.56862 Y3.13404 F35
G31 Z-0.0625 F5
G0 Z0.0787
G1 X3.9584 Y3.13404 F35
G31 Z-0.0625 F5
G0 Z0.0787
G1 X4.34818 Y3.13404 F35
G31 Z-0.0625 F5
G0 Z0.0787
G1 X4.73796 Y3.13404 F35
G31 Z-0.0625 F5
G0 Z0.0787
G1 X5.12774 Y3.13404 F35
G31 Z-0.0625 F5
G0 Z0.0787
G1 X5.51752 Y3.13404 F35
G31 Z-0.0625 F5
G0 Z0.0787
G1 X5.9073 Y3.13404 F35
G31 Z-0.0625 F5
G0 Z0.0787
G1 X6.29708 Y3.13404 F35
G31 Z-0.0625 F5
G0 Z0.0787
G1 X6.68686 Y3.13404 F35
G31 Z-0.0625 F5
G0 Z0.0787
G1 X7.07664 Y3.13404 F35
G31 Z-0.0625 F5
G0 Z0.0787
G1 X7.46642 Y3.13404 F35
G31 Z-0.0625 F5
G0 Z0.0787
G1 X7.8562 Y3.13404 F35
G31 Z-0.0625 F5
G0 Z0.0787
G1 X8.24598 Y3.13404 F35
G31 Z-0.0625 F5
G0 Z0.0787
G1 X8.24598 Y3.52137 F35
G31 Z-0.0625 F5
G0 Z0.0787
G1 X7.8562 Y3.52137 F35
G31 Z-0.0625 F5
G0 Z0.0787
G1 X7.46642 Y3.52137 F35
G31 Z-0.0625 F5
G0 Z0.0787
G1 X7.07664 Y3.52137 F35
G31 Z-0.0625 F5
G0 Z0.0787
G1 X6.68686 Y3.52137 F35
G31 Z-0.0625 F5
G0 Z0.0787
G1 X6.29708 Y3.52137 F35
G31 Z-0.0625 F5
G0 Z0.0787
G1 X5.9073 Y3.52137 F35
G31 Z-0.0625 F5
G0 Z0.0787
G1 X5.51752 Y3.52137 F35
G31 Z-0.0625 F5
G0 Z0.0787
G1 X5.12774 Y3.52137 F35
G31 Z-0.0625 F5
G0 Z0.0787
G1 X4.73796 Y3.52137 F35
G31 Z-0.0625 F5
G0 Z0.0787
G1 X4.34818 Y3.52137 F35
G31 Z-0.0625 F5
G0 Z0.0787
G1 X3.9584 Y3.52137 F35
G31 Z-0.0625 F5
G0 Z0.0787
G1 X3.56862 Y3.52137 F35
G31 Z-0.0625 F5
G0 Z0.0787
G1 X3.17884 Y3.52137 F35
G31 Z-0.0625 F5
G0 Z0.0787
G1 X2.78906 Y3.52137 F35
G31 Z-0.0625 F5
G0 Z0.0787
G1 X2.39928 Y3.52137 F35
G31 Z-0.0625 F5
G0 Z0.0787
G1 X2.0095 Y3.52137 F35
G31 Z-0.0625 F5
G0 Z0.0787
G1 X1.61972 Y3.52137 F35
G31 Z-0.0625 F5
G0 Z0.0787
G1 X1.22994 Y3.52137 F35
G31 Z-0.0625 F5
G0 Z0.0787
G1 X0.84016 Y3.52137 F35
G31 Z-0.0625 F5
G0 Z0.0787
G1 X0.45038 Y3.52137 F35
G31 Z-0.0625 F5
G0 Z0.0787
G1 X0.0606 Y3.52137 F35
G31 Z-0.0625 F5
G0 Z0.0787
G1 X0.0606 Y3.9087 F35
G31 Z-0.0625 F5
G0 Z0.0787
G1 X0.45038 Y3.9087 F35
G31 Z-0.0625 F5
G0 Z0.0787
G1 X0.84016 Y3.9087 F35
G31 Z-0.0625 F5
G0 Z0.0787
G1 X1.22994 Y3.9087 F35
G31 Z-0.0625 F5
G0 Z0.0787
G1 X1.61972 Y3.9087 F35
G31 Z-0.0625 F5
G0 Z0.0787
G1 X2.0095 Y3.9087 F35
G31 Z-0.0625 F5
G0 Z0.0787
G1 X2.39928 Y3.9087 F35
G31 Z-0.0625 F5
G0 Z0.0787
G1 X2.78906 Y3.9087 F35
G31 Z-0.0625 F5
G0 Z0.0787
G1 X3.17884 Y3.9087 F35
G31 Z-0.0625 F5
G0 Z0.0787
G1 X3.56862 Y3.9087 F35
G31 Z-0.0625 F5
G0 Z0.0787
G1 X3.9584 Y3.9087 F35
G31 Z-0.0625 F5
G0 Z0.0787
G1 X4.34818 Y3.9087 F35
G31 Z-0.0625 F5
G0 Z0.0787
G1 X4.73796 Y3.9087 F35
G31 Z-0.0625 F5
G0 Z0.0787
G1 X5.12774 Y3.9087 F35
G31 Z-0.0625 F5
G0 Z0.0787
G1 X5.51752 Y3.9087 F35
G31 Z-0.0625 F5
G0 Z0.0787
G1 X5.9073 Y3.9087 F35
G31 Z-0.0625 F5
G0 Z0.0787
G1 X6.29708 Y3.9087 F35
G31 Z-0.0625 F5
G0 Z0.0787
G1 X6.68686 Y3.9087 F35
G31 Z-0.0625 F5
G0 Z0.0787
G1 X7.07664 Y3.9087 F35
G31 Z-0.0625 F5
G0 Z0.0787
G1 X7.46642 Y3.9087 F35
G31 Z-0.0625 F5
G0 Z0.0787
G1 X7.8562 Y3.9087 F35
G31 Z-0.0625 F5
G0 Z0.0787
G1 X8.24598 Y3.9087 F35
G31 Z-0.0625 F5
G0 Z0.0787
G1 X8.24598 Y4.29603 F35
G31 Z-0.0625 F5
G0 Z0.0787
G1 X7.8562 Y4.29603 F35
G31 Z-0.0625 F5
G0 Z0.0787
G1 X7.46642 Y4.29603 F35
G31 Z-0.0625 F5
G0 Z0.0787
G1 X7.07664 Y4.29603 F35
G31 Z-0.0625 F5
G0 Z0.0787
G1 X6.68686 Y4.29603 F35
G31 Z-0.0625 F5
G0 Z0.0787
G1 X6.29708 Y4.29603 F35
G31 Z-0.0625 F5
G0 Z0.0787
G1 X5.9073 Y4.29603 F35
G31 Z-0.0625 F5
G0 Z0.0787
G1 X5.51752 Y4.29603 F35
G31 Z-0.0625 F5
G0 Z0.0787
G1 X5.12774 Y4.29603 F35
G31 Z-0.0625 F5
G0 Z0.0787
G1 X4.73796 Y4.29603 F35
G31 Z-0.0625 F5
G0 Z0.0787
G1 X4.34818 Y4.29603 F35
G31 Z-0.0625 F5
G0 Z0.0787
G1 X3.9584 Y4.29603 F35
G31 Z-0.0625 F5
G0 Z0.0787
G1 X3.56862 Y4.29603 F35
G31 Z-0.0625 F5
G0 Z0.0787
G1 X3.17884 Y4.29603 F35
G31 Z-0.0625 F5
G0 Z0.0787
G1 X2.78906 Y4.29603 F35
G31 Z-0.0625 F5
G0 Z0.0787
G1 X2.39928 Y4.29603 F35
G31 Z-0.0625 F5
G0 Z0.0787
G1 X2.0095 Y4.29603 F35
G31 Z-0.0625 F5
G0 Z0.0787
G1 X1.61972 Y4.29603 F35
G31 Z-0.0625 F5
G0 Z0.0787
G1 X1.22994 Y4.29603 F35
G31 Z-0.0625 F5
G0 Z0.0787
G1 X0.84016 Y4.29603 F35
G31 Z-0.0625 F5
G0 Z0.0787
G1 X0.45038 Y4.29603 F35
G31 Z-0.0625 F5
G0 Z0.0787
G1 X0.0606 Y4.29603 F35
G31 Z-0.0625 F5
G0 Z0.0787
G1 X0.0606 Y4.68336 F35
G31 Z-0.0625 F5
G0 Z0.0787
G1 X0.45038 Y4.68336 F35
G31 Z-0.0625 F5
G0 Z0.0787
G1 X0.84016 Y4.68336 F35
G31 Z-0.0625 F5
G0 Z0.0787
G1 X1.22994 Y4.68336 F35
G31 Z-0.0625 F5
G0 Z0.0787
G1 X1.61972 Y4.68336 F35
G31 Z-0.0625 F5
G0 Z0.0787
G1 X2.0095 Y4.68336 F35
G31 Z-0.0625 F5
G0 Z0.0787
G1 X2.39928 Y4.68336 F35
G31 Z-0.0625 F5
G0 Z0.0787
G1 X2.78906 Y4.68336 F35
G31 Z-0.0625 F5
G0 Z0.0787
G1 X3.17884 Y4.68336 F35
G31 Z-0.0625 F5
G0 Z0.0787
G1 X3.56862 Y4.68336 F35
G31 Z-0.0625 F5
G0 Z0.0787
G1 X3.9584 Y4.68336 F35
G31 Z-0.0625 F5
G0 Z0.0787
G1 X4.34818 Y4.68336 F35
G31 Z-0.0625 F5
G0 Z0.0787
G1 X4.73796 Y4.68336 F35
G31 Z-0.0625 F5
G0 Z0.0787
G1 X5.12774 Y4.68336 F35
G31 Z-0.0625 F5
G0 Z0.0787
G1 X5.51752 Y4.68336 F35
G31 Z-0.0625 F5
G0 Z0.0787
G1 X5.9073 Y4.68336 F35
G31 Z-0.0625 F5
G0 Z0.0787
G1 X6.29708 Y4.68336 F35
G31 Z-0.0625 F5
G0 Z0.0787
G1 X6.68686 Y4.68336 F35
G31 Z-0.0625 F5
G0 Z0.0787
G1 X7.07664 Y4.68336 F35
G31 Z-0.0625 F5
G0 Z0.0787
G1 X7.46642 Y4.68336 F35
G31 Z-0.0625 F5
G0 Z0.0787
G1 X7.8562 Y4.68336 F35
G31 Z-0.0625 F5
G0 Z0.0787
G1 X8.24598 Y4.68336 F35
G31 Z-0.0625 F5
G0 Z0.0787
G1 X8.24598 Y5.07069 F35
G31 Z-0.0625 F5
G0 Z0.0787
G1 X7.8562 Y5.07069 F35
G31 Z-0.0625 F5
G0 Z0.0787
G1 X7.46642 Y5.07069 F35
G31 Z-0.0625 F5
G0 Z0.0787
G1 X7.07664 Y5.07069 F35
G31 Z-0.0625 F5
G0 Z0.0787
G1 X6.68686 Y5.07069 F35
G31 Z-0.0625 F5
G0 Z0.0787
G1 X6.29708 Y5.07069 F35
G31 Z-0.0625 F5
G0 Z0.0787
G1 X5.9073 Y5.07069 F35
G31 Z-0.0625 F5
G0 Z0.0787
G1 X5.51752 Y5.07069 F35
G31 Z-0.0625 F5
G0 Z0.0787
G1 X5.12774 Y5.07069 F35
G31 Z-0.0625 F5
G0 Z0.0787
G1 X4.73796 Y5.07069 F35
G31 Z-0.0625 F5
G0 Z0.0787
G1 X4.34818 Y5.07069 F35
G31 Z-0.0625 F5
G0 Z0.0787
G1 X3.9584 Y5.07069 F35
G31 Z-0.0625 F5
G0 Z0.0787
G1 X3.56862 Y5.07069 F35
G31 Z-0.0625 F5
G0 Z0.0787
G1 X3.17884 Y5.07069 F35
G31 Z-0.0625 F5
G0 Z0.0787
G1 X2.78906 Y5.07069 F35
G31 Z-0.0625 F5
G0 Z0.0787
G1 X2.39928 Y5.07069 F35
G31 Z-0.0625 F5
G0 Z0.0787
G1 X2.0095 Y5.07069 F35
G31 Z-0.0625 F5
G0 Z0.0787
G1 X1.61972 Y5.07069 F35
G31 Z-0.0625 F5
G0 Z0.0787
G1 X1.22994 Y5.07069 F35
G31 Z-0.0625 F5
G0 Z0.0787
G1 X0.84016 Y5.07069 F35
G31 Z-0.0625 F5
G0 Z0.0787
G1 X0.45038 Y5.07069 F35
G31 Z-0.0625 F5
G0 Z0.0787
G1 X0.0606 Y5.07069 F35
G31 Z-0.0625 F5
G0 Z0.0787
G1 X0.0606 Y5.45802 F35
G31 Z-0.0625 F5
G0 Z0.0787
G1 X0.45038 Y5.45802 F35
G31 Z-0.0625 F5
G0 Z0.0787
G1 X0.84016 Y5.45802 F35
G31 Z-0.0625 F5
G0 Z0.0787
G1 X1.22994 Y5.45802 F35
G31 Z-0.0625 F5
G0 Z0.0787
G1 X1.61972 Y5.45802 F35
G31 Z-0.0625 F5
G0 Z0.0787
G1 X2.0095 Y5.45802 F35
G31 Z-0.0625 F5
G0 Z0.0787
G1 X2.39928 Y5.45802 F35
G31 Z-0.0625 F5
G0 Z0.0787
G1 X2.78906 Y5.45802 F35
G31 Z-0.0625 F5
G0 Z0.0787
G1 X3.17884 Y5.45802 F35
G31 Z-0.0625 F5
G0 Z0.0787
G1 X3.56862 Y5.45802 F35
G31 Z-0.0625 F5
G0 Z0.0787
G1 X3.9584 Y5.45802 F35
G31 Z-0.0625 F5
G0 Z0.0787
G1 X4.34818 Y5.45802 F35
G31 Z-0.0625 F5
G0 Z0.0787
G1 X4.73796 Y5.45802 F35
G31 Z-0.0625 F5
G0 Z0.0787
G1 X5.12774 Y5.45802 F35
G31 Z-0.0625 F5
G0 Z0.0787
G1 X5.51752 Y5.45802 F35
G31 Z-0.0625 F5
G0 Z0.0787
G1 X5.9073 Y5.45802 F35
G31 Z-0.0625 F5
G0 Z0.0787
G1 X6.29708 Y5.45802 F35
G31 Z-0.0625 F5
G0 Z0.0787
G1 X6.68686 Y5.45802 F35
G31 Z-0.0625 F5
G0 Z0.0787
G1 X7.07664 Y5.45802 F35
G31 Z-0.0625 F5
G0 Z0.0787
G1 X7.46642 Y5.45802 F35
G31 Z-0.0625 F5
G0 Z0.0787
G1 X7.8562 Y5.45802 F35
G31 Z-0.0625 F5
G0 Z0.0787
G1 X8.24598 Y5.45802 F35
G31 Z-0.0625 F5
G0 Z0.0787
M41 (Closes the opened log file)
G0 X0.0606 Y0.0354 Z1.5
M0 (Detach any clips used for probing)
M30
