(This GCode script was designed to adjust the Z height of a CNC machine according)
(to the minute variations in the surface height in order to achieve a better result in the milling/etching process)
(This script is the output of AutoLevellerAE, 0.9.4u2 Changeset: ...e37a75 @ http://autoleveller.co.uk)
(Author: James Hawthorne PhD. File creation date: 02-05-2018 18:32)
(This program and any of its output is licensed under GPLv2 and as such...)
(AutoLevellerAE comes with ABSOLUTELY NO WARRANTY; for details, see sections 11 and 12 of the GPLv2 @ http://www.gnu.org/licenses/old-licenses/gpl-2.0.html)

(The following is a checklist which can be used before the probe routine starts)
(The checklist may not be entirely correct given your machine, therefore you should make your own adaptations as appropriate)
(1. Make sure wires/clips are attached and the probe is working correctly)
(Test probe connections within control software before starting)
(2. Home all axis)
(3. Load GCode file that contains the probe routine into your software controller)
(4. Jog tool tip close to surface and touch off Z)
(5. Jog Z up a fraction to make sure surface is cleared)
(6. Jog to and touch off X and Y at the desired bottom left corner of the probe area)
(Note: The first probe will touch off Z to 0.0 when it first touches to the surface,)
(all other probe values are relative to this first point)

G90 G20 S20000 G17

M0 (Attach probe wires and clips that need attaching)
(Initialize probe routine)
G0 Z1.5 (Move clear of the board first)
G1 X0.0604 Y0.038 F35 (Move to bottom left corner)
G0 Z0.0787 (Quick move to probe clearance height)
G31 Z-0.0625 F5 (Probe to a maximum of the specified probe height at the specified feed rate)
G92 Z0 (Touch off Z to 0 once contact is made)
G0 Z0.0787 (Move Z to above the contact point)
G31 Z-0.0625 F2.5 (Repeat at a more accurate slower rate)
G92 Z0
G0 Z0.0787

M40 (Begins a probe log file, when the window appears, enter a name for the log file such as "RawProbeLog.txt")
G0 Z0.0787
G1 X0.0604 Y0.038 F35
G31 Z-0.0625 F5
G0 Z0.0787
G1 X0.45 Y0.038 F35
G31 Z-0.0625 F5
G0 Z0.0787
G1 X0.8396 Y0.038 F35
G31 Z-0.0625 F5
G0 Z0.0787
G1 X1.2292 Y0.038 F35
G31 Z-0.0625 F5
G0 Z0.0787
G1 X1.6188 Y0.038 F35
G31 Z-0.0625 F5
G0 Z0.0787
G1 X2.0084 Y0.038 F35
G31 Z-0.0625 F5
G0 Z0.0787
G1 X2.398 Y0.038 F35
G31 Z-0.0625 F5
G0 Z0.0787
G1 X2.7876 Y0.038 F35
G31 Z-0.0625 F5
G0 Z0.0787
G1 X3.1772 Y0.038 F35
G31 Z-0.0625 F5
G0 Z0.0787
G1 X3.5668 Y0.038 F35
G31 Z-0.0625 F5
G0 Z0.0787
G1 X3.9564 Y0.038 F35
G31 Z-0.0625 F5
G0 Z0.0787
G1 X4.346 Y0.038 F35
G31 Z-0.0625 F5
G0 Z0.0787
G1 X4.7356 Y0.038 F35
G31 Z-0.0625 F5
G0 Z0.0787
G1 X5.1252 Y0.038 F35
G31 Z-0.0625 F5
G0 Z0.0787
G1 X5.5148 Y0.038 F35
G31 Z-0.0625 F5
G0 Z0.0787
G1 X5.9044 Y0.038 F35
G31 Z-0.0625 F5
G0 Z0.0787
G1 X6.294 Y0.038 F35
G31 Z-0.0625 F5
G0 Z0.0787
G1 X6.6836 Y0.038 F35
G31 Z-0.0625 F5
G0 Z0.0787
G1 X7.0732 Y0.038 F35
G31 Z-0.0625 F5
G0 Z0.0787
G1 X7.4628 Y0.038 F35
G31 Z-0.0625 F5
G0 Z0.0787
G1 X7.8524 Y0.038 F35
G31 Z-0.0625 F5
G0 Z0.0787
G1 X8.242 Y0.038 F35
G31 Z-0.0625 F5
G0 Z0.0787
G1 X8.242 Y0.42561 F35
G31 Z-0.0625 F5
G0 Z0.0787
G1 X7.8524 Y0.42561 F35
G31 Z-0.0625 F5
G0 Z0.0787
G1 X7.4628 Y0.42561 F35
G31 Z-0.0625 F5
G0 Z0.0787
G1 X7.0732 Y0.42561 F35
G31 Z-0.0625 F5
G0 Z0.0787
G1 X6.6836 Y0.42561 F35
G31 Z-0.0625 F5
G0 Z0.0787
G1 X6.294 Y0.42561 F35
G31 Z-0.0625 F5
G0 Z0.0787
G1 X5.9044 Y0.42561 F35
G31 Z-0.0625 F5
G0 Z0.0787
G1 X5.5148 Y0.42561 F35
G31 Z-0.0625 F5
G0 Z0.0787
G1 X5.1252 Y0.42561 F35
G31 Z-0.0625 F5
G0 Z0.0787
G1 X4.7356 Y0.42561 F35
G31 Z-0.0625 F5
G0 Z0.0787
G1 X4.346 Y0.42561 F35
G31 Z-0.0625 F5
G0 Z0.0787
G1 X3.9564 Y0.42561 F35
G31 Z-0.0625 F5
G0 Z0.0787
G1 X3.5668 Y0.42561 F35
G31 Z-0.0625 F5
G0 Z0.0787
G1 X3.1772 Y0.42561 F35
G31 Z-0.0625 F5
G0 Z0.0787
G1 X2.7876 Y0.42561 F35
G31 Z-0.0625 F5
G0 Z0.0787
G1 X2.398 Y0.42561 F35
G31 Z-0.0625 F5
G0 Z0.0787
G1 X2.0084 Y0.42561 F35
G31 Z-0.0625 F5
G0 Z0.0787
G1 X1.6188 Y0.42561 F35
G31 Z-0.0625 F5
G0 Z0.0787
G1 X1.2292 Y0.42561 F35
G31 Z-0.0625 F5
G0 Z0.0787
G1 X0.8396 Y0.42561 F35
G31 Z-0.0625 F5
G0 Z0.0787
G1 X0.45 Y0.42561 F35
G31 Z-0.0625 F5
G0 Z0.0787
G1 X0.0604 Y0.42561 F35
G31 Z-0.0625 F5
G0 Z0.0787
G1 X0.0604 Y0.81322 F35
G31 Z-0.0625 F5
G0 Z0.0787
G1 X0.45 Y0.81322 F35
G31 Z-0.0625 F5
G0 Z0.0787
G1 X0.8396 Y0.81322 F35
G31 Z-0.0625 F5
G0 Z0.0787
G1 X1.2292 Y0.81322 F35
G31 Z-0.0625 F5
G0 Z0.0787
G1 X1.6188 Y0.81322 F35
G31 Z-0.0625 F5
G0 Z0.0787
G1 X2.0084 Y0.81322 F35
G31 Z-0.0625 F5
G0 Z0.0787
G1 X2.398 Y0.81322 F35
G31 Z-0.0625 F5
G0 Z0.0787
G1 X2.7876 Y0.81322 F35
G31 Z-0.0625 F5
G0 Z0.0787
G1 X3.1772 Y0.81322 F35
G31 Z-0.0625 F5
G0 Z0.0787
G1 X3.5668 Y0.81322 F35
G31 Z-0.0625 F5
G0 Z0.0787
G1 X3.9564 Y0.81322 F35
G31 Z-0.0625 F5
G0 Z0.0787
G1 X4.346 Y0.81322 F35
G31 Z-0.0625 F5
G0 Z0.0787
G1 X4.7356 Y0.81322 F35
G31 Z-0.0625 F5
G0 Z0.0787
G1 X5.1252 Y0.81322 F35
G31 Z-0.0625 F5
G0 Z0.0787
G1 X5.5148 Y0.81322 F35
G31 Z-0.0625 F5
G0 Z0.0787
G1 X5.9044 Y0.81322 F35
G31 Z-0.0625 F5
G0 Z0.0787
G1 X6.294 Y0.81322 F35
G31 Z-0.0625 F5
G0 Z0.0787
G1 X6.6836 Y0.81322 F35
G31 Z-0.0625 F5
G0 Z0.0787
G1 X7.0732 Y0.81322 F35
G31 Z-0.0625 F5
G0 Z0.0787
G1 X7.4628 Y0.81322 F35
G31 Z-0.0625 F5
G0 Z0.0787
G1 X7.8524 Y0.81322 F35
G31 Z-0.0625 F5
G0 Z0.0787
G1 X8.242 Y0.81322 F35
G31 Z-0.0625 F5
G0 Z0.0787
G1 X8.242 Y1.20083 F35
G31 Z-0.0625 F5
G0 Z0.0787
G1 X7.8524 Y1.20083 F35
G31 Z-0.0625 F5
G0 Z0.0787
G1 X7.4628 Y1.20083 F35
G31 Z-0.0625 F5
G0 Z0.0787
G1 X7.0732 Y1.20083 F35
G31 Z-0.0625 F5
G0 Z0.0787
G1 X6.6836 Y1.20083 F35
G31 Z-0.0625 F5
G0 Z0.0787
G1 X6.294 Y1.20083 F35
G31 Z-0.0625 F5
G0 Z0.0787
G1 X5.9044 Y1.20083 F35
G31 Z-0.0625 F5
G0 Z0.0787
G1 X5.5148 Y1.20083 F35
G31 Z-0.0625 F5
G0 Z0.0787
G1 X5.1252 Y1.20083 F35
G31 Z-0.0625 F5
G0 Z0.0787
G1 X4.7356 Y1.20083 F35
G31 Z-0.0625 F5
G0 Z0.0787
G1 X4.346 Y1.20083 F35
G31 Z-0.0625 F5
G0 Z0.0787
G1 X3.9564 Y1.20083 F35
G31 Z-0.0625 F5
G0 Z0.0787
G1 X3.5668 Y1.20083 F35
G31 Z-0.0625 F5
G0 Z0.0787
G1 X3.1772 Y1.20083 F35
G31 Z-0.0625 F5
G0 Z0.0787
G1 X2.7876 Y1.20083 F35
G31 Z-0.0625 F5
G0 Z0.0787
G1 X2.398 Y1.20083 F35
G31 Z-0.0625 F5
G0 Z0.0787
G1 X2.0084 Y1.20083 F35
G31 Z-0.0625 F5
G0 Z0.0787
G1 X1.6188 Y1.20083 F35
G31 Z-0.0625 F5
G0 Z0.0787
G1 X1.2292 Y1.20083 F35
G31 Z-0.0625 F5
G0 Z0.0787
G1 X0.8396 Y1.20083 F35
G31 Z-0.0625 F5
G0 Z0.0787
G1 X0.45 Y1.20083 F35
G31 Z-0.0625 F5
G0 Z0.0787
G1 X0.0604 Y1.20083 F35
G31 Z-0.0625 F5
G0 Z0.0787
G1 X0.0604 Y1.58844 F35
G31 Z-0.0625 F5
G0 Z0.0787
G1 X0.45 Y1.58844 F35
G31 Z-0.0625 F5
G0 Z0.0787
G1 X0.8396 Y1.58844 F35
G31 Z-0.0625 F5
G0 Z0.0787
G1 X1.2292 Y1.58844 F35
G31 Z-0.0625 F5
G0 Z0.0787
G1 X1.6188 Y1.58844 F35
G31 Z-0.0625 F5
G0 Z0.0787
G1 X2.0084 Y1.58844 F35
G31 Z-0.0625 F5
G0 Z0.0787
G1 X2.398 Y1.58844 F35
G31 Z-0.0625 F5
G0 Z0.0787
G1 X2.7876 Y1.58844 F35
G31 Z-0.0625 F5
G0 Z0.0787
G1 X3.1772 Y1.58844 F35
G31 Z-0.0625 F5
G0 Z0.0787
G1 X3.5668 Y1.58844 F35
G31 Z-0.0625 F5
G0 Z0.0787
G1 X3.9564 Y1.58844 F35
G31 Z-0.0625 F5
G0 Z0.0787
G1 X4.346 Y1.58844 F35
G31 Z-0.0625 F5
G0 Z0.0787
G1 X4.7356 Y1.58844 F35
G31 Z-0.0625 F5
G0 Z0.0787
G1 X5.1252 Y1.58844 F35
G31 Z-0.0625 F5
G0 Z0.0787
G1 X5.5148 Y1.58844 F35
G31 Z-0.0625 F5
G0 Z0.0787
G1 X5.9044 Y1.58844 F35
G31 Z-0.0625 F5
G0 Z0.0787
G1 X6.294 Y1.58844 F35
G31 Z-0.0625 F5
G0 Z0.0787
G1 X6.6836 Y1.58844 F35
G31 Z-0.0625 F5
G0 Z0.0787
G1 X7.0732 Y1.58844 F35
G31 Z-0.0625 F5
G0 Z0.0787
G1 X7.4628 Y1.58844 F35
G31 Z-0.0625 F5
G0 Z0.0787
G1 X7.8524 Y1.58844 F35
G31 Z-0.0625 F5
G0 Z0.0787
G1 X8.242 Y1.58844 F35
G31 Z-0.0625 F5
G0 Z0.0787
G1 X8.242 Y1.97605 F35
G31 Z-0.0625 F5
G0 Z0.0787
G1 X7.8524 Y1.97605 F35
G31 Z-0.0625 F5
G0 Z0.0787
G1 X7.4628 Y1.97605 F35
G31 Z-0.0625 F5
G0 Z0.0787
G1 X7.0732 Y1.97605 F35
G31 Z-0.0625 F5
G0 Z0.0787
G1 X6.6836 Y1.97605 F35
G31 Z-0.0625 F5
G0 Z0.0787
G1 X6.294 Y1.97605 F35
G31 Z-0.0625 F5
G0 Z0.0787
G1 X5.9044 Y1.97605 F35
G31 Z-0.0625 F5
G0 Z0.0787
G1 X5.5148 Y1.97605 F35
G31 Z-0.0625 F5
G0 Z0.0787
G1 X5.1252 Y1.97605 F35
G31 Z-0.0625 F5
G0 Z0.0787
G1 X4.7356 Y1.97605 F35
G31 Z-0.0625 F5
G0 Z0.0787
G1 X4.346 Y1.97605 F35
G31 Z-0.0625 F5
G0 Z0.0787
G1 X3.9564 Y1.97605 F35
G31 Z-0.0625 F5
G0 Z0.0787
G1 X3.5668 Y1.97605 F35
G31 Z-0.0625 F5
G0 Z0.0787
G1 X3.1772 Y1.97605 F35
G31 Z-0.0625 F5
G0 Z0.0787
G1 X2.7876 Y1.97605 F35
G31 Z-0.0625 F5
G0 Z0.0787
G1 X2.398 Y1.97605 F35
G31 Z-0.0625 F5
G0 Z0.0787
G1 X2.0084 Y1.97605 F35
G31 Z-0.0625 F5
G0 Z0.0787
G1 X1.6188 Y1.97605 F35
G31 Z-0.0625 F5
G0 Z0.0787
G1 X1.2292 Y1.97605 F35
G31 Z-0.0625 F5
G0 Z0.0787
G1 X0.8396 Y1.97605 F35
G31 Z-0.0625 F5
G0 Z0.0787
G1 X0.45 Y1.97605 F35
G31 Z-0.0625 F5
G0 Z0.0787
G1 X0.0604 Y1.97605 F35
G31 Z-0.0625 F5
G0 Z0.0787
G1 X0.0604 Y2.36366 F35
G31 Z-0.0625 F5
G0 Z0.0787
G1 X0.45 Y2.36366 F35
G31 Z-0.0625 F5
G0 Z0.0787
G1 X0.8396 Y2.36366 F35
G31 Z-0.0625 F5
G0 Z0.0787
G1 X1.2292 Y2.36366 F35
G31 Z-0.0625 F5
G0 Z0.0787
G1 X1.6188 Y2.36366 F35
G31 Z-0.0625 F5
G0 Z0.0787
G1 X2.0084 Y2.36366 F35
G31 Z-0.0625 F5
G0 Z0.0787
G1 X2.398 Y2.36366 F35
G31 Z-0.0625 F5
G0 Z0.0787
G1 X2.7876 Y2.36366 F35
G31 Z-0.0625 F5
G0 Z0.0787
G1 X3.1772 Y2.36366 F35
G31 Z-0.0625 F5
G0 Z0.0787
G1 X3.5668 Y2.36366 F35
G31 Z-0.0625 F5
G0 Z0.0787
G1 X3.9564 Y2.36366 F35
G31 Z-0.0625 F5
G0 Z0.0787
G1 X4.346 Y2.36366 F35
G31 Z-0.0625 F5
G0 Z0.0787
G1 X4.7356 Y2.36366 F35
G31 Z-0.0625 F5
G0 Z0.0787
G1 X5.1252 Y2.36366 F35
G31 Z-0.0625 F5
G0 Z0.0787
G1 X5.5148 Y2.36366 F35
G31 Z-0.0625 F5
G0 Z0.0787
G1 X5.9044 Y2.36366 F35
G31 Z-0.0625 F5
G0 Z0.0787
G1 X6.294 Y2.36366 F35
G31 Z-0.0625 F5
G0 Z0.0787
G1 X6.6836 Y2.36366 F35
G31 Z-0.0625 F5
G0 Z0.0787
G1 X7.0732 Y2.36366 F35
G31 Z-0.0625 F5
G0 Z0.0787
G1 X7.4628 Y2.36366 F35
G31 Z-0.0625 F5
G0 Z0.0787
G1 X7.8524 Y2.36366 F35
G31 Z-0.0625 F5
G0 Z0.0787
G1 X8.242 Y2.36366 F35
G31 Z-0.0625 F5
G0 Z0.0787
G1 X8.242 Y2.75127 F35
G31 Z-0.0625 F5
G0 Z0.0787
G1 X7.8524 Y2.75127 F35
G31 Z-0.0625 F5
G0 Z0.0787
G1 X7.4628 Y2.75127 F35
G31 Z-0.0625 F5
G0 Z0.0787
G1 X7.0732 Y2.75127 F35
G31 Z-0.0625 F5
G0 Z0.0787
G1 X6.6836 Y2.75127 F35
G31 Z-0.0625 F5
G0 Z0.0787
G1 X6.294 Y2.75127 F35
G31 Z-0.0625 F5
G0 Z0.0787
G1 X5.9044 Y2.75127 F35
G31 Z-0.0625 F5
G0 Z0.0787
G1 X5.5148 Y2.75127 F35
G31 Z-0.0625 F5
G0 Z0.0787
G1 X5.1252 Y2.75127 F35
G31 Z-0.0625 F5
G0 Z0.0787
G1 X4.7356 Y2.75127 F35
G31 Z-0.0625 F5
G0 Z0.0787
G1 X4.346 Y2.75127 F35
G31 Z-0.0625 F5
G0 Z0.0787
G1 X3.9564 Y2.75127 F35
G31 Z-0.0625 F5
G0 Z0.0787
G1 X3.5668 Y2.75127 F35
G31 Z-0.0625 F5
G0 Z0.0787
G1 X3.1772 Y2.75127 F35
G31 Z-0.0625 F5
G0 Z0.0787
G1 X2.7876 Y2.75127 F35
G31 Z-0.0625 F5
G0 Z0.0787
G1 X2.398 Y2.75127 F35
G31 Z-0.0625 F5
G0 Z0.0787
G1 X2.0084 Y2.75127 F35
G31 Z-0.0625 F5
G0 Z0.0787
G1 X1.6188 Y2.75127 F35
G31 Z-0.0625 F5
G0 Z0.0787
G1 X1.2292 Y2.75127 F35
G31 Z-0.0625 F5
G0 Z0.0787
G1 X0.8396 Y2.75127 F35
G31 Z-0.0625 F5
G0 Z0.0787
G1 X0.45 Y2.75127 F35
G31 Z-0.0625 F5
G0 Z0.0787
G1 X0.0604 Y2.75127 F35
G31 Z-0.0625 F5
G0 Z0.0787
G1 X0.0604 Y3.13888 F35
G31 Z-0.0625 F5
G0 Z0.0787
G1 X0.45 Y3.13888 F35
G31 Z-0.0625 F5
G0 Z0.0787
G1 X0.8396 Y3.13888 F35
G31 Z-0.0625 F5
G0 Z0.0787
G1 X1.2292 Y3.13888 F35
G31 Z-0.0625 F5
G0 Z0.0787
G1 X1.6188 Y3.13888 F35
G31 Z-0.0625 F5
G0 Z0.0787
G1 X2.0084 Y3.13888 F35
G31 Z-0.0625 F5
G0 Z0.0787
G1 X2.398 Y3.13888 F35
G31 Z-0.0625 F5
G0 Z0.0787
G1 X2.7876 Y3.13888 F35
G31 Z-0.0625 F5
G0 Z0.0787
G1 X3.1772 Y3.13888 F35
G31 Z-0.0625 F5
G0 Z0.0787
G1 X3.5668 Y3.13888 F35
G31 Z-0.0625 F5
G0 Z0.0787
G1 X3.9564 Y3.13888 F35
G31 Z-0.0625 F5
G0 Z0.0787
G1 X4.346 Y3.13888 F35
G31 Z-0.0625 F5
G0 Z0.0787
G1 X4.7356 Y3.13888 F35
G31 Z-0.0625 F5
G0 Z0.0787
G1 X5.1252 Y3.13888 F35
G31 Z-0.0625 F5
G0 Z0.0787
G1 X5.5148 Y3.13888 F35
G31 Z-0.0625 F5
G0 Z0.0787
G1 X5.9044 Y3.13888 F35
G31 Z-0.0625 F5
G0 Z0.0787
G1 X6.294 Y3.13888 F35
G31 Z-0.0625 F5
G0 Z0.0787
G1 X6.6836 Y3.13888 F35
G31 Z-0.0625 F5
G0 Z0.0787
G1 X7.0732 Y3.13888 F35
G31 Z-0.0625 F5
G0 Z0.0787
G1 X7.4628 Y3.13888 F35
G31 Z-0.0625 F5
G0 Z0.0787
G1 X7.8524 Y3.13888 F35
G31 Z-0.0625 F5
G0 Z0.0787
G1 X8.242 Y3.13888 F35
G31 Z-0.0625 F5
G0 Z0.0787
G1 X8.242 Y3.52649 F35
G31 Z-0.0625 F5
G0 Z0.0787
G1 X7.8524 Y3.52649 F35
G31 Z-0.0625 F5
G0 Z0.0787
G1 X7.4628 Y3.52649 F35
G31 Z-0.0625 F5
G0 Z0.0787
G1 X7.0732 Y3.52649 F35
G31 Z-0.0625 F5
G0 Z0.0787
G1 X6.6836 Y3.52649 F35
G31 Z-0.0625 F5
G0 Z0.0787
G1 X6.294 Y3.52649 F35
G31 Z-0.0625 F5
G0 Z0.0787
G1 X5.9044 Y3.52649 F35
G31 Z-0.0625 F5
G0 Z0.0787
G1 X5.5148 Y3.52649 F35
G31 Z-0.0625 F5
G0 Z0.0787
G1 X5.1252 Y3.52649 F35
G31 Z-0.0625 F5
G0 Z0.0787
G1 X4.7356 Y3.52649 F35
G31 Z-0.0625 F5
G0 Z0.0787
G1 X4.346 Y3.52649 F35
G31 Z-0.0625 F5
G0 Z0.0787
G1 X3.9564 Y3.52649 F35
G31 Z-0.0625 F5
G0 Z0.0787
G1 X3.5668 Y3.52649 F35
G31 Z-0.0625 F5
G0 Z0.0787
G1 X3.1772 Y3.52649 F35
G31 Z-0.0625 F5
G0 Z0.0787
G1 X2.7876 Y3.52649 F35
G31 Z-0.0625 F5
G0 Z0.0787
G1 X2.398 Y3.52649 F35
G31 Z-0.0625 F5
G0 Z0.0787
G1 X2.0084 Y3.52649 F35
G31 Z-0.0625 F5
G0 Z0.0787
G1 X1.6188 Y3.52649 F35
G31 Z-0.0625 F5
G0 Z0.0787
G1 X1.2292 Y3.52649 F35
G31 Z-0.0625 F5
G0 Z0.0787
G1 X0.8396 Y3.52649 F35
G31 Z-0.0625 F5
G0 Z0.0787
G1 X0.45 Y3.52649 F35
G31 Z-0.0625 F5
G0 Z0.0787
G1 X0.0604 Y3.52649 F35
G31 Z-0.0625 F5
G0 Z0.0787
G1 X0.0604 Y3.9141 F35
G31 Z-0.0625 F5
G0 Z0.0787
G1 X0.45 Y3.9141 F35
G31 Z-0.0625 F5
G0 Z0.0787
G1 X0.8396 Y3.9141 F35
G31 Z-0.0625 F5
G0 Z0.0787
G1 X1.2292 Y3.9141 F35
G31 Z-0.0625 F5
G0 Z0.0787
G1 X1.6188 Y3.9141 F35
G31 Z-0.0625 F5
G0 Z0.0787
G1 X2.0084 Y3.9141 F35
G31 Z-0.0625 F5
G0 Z0.0787
G1 X2.398 Y3.9141 F35
G31 Z-0.0625 F5
G0 Z0.0787
G1 X2.7876 Y3.9141 F35
G31 Z-0.0625 F5
G0 Z0.0787
G1 X3.1772 Y3.9141 F35
G31 Z-0.0625 F5
G0 Z0.0787
G1 X3.5668 Y3.9141 F35
G31 Z-0.0625 F5
G0 Z0.0787
G1 X3.9564 Y3.9141 F35
G31 Z-0.0625 F5
G0 Z0.0787
G1 X4.346 Y3.9141 F35
G31 Z-0.0625 F5
G0 Z0.0787
G1 X4.7356 Y3.9141 F35
G31 Z-0.0625 F5
G0 Z0.0787
G1 X5.1252 Y3.9141 F35
G31 Z-0.0625 F5
G0 Z0.0787
G1 X5.5148 Y3.9141 F35
G31 Z-0.0625 F5
G0 Z0.0787
G1 X5.9044 Y3.9141 F35
G31 Z-0.0625 F5
G0 Z0.0787
G1 X6.294 Y3.9141 F35
G31 Z-0.0625 F5
G0 Z0.0787
G1 X6.6836 Y3.9141 F35
G31 Z-0.0625 F5
G0 Z0.0787
G1 X7.0732 Y3.9141 F35
G31 Z-0.0625 F5
G0 Z0.0787
G1 X7.4628 Y3.9141 F35
G31 Z-0.0625 F5
G0 Z0.0787
G1 X7.8524 Y3.9141 F35
G31 Z-0.0625 F5
G0 Z0.0787
G1 X8.242 Y3.9141 F35
G31 Z-0.0625 F5
G0 Z0.0787
G1 X8.242 Y4.30171 F35
G31 Z-0.0625 F5
G0 Z0.0787
G1 X7.8524 Y4.30171 F35
G31 Z-0.0625 F5
G0 Z0.0787
G1 X7.4628 Y4.30171 F35
G31 Z-0.0625 F5
G0 Z0.0787
G1 X7.0732 Y4.30171 F35
G31 Z-0.0625 F5
G0 Z0.0787
G1 X6.6836 Y4.30171 F35
G31 Z-0.0625 F5
G0 Z0.0787
G1 X6.294 Y4.30171 F35
G31 Z-0.0625 F5
G0 Z0.0787
G1 X5.9044 Y4.30171 F35
G31 Z-0.0625 F5
G0 Z0.0787
G1 X5.5148 Y4.30171 F35
G31 Z-0.0625 F5
G0 Z0.0787
G1 X5.1252 Y4.30171 F35
G31 Z-0.0625 F5
G0 Z0.0787
G1 X4.7356 Y4.30171 F35
G31 Z-0.0625 F5
G0 Z0.0787
G1 X4.346 Y4.30171 F35
G31 Z-0.0625 F5
G0 Z0.0787
G1 X3.9564 Y4.30171 F35
G31 Z-0.0625 F5
G0 Z0.0787
G1 X3.5668 Y4.30171 F35
G31 Z-0.0625 F5
G0 Z0.0787
G1 X3.1772 Y4.30171 F35
G31 Z-0.0625 F5
G0 Z0.0787
G1 X2.7876 Y4.30171 F35
G31 Z-0.0625 F5
G0 Z0.0787
G1 X2.398 Y4.30171 F35
G31 Z-0.0625 F5
G0 Z0.0787
G1 X2.0084 Y4.30171 F35
G31 Z-0.0625 F5
G0 Z0.0787
G1 X1.6188 Y4.30171 F35
G31 Z-0.0625 F5
G0 Z0.0787
G1 X1.2292 Y4.30171 F35
G31 Z-0.0625 F5
G0 Z0.0787
G1 X0.8396 Y4.30171 F35
G31 Z-0.0625 F5
G0 Z0.0787
G1 X0.45 Y4.30171 F35
G31 Z-0.0625 F5
G0 Z0.0787
G1 X0.0604 Y4.30171 F35
G31 Z-0.0625 F5
G0 Z0.0787
G1 X0.0604 Y4.68932 F35
G31 Z-0.0625 F5
G0 Z0.0787
G1 X0.45 Y4.68932 F35
G31 Z-0.0625 F5
G0 Z0.0787
G1 X0.8396 Y4.68932 F35
G31 Z-0.0625 F5
G0 Z0.0787
G1 X1.2292 Y4.68932 F35
G31 Z-0.0625 F5
G0 Z0.0787
G1 X1.6188 Y4.68932 F35
G31 Z-0.0625 F5
G0 Z0.0787
G1 X2.0084 Y4.68932 F35
G31 Z-0.0625 F5
G0 Z0.0787
G1 X2.398 Y4.68932 F35
G31 Z-0.0625 F5
G0 Z0.0787
G1 X2.7876 Y4.68932 F35
G31 Z-0.0625 F5
G0 Z0.0787
G1 X3.1772 Y4.68932 F35
G31 Z-0.0625 F5
G0 Z0.0787
G1 X3.5668 Y4.68932 F35
G31 Z-0.0625 F5
G0 Z0.0787
G1 X3.9564 Y4.68932 F35
G31 Z-0.0625 F5
G0 Z0.0787
G1 X4.346 Y4.68932 F35
G31 Z-0.0625 F5
G0 Z0.0787
G1 X4.7356 Y4.68932 F35
G31 Z-0.0625 F5
G0 Z0.0787
G1 X5.1252 Y4.68932 F35
G31 Z-0.0625 F5
G0 Z0.0787
G1 X5.5148 Y4.68932 F35
G31 Z-0.0625 F5
G0 Z0.0787
G1 X5.9044 Y4.68932 F35
G31 Z-0.0625 F5
G0 Z0.0787
G1 X6.294 Y4.68932 F35
G31 Z-0.0625 F5
G0 Z0.0787
G1 X6.6836 Y4.68932 F35
G31 Z-0.0625 F5
G0 Z0.0787
G1 X7.0732 Y4.68932 F35
G31 Z-0.0625 F5
G0 Z0.0787
G1 X7.4628 Y4.68932 F35
G31 Z-0.0625 F5
G0 Z0.0787
G1 X7.8524 Y4.68932 F35
G31 Z-0.0625 F5
G0 Z0.0787
G1 X8.242 Y4.68932 F35
G31 Z-0.0625 F5
G0 Z0.0787
G1 X8.242 Y5.07693 F35
G31 Z-0.0625 F5
G0 Z0.0787
G1 X7.8524 Y5.07693 F35
G31 Z-0.0625 F5
G0 Z0.0787
G1 X7.4628 Y5.07693 F35
G31 Z-0.0625 F5
G0 Z0.0787
G1 X7.0732 Y5.07693 F35
G31 Z-0.0625 F5
G0 Z0.0787
G1 X6.6836 Y5.07693 F35
G31 Z-0.0625 F5
G0 Z0.0787
G1 X6.294 Y5.07693 F35
G31 Z-0.0625 F5
G0 Z0.0787
G1 X5.9044 Y5.07693 F35
G31 Z-0.0625 F5
G0 Z0.0787
G1 X5.5148 Y5.07693 F35
G31 Z-0.0625 F5
G0 Z0.0787
G1 X5.1252 Y5.07693 F35
G31 Z-0.0625 F5
G0 Z0.0787
G1 X4.7356 Y5.07693 F35
G31 Z-0.0625 F5
G0 Z0.0787
G1 X4.346 Y5.07693 F35
G31 Z-0.0625 F5
G0 Z0.0787
G1 X3.9564 Y5.07693 F35
G31 Z-0.0625 F5
G0 Z0.0787
G1 X3.5668 Y5.07693 F35
G31 Z-0.0625 F5
G0 Z0.0787
G1 X3.1772 Y5.07693 F35
G31 Z-0.0625 F5
G0 Z0.0787
G1 X2.7876 Y5.07693 F35
G31 Z-0.0625 F5
G0 Z0.0787
G1 X2.398 Y5.07693 F35
G31 Z-0.0625 F5
G0 Z0.0787
G1 X2.0084 Y5.07693 F35
G31 Z-0.0625 F5
G0 Z0.0787
G1 X1.6188 Y5.07693 F35
G31 Z-0.0625 F5
G0 Z0.0787
G1 X1.2292 Y5.07693 F35
G31 Z-0.0625 F5
G0 Z0.0787
G1 X0.8396 Y5.07693 F35
G31 Z-0.0625 F5
G0 Z0.0787
G1 X0.45 Y5.07693 F35
G31 Z-0.0625 F5
G0 Z0.0787
G1 X0.0604 Y5.07693 F35
G31 Z-0.0625 F5
G0 Z0.0787
G1 X0.0604 Y5.46454 F35
G31 Z-0.0625 F5
G0 Z0.0787
G1 X0.45 Y5.46454 F35
G31 Z-0.0625 F5
G0 Z0.0787
G1 X0.8396 Y5.46454 F35
G31 Z-0.0625 F5
G0 Z0.0787
G1 X1.2292 Y5.46454 F35
G31 Z-0.0625 F5
G0 Z0.0787
G1 X1.6188 Y5.46454 F35
G31 Z-0.0625 F5
G0 Z0.0787
G1 X2.0084 Y5.46454 F35
G31 Z-0.0625 F5
G0 Z0.0787
G1 X2.398 Y5.46454 F35
G31 Z-0.0625 F5
G0 Z0.0787
G1 X2.7876 Y5.46454 F35
G31 Z-0.0625 F5
G0 Z0.0787
G1 X3.1772 Y5.46454 F35
G31 Z-0.0625 F5
G0 Z0.0787
G1 X3.5668 Y5.46454 F35
G31 Z-0.0625 F5
G0 Z0.0787
G1 X3.9564 Y5.46454 F35
G31 Z-0.0625 F5
G0 Z0.0787
G1 X4.346 Y5.46454 F35
G31 Z-0.0625 F5
G0 Z0.0787
G1 X4.7356 Y5.46454 F35
G31 Z-0.0625 F5
G0 Z0.0787
G1 X5.1252 Y5.46454 F35
G31 Z-0.0625 F5
G0 Z0.0787
G1 X5.5148 Y5.46454 F35
G31 Z-0.0625 F5
G0 Z0.0787
G1 X5.9044 Y5.46454 F35
G31 Z-0.0625 F5
G0 Z0.0787
G1 X6.294 Y5.46454 F35
G31 Z-0.0625 F5
G0 Z0.0787
G1 X6.6836 Y5.46454 F35
G31 Z-0.0625 F5
G0 Z0.0787
G1 X7.0732 Y5.46454 F35
G31 Z-0.0625 F5
G0 Z0.0787
G1 X7.4628 Y5.46454 F35
G31 Z-0.0625 F5
G0 Z0.0787
G1 X7.8524 Y5.46454 F35
G31 Z-0.0625 F5
G0 Z0.0787
G1 X8.242 Y5.46454 F35
G31 Z-0.0625 F5
G0 Z0.0787
M41 (Closes the opened log file)
G0 X0.0604 Y0.038 Z1.5
M0 (Detach any clips used for probing)
M30
