(This GCode script was designed to adjust the Z height of a CNC machine according)
(to the minute variations in the surface height in order to achieve a better result in the milling/etching process)
(This script is the output of AutoLevellerAE, 0.9.4u2 Changeset: ...e37a75 @ http://autoleveller.co.uk)
(Author: James Hawthorne PhD. File creation date: 03-05-2018 12:23)
(This program and any of its output is licensed under GPLv2 and as such...)
(AutoLevellerAE comes with ABSOLUTELY NO WARRANTY; for details, see sections 11 and 12 of the GPLv2 @ http://www.gnu.org/licenses/old-licenses/gpl-2.0.html)

(The following is a checklist which can be used before the probe routine starts)
(The checklist may not be entirely correct given your machine, therefore you should make your own adaptations as appropriate)
(1. Make sure wires/clips are attached and the probe is working correctly)
(Test probe connections within control software before starting)
(2. Home all axis)
(3. Load GCode file that contains the probe routine into your software controller)
(4. Jog tool tip close to surface and touch off Z)
(5. Jog Z up a fraction to make sure surface is cleared)
(6. Jog to and touch off X and Y at the desired bottom left corner of the probe area)
(Note: The first probe will touch off Z to 0.0 when it first touches to the surface,)
(all other probe values are relative to this first point)

G90 G20 S20000 G17

M0 (Attach probe wires and clips that need attaching)
(Initialize probe routine)
G0 Z1.5 (Move clear of the board first)
G1 X0 Y0 F35 (Move to bottom left corner)
G0 Z0.0787 (Quick move to probe clearance height)
G31 Z-0.0625 F5 (Probe to a maximum of the specified probe height at the specified feed rate)
G92 Z0 (Touch off Z to 0 once contact is made)
G0 Z0.0787 (Move Z to above the contact point)
G31 Z-0.0625 F2.5 (Repeat at a more accurate slower rate)
G92 Z0
G0 Z0.0787

M40 (Begins a probe log file, when the window appears, enter a name for the log file such as "RawProbeLog.txt")
G0 Z0.0787
G1 X0 Y0 F35
G31 Z-0.0625 F5
G0 Z0.0787
G1 X0.37581 Y0 F35
G31 Z-0.0625 F5
G0 Z0.0787
G1 X0.75162 Y0 F35
G31 Z-0.0625 F5
G0 Z0.0787
G1 X1.12743 Y0 F35
G31 Z-0.0625 F5
G0 Z0.0787
G1 X1.50324 Y0 F35
G31 Z-0.0625 F5
G0 Z0.0787
G1 X1.87905 Y0 F35
G31 Z-0.0625 F5
G0 Z0.0787
G1 X2.25486 Y0 F35
G31 Z-0.0625 F5
G0 Z0.0787
G1 X2.63067 Y0 F35
G31 Z-0.0625 F5
G0 Z0.0787
G1 X3.00648 Y0 F35
G31 Z-0.0625 F5
G0 Z0.0787
G1 X3.38229 Y0 F35
G31 Z-0.0625 F5
G0 Z0.0787
G1 X3.7581 Y0 F35
G31 Z-0.0625 F5
G0 Z0.0787
G1 X4.13391 Y0 F35
G31 Z-0.0625 F5
G0 Z0.0787
G1 X4.50972 Y0 F35
G31 Z-0.0625 F5
G0 Z0.0787
G1 X4.88553 Y0 F35
G31 Z-0.0625 F5
G0 Z0.0787
G1 X5.26134 Y0 F35
G31 Z-0.0625 F5
G0 Z0.0787
G1 X5.63715 Y0 F35
G31 Z-0.0625 F5
G0 Z0.0787
G1 X6.01296 Y0 F35
G31 Z-0.0625 F5
G0 Z0.0787
G1 X6.38877 Y0 F35
G31 Z-0.0625 F5
G0 Z0.0787
G1 X6.76458 Y0 F35
G31 Z-0.0625 F5
G0 Z0.0787
G1 X7.14039 Y0 F35
G31 Z-0.0625 F5
G0 Z0.0787
G1 X7.5162 Y0 F35
G31 Z-0.0625 F5
G0 Z0.0787
G1 X7.89201 Y0 F35
G31 Z-0.0625 F5
G0 Z0.0787
G1 X8.26782 Y0 F35
G31 Z-0.0625 F5
G0 Z0.0787
G1 X8.26782 Y0.3937 F35
G31 Z-0.0625 F5
G0 Z0.0787
G1 X7.89201 Y0.3937 F35
G31 Z-0.0625 F5
G0 Z0.0787
G1 X7.5162 Y0.3937 F35
G31 Z-0.0625 F5
G0 Z0.0787
G1 X7.14039 Y0.3937 F35
G31 Z-0.0625 F5
G0 Z0.0787
G1 X6.76458 Y0.3937 F35
G31 Z-0.0625 F5
G0 Z0.0787
G1 X6.38877 Y0.3937 F35
G31 Z-0.0625 F5
G0 Z0.0787
G1 X6.01296 Y0.3937 F35
G31 Z-0.0625 F5
G0 Z0.0787
G1 X5.63715 Y0.3937 F35
G31 Z-0.0625 F5
G0 Z0.0787
G1 X5.26134 Y0.3937 F35
G31 Z-0.0625 F5
G0 Z0.0787
G1 X4.88553 Y0.3937 F35
G31 Z-0.0625 F5
G0 Z0.0787
G1 X4.50972 Y0.3937 F35
G31 Z-0.0625 F5
G0 Z0.0787
G1 X4.13391 Y0.3937 F35
G31 Z-0.0625 F5
G0 Z0.0787
G1 X3.7581 Y0.3937 F35
G31 Z-0.0625 F5
G0 Z0.0787
G1 X3.38229 Y0.3937 F35
G31 Z-0.0625 F5
G0 Z0.0787
G1 X3.00648 Y0.3937 F35
G31 Z-0.0625 F5
G0 Z0.0787
G1 X2.63067 Y0.3937 F35
G31 Z-0.0625 F5
G0 Z0.0787
G1 X2.25486 Y0.3937 F35
G31 Z-0.0625 F5
G0 Z0.0787
G1 X1.87905 Y0.3937 F35
G31 Z-0.0625 F5
G0 Z0.0787
G1 X1.50324 Y0.3937 F35
G31 Z-0.0625 F5
G0 Z0.0787
G1 X1.12743 Y0.3937 F35
G31 Z-0.0625 F5
G0 Z0.0787
G1 X0.75162 Y0.3937 F35
G31 Z-0.0625 F5
G0 Z0.0787
G1 X0.37581 Y0.3937 F35
G31 Z-0.0625 F5
G0 Z0.0787
G1 X0 Y0.3937 F35
G31 Z-0.0625 F5
G0 Z0.0787
G1 X0 Y0.7874 F35
G31 Z-0.0625 F5
G0 Z0.0787
G1 X0.37581 Y0.7874 F35
G31 Z-0.0625 F5
G0 Z0.0787
G1 X0.75162 Y0.7874 F35
G31 Z-0.0625 F5
G0 Z0.0787
G1 X1.12743 Y0.7874 F35
G31 Z-0.0625 F5
G0 Z0.0787
G1 X1.50324 Y0.7874 F35
G31 Z-0.0625 F5
G0 Z0.0787
G1 X1.87905 Y0.7874 F35
G31 Z-0.0625 F5
G0 Z0.0787
G1 X2.25486 Y0.7874 F35
G31 Z-0.0625 F5
G0 Z0.0787
G1 X2.63067 Y0.7874 F35
G31 Z-0.0625 F5
G0 Z0.0787
G1 X3.00648 Y0.7874 F35
G31 Z-0.0625 F5
G0 Z0.0787
G1 X3.38229 Y0.7874 F35
G31 Z-0.0625 F5
G0 Z0.0787
G1 X3.7581 Y0.7874 F35
G31 Z-0.0625 F5
G0 Z0.0787
G1 X4.13391 Y0.7874 F35
G31 Z-0.0625 F5
G0 Z0.0787
G1 X4.50972 Y0.7874 F35
G31 Z-0.0625 F5
G0 Z0.0787
G1 X4.88553 Y0.7874 F35
G31 Z-0.0625 F5
G0 Z0.0787
G1 X5.26134 Y0.7874 F35
G31 Z-0.0625 F5
G0 Z0.0787
G1 X5.63715 Y0.7874 F35
G31 Z-0.0625 F5
G0 Z0.0787
G1 X6.01296 Y0.7874 F35
G31 Z-0.0625 F5
G0 Z0.0787
G1 X6.38877 Y0.7874 F35
G31 Z-0.0625 F5
G0 Z0.0787
G1 X6.76458 Y0.7874 F35
G31 Z-0.0625 F5
G0 Z0.0787
G1 X7.14039 Y0.7874 F35
G31 Z-0.0625 F5
G0 Z0.0787
G1 X7.5162 Y0.7874 F35
G31 Z-0.0625 F5
G0 Z0.0787
G1 X7.89201 Y0.7874 F35
G31 Z-0.0625 F5
G0 Z0.0787
G1 X8.26782 Y0.7874 F35
G31 Z-0.0625 F5
G0 Z0.0787
G1 X8.26782 Y1.1811 F35
G31 Z-0.0625 F5
G0 Z0.0787
G1 X7.89201 Y1.1811 F35
G31 Z-0.0625 F5
G0 Z0.0787
G1 X7.5162 Y1.1811 F35
G31 Z-0.0625 F5
G0 Z0.0787
G1 X7.14039 Y1.1811 F35
G31 Z-0.0625 F5
G0 Z0.0787
G1 X6.76458 Y1.1811 F35
G31 Z-0.0625 F5
G0 Z0.0787
G1 X6.38877 Y1.1811 F35
G31 Z-0.0625 F5
G0 Z0.0787
G1 X6.01296 Y1.1811 F35
G31 Z-0.0625 F5
G0 Z0.0787
G1 X5.63715 Y1.1811 F35
G31 Z-0.0625 F5
G0 Z0.0787
G1 X5.26134 Y1.1811 F35
G31 Z-0.0625 F5
G0 Z0.0787
G1 X4.88553 Y1.1811 F35
G31 Z-0.0625 F5
G0 Z0.0787
G1 X4.50972 Y1.1811 F35
G31 Z-0.0625 F5
G0 Z0.0787
G1 X4.13391 Y1.1811 F35
G31 Z-0.0625 F5
G0 Z0.0787
G1 X3.7581 Y1.1811 F35
G31 Z-0.0625 F5
G0 Z0.0787
G1 X3.38229 Y1.1811 F35
G31 Z-0.0625 F5
G0 Z0.0787
G1 X3.00648 Y1.1811 F35
G31 Z-0.0625 F5
G0 Z0.0787
G1 X2.63067 Y1.1811 F35
G31 Z-0.0625 F5
G0 Z0.0787
G1 X2.25486 Y1.1811 F35
G31 Z-0.0625 F5
G0 Z0.0787
G1 X1.87905 Y1.1811 F35
G31 Z-0.0625 F5
G0 Z0.0787
G1 X1.50324 Y1.1811 F35
G31 Z-0.0625 F5
G0 Z0.0787
G1 X1.12743 Y1.1811 F35
G31 Z-0.0625 F5
G0 Z0.0787
G1 X0.75162 Y1.1811 F35
G31 Z-0.0625 F5
G0 Z0.0787
G1 X0.37581 Y1.1811 F35
G31 Z-0.0625 F5
G0 Z0.0787
G1 X0 Y1.1811 F35
G31 Z-0.0625 F5
G0 Z0.0787
G1 X0 Y1.5748 F35
G31 Z-0.0625 F5
G0 Z0.0787
G1 X0.37581 Y1.5748 F35
G31 Z-0.0625 F5
G0 Z0.0787
G1 X0.75162 Y1.5748 F35
G31 Z-0.0625 F5
G0 Z0.0787
G1 X1.12743 Y1.5748 F35
G31 Z-0.0625 F5
G0 Z0.0787
G1 X1.50324 Y1.5748 F35
G31 Z-0.0625 F5
G0 Z0.0787
G1 X1.87905 Y1.5748 F35
G31 Z-0.0625 F5
G0 Z0.0787
G1 X2.25486 Y1.5748 F35
G31 Z-0.0625 F5
G0 Z0.0787
G1 X2.63067 Y1.5748 F35
G31 Z-0.0625 F5
G0 Z0.0787
G1 X3.00648 Y1.5748 F35
G31 Z-0.0625 F5
G0 Z0.0787
G1 X3.38229 Y1.5748 F35
G31 Z-0.0625 F5
G0 Z0.0787
G1 X3.7581 Y1.5748 F35
G31 Z-0.0625 F5
G0 Z0.0787
G1 X4.13391 Y1.5748 F35
G31 Z-0.0625 F5
G0 Z0.0787
G1 X4.50972 Y1.5748 F35
G31 Z-0.0625 F5
G0 Z0.0787
G1 X4.88553 Y1.5748 F35
G31 Z-0.0625 F5
G0 Z0.0787
G1 X5.26134 Y1.5748 F35
G31 Z-0.0625 F5
G0 Z0.0787
G1 X5.63715 Y1.5748 F35
G31 Z-0.0625 F5
G0 Z0.0787
G1 X6.01296 Y1.5748 F35
G31 Z-0.0625 F5
G0 Z0.0787
G1 X6.38877 Y1.5748 F35
G31 Z-0.0625 F5
G0 Z0.0787
G1 X6.76458 Y1.5748 F35
G31 Z-0.0625 F5
G0 Z0.0787
G1 X7.14039 Y1.5748 F35
G31 Z-0.0625 F5
G0 Z0.0787
G1 X7.5162 Y1.5748 F35
G31 Z-0.0625 F5
G0 Z0.0787
G1 X7.89201 Y1.5748 F35
G31 Z-0.0625 F5
G0 Z0.0787
G1 X8.26782 Y1.5748 F35
G31 Z-0.0625 F5
G0 Z0.0787
G1 X8.26782 Y1.9685 F35
G31 Z-0.0625 F5
G0 Z0.0787
G1 X7.89201 Y1.9685 F35
G31 Z-0.0625 F5
G0 Z0.0787
G1 X7.5162 Y1.9685 F35
G31 Z-0.0625 F5
G0 Z0.0787
G1 X7.14039 Y1.9685 F35
G31 Z-0.0625 F5
G0 Z0.0787
G1 X6.76458 Y1.9685 F35
G31 Z-0.0625 F5
G0 Z0.0787
G1 X6.38877 Y1.9685 F35
G31 Z-0.0625 F5
G0 Z0.0787
G1 X6.01296 Y1.9685 F35
G31 Z-0.0625 F5
G0 Z0.0787
G1 X5.63715 Y1.9685 F35
G31 Z-0.0625 F5
G0 Z0.0787
G1 X5.26134 Y1.9685 F35
G31 Z-0.0625 F5
G0 Z0.0787
G1 X4.88553 Y1.9685 F35
G31 Z-0.0625 F5
G0 Z0.0787
G1 X4.50972 Y1.9685 F35
G31 Z-0.0625 F5
G0 Z0.0787
G1 X4.13391 Y1.9685 F35
G31 Z-0.0625 F5
G0 Z0.0787
G1 X3.7581 Y1.9685 F35
G31 Z-0.0625 F5
G0 Z0.0787
G1 X3.38229 Y1.9685 F35
G31 Z-0.0625 F5
G0 Z0.0787
G1 X3.00648 Y1.9685 F35
G31 Z-0.0625 F5
G0 Z0.0787
G1 X2.63067 Y1.9685 F35
G31 Z-0.0625 F5
G0 Z0.0787
G1 X2.25486 Y1.9685 F35
G31 Z-0.0625 F5
G0 Z0.0787
G1 X1.87905 Y1.9685 F35
G31 Z-0.0625 F5
G0 Z0.0787
G1 X1.50324 Y1.9685 F35
G31 Z-0.0625 F5
G0 Z0.0787
G1 X1.12743 Y1.9685 F35
G31 Z-0.0625 F5
G0 Z0.0787
G1 X0.75162 Y1.9685 F35
G31 Z-0.0625 F5
G0 Z0.0787
G1 X0.37581 Y1.9685 F35
G31 Z-0.0625 F5
G0 Z0.0787
G1 X0 Y1.9685 F35
G31 Z-0.0625 F5
G0 Z0.0787
G1 X0 Y2.3622 F35
G31 Z-0.0625 F5
G0 Z0.0787
G1 X0.37581 Y2.3622 F35
G31 Z-0.0625 F5
G0 Z0.0787
G1 X0.75162 Y2.3622 F35
G31 Z-0.0625 F5
G0 Z0.0787
G1 X1.12743 Y2.3622 F35
G31 Z-0.0625 F5
G0 Z0.0787
G1 X1.50324 Y2.3622 F35
G31 Z-0.0625 F5
G0 Z0.0787
G1 X1.87905 Y2.3622 F35
G31 Z-0.0625 F5
G0 Z0.0787
G1 X2.25486 Y2.3622 F35
G31 Z-0.0625 F5
G0 Z0.0787
G1 X2.63067 Y2.3622 F35
G31 Z-0.0625 F5
G0 Z0.0787
G1 X3.00648 Y2.3622 F35
G31 Z-0.0625 F5
G0 Z0.0787
G1 X3.38229 Y2.3622 F35
G31 Z-0.0625 F5
G0 Z0.0787
G1 X3.7581 Y2.3622 F35
G31 Z-0.0625 F5
G0 Z0.0787
G1 X4.13391 Y2.3622 F35
G31 Z-0.0625 F5
G0 Z0.0787
G1 X4.50972 Y2.3622 F35
G31 Z-0.0625 F5
G0 Z0.0787
G1 X4.88553 Y2.3622 F35
G31 Z-0.0625 F5
G0 Z0.0787
G1 X5.26134 Y2.3622 F35
G31 Z-0.0625 F5
G0 Z0.0787
G1 X5.63715 Y2.3622 F35
G31 Z-0.0625 F5
G0 Z0.0787
G1 X6.01296 Y2.3622 F35
G31 Z-0.0625 F5
G0 Z0.0787
G1 X6.38877 Y2.3622 F35
G31 Z-0.0625 F5
G0 Z0.0787
G1 X6.76458 Y2.3622 F35
G31 Z-0.0625 F5
G0 Z0.0787
G1 X7.14039 Y2.3622 F35
G31 Z-0.0625 F5
G0 Z0.0787
G1 X7.5162 Y2.3622 F35
G31 Z-0.0625 F5
G0 Z0.0787
G1 X7.89201 Y2.3622 F35
G31 Z-0.0625 F5
G0 Z0.0787
G1 X8.26782 Y2.3622 F35
G31 Z-0.0625 F5
G0 Z0.0787
G1 X8.26782 Y2.7559 F35
G31 Z-0.0625 F5
G0 Z0.0787
G1 X7.89201 Y2.7559 F35
G31 Z-0.0625 F5
G0 Z0.0787
G1 X7.5162 Y2.7559 F35
G31 Z-0.0625 F5
G0 Z0.0787
G1 X7.14039 Y2.7559 F35
G31 Z-0.0625 F5
G0 Z0.0787
G1 X6.76458 Y2.7559 F35
G31 Z-0.0625 F5
G0 Z0.0787
G1 X6.38877 Y2.7559 F35
G31 Z-0.0625 F5
G0 Z0.0787
G1 X6.01296 Y2.7559 F35
G31 Z-0.0625 F5
G0 Z0.0787
G1 X5.63715 Y2.7559 F35
G31 Z-0.0625 F5
G0 Z0.0787
G1 X5.26134 Y2.7559 F35
G31 Z-0.0625 F5
G0 Z0.0787
G1 X4.88553 Y2.7559 F35
G31 Z-0.0625 F5
G0 Z0.0787
G1 X4.50972 Y2.7559 F35
G31 Z-0.0625 F5
G0 Z0.0787
G1 X4.13391 Y2.7559 F35
G31 Z-0.0625 F5
G0 Z0.0787
G1 X3.7581 Y2.7559 F35
G31 Z-0.0625 F5
G0 Z0.0787
G1 X3.38229 Y2.7559 F35
G31 Z-0.0625 F5
G0 Z0.0787
G1 X3.00648 Y2.7559 F35
G31 Z-0.0625 F5
G0 Z0.0787
G1 X2.63067 Y2.7559 F35
G31 Z-0.0625 F5
G0 Z0.0787
G1 X2.25486 Y2.7559 F35
G31 Z-0.0625 F5
G0 Z0.0787
G1 X1.87905 Y2.7559 F35
G31 Z-0.0625 F5
G0 Z0.0787
G1 X1.50324 Y2.7559 F35
G31 Z-0.0625 F5
G0 Z0.0787
G1 X1.12743 Y2.7559 F35
G31 Z-0.0625 F5
G0 Z0.0787
G1 X0.75162 Y2.7559 F35
G31 Z-0.0625 F5
G0 Z0.0787
G1 X0.37581 Y2.7559 F35
G31 Z-0.0625 F5
G0 Z0.0787
G1 X0 Y2.7559 F35
G31 Z-0.0625 F5
G0 Z0.0787
G1 X0 Y3.1496 F35
G31 Z-0.0625 F5
G0 Z0.0787
G1 X0.37581 Y3.1496 F35
G31 Z-0.0625 F5
G0 Z0.0787
G1 X0.75162 Y3.1496 F35
G31 Z-0.0625 F5
G0 Z0.0787
G1 X1.12743 Y3.1496 F35
G31 Z-0.0625 F5
G0 Z0.0787
G1 X1.50324 Y3.1496 F35
G31 Z-0.0625 F5
G0 Z0.0787
G1 X1.87905 Y3.1496 F35
G31 Z-0.0625 F5
G0 Z0.0787
G1 X2.25486 Y3.1496 F35
G31 Z-0.0625 F5
G0 Z0.0787
G1 X2.63067 Y3.1496 F35
G31 Z-0.0625 F5
G0 Z0.0787
G1 X3.00648 Y3.1496 F35
G31 Z-0.0625 F5
G0 Z0.0787
G1 X3.38229 Y3.1496 F35
G31 Z-0.0625 F5
G0 Z0.0787
G1 X3.7581 Y3.1496 F35
G31 Z-0.0625 F5
G0 Z0.0787
G1 X4.13391 Y3.1496 F35
G31 Z-0.0625 F5
G0 Z0.0787
G1 X4.50972 Y3.1496 F35
G31 Z-0.0625 F5
G0 Z0.0787
G1 X4.88553 Y3.1496 F35
G31 Z-0.0625 F5
G0 Z0.0787
G1 X5.26134 Y3.1496 F35
G31 Z-0.0625 F5
G0 Z0.0787
G1 X5.63715 Y3.1496 F35
G31 Z-0.0625 F5
G0 Z0.0787
G1 X6.01296 Y3.1496 F35
G31 Z-0.0625 F5
G0 Z0.0787
G1 X6.38877 Y3.1496 F35
G31 Z-0.0625 F5
G0 Z0.0787
G1 X6.76458 Y3.1496 F35
G31 Z-0.0625 F5
G0 Z0.0787
G1 X7.14039 Y3.1496 F35
G31 Z-0.0625 F5
G0 Z0.0787
G1 X7.5162 Y3.1496 F35
G31 Z-0.0625 F5
G0 Z0.0787
G1 X7.89201 Y3.1496 F35
G31 Z-0.0625 F5
G0 Z0.0787
G1 X8.26782 Y3.1496 F35
G31 Z-0.0625 F5
G0 Z0.0787
G1 X8.26782 Y3.5433 F35
G31 Z-0.0625 F5
G0 Z0.0787
G1 X7.89201 Y3.5433 F35
G31 Z-0.0625 F5
G0 Z0.0787
G1 X7.5162 Y3.5433 F35
G31 Z-0.0625 F5
G0 Z0.0787
G1 X7.14039 Y3.5433 F35
G31 Z-0.0625 F5
G0 Z0.0787
G1 X6.76458 Y3.5433 F35
G31 Z-0.0625 F5
G0 Z0.0787
G1 X6.38877 Y3.5433 F35
G31 Z-0.0625 F5
G0 Z0.0787
G1 X6.01296 Y3.5433 F35
G31 Z-0.0625 F5
G0 Z0.0787
G1 X5.63715 Y3.5433 F35
G31 Z-0.0625 F5
G0 Z0.0787
G1 X5.26134 Y3.5433 F35
G31 Z-0.0625 F5
G0 Z0.0787
G1 X4.88553 Y3.5433 F35
G31 Z-0.0625 F5
G0 Z0.0787
G1 X4.50972 Y3.5433 F35
G31 Z-0.0625 F5
G0 Z0.0787
G1 X4.13391 Y3.5433 F35
G31 Z-0.0625 F5
G0 Z0.0787
G1 X3.7581 Y3.5433 F35
G31 Z-0.0625 F5
G0 Z0.0787
G1 X3.38229 Y3.5433 F35
G31 Z-0.0625 F5
G0 Z0.0787
G1 X3.00648 Y3.5433 F35
G31 Z-0.0625 F5
G0 Z0.0787
G1 X2.63067 Y3.5433 F35
G31 Z-0.0625 F5
G0 Z0.0787
G1 X2.25486 Y3.5433 F35
G31 Z-0.0625 F5
G0 Z0.0787
G1 X1.87905 Y3.5433 F35
G31 Z-0.0625 F5
G0 Z0.0787
G1 X1.50324 Y3.5433 F35
G31 Z-0.0625 F5
G0 Z0.0787
G1 X1.12743 Y3.5433 F35
G31 Z-0.0625 F5
G0 Z0.0787
G1 X0.75162 Y3.5433 F35
G31 Z-0.0625 F5
G0 Z0.0787
G1 X0.37581 Y3.5433 F35
G31 Z-0.0625 F5
G0 Z0.0787
G1 X0 Y3.5433 F35
G31 Z-0.0625 F5
G0 Z0.0787
G1 X0 Y3.937 F35
G31 Z-0.0625 F5
G0 Z0.0787
G1 X0.37581 Y3.937 F35
G31 Z-0.0625 F5
G0 Z0.0787
G1 X0.75162 Y3.937 F35
G31 Z-0.0625 F5
G0 Z0.0787
G1 X1.12743 Y3.937 F35
G31 Z-0.0625 F5
G0 Z0.0787
G1 X1.50324 Y3.937 F35
G31 Z-0.0625 F5
G0 Z0.0787
G1 X1.87905 Y3.937 F35
G31 Z-0.0625 F5
G0 Z0.0787
G1 X2.25486 Y3.937 F35
G31 Z-0.0625 F5
G0 Z0.0787
G1 X2.63067 Y3.937 F35
G31 Z-0.0625 F5
G0 Z0.0787
G1 X3.00648 Y3.937 F35
G31 Z-0.0625 F5
G0 Z0.0787
G1 X3.38229 Y3.937 F35
G31 Z-0.0625 F5
G0 Z0.0787
G1 X3.7581 Y3.937 F35
G31 Z-0.0625 F5
G0 Z0.0787
G1 X4.13391 Y3.937 F35
G31 Z-0.0625 F5
G0 Z0.0787
G1 X4.50972 Y3.937 F35
G31 Z-0.0625 F5
G0 Z0.0787
G1 X4.88553 Y3.937 F35
G31 Z-0.0625 F5
G0 Z0.0787
G1 X5.26134 Y3.937 F35
G31 Z-0.0625 F5
G0 Z0.0787
G1 X5.63715 Y3.937 F35
G31 Z-0.0625 F5
G0 Z0.0787
G1 X6.01296 Y3.937 F35
G31 Z-0.0625 F5
G0 Z0.0787
G1 X6.38877 Y3.937 F35
G31 Z-0.0625 F5
G0 Z0.0787
G1 X6.76458 Y3.937 F35
G31 Z-0.0625 F5
G0 Z0.0787
G1 X7.14039 Y3.937 F35
G31 Z-0.0625 F5
G0 Z0.0787
G1 X7.5162 Y3.937 F35
G31 Z-0.0625 F5
G0 Z0.0787
G1 X7.89201 Y3.937 F35
G31 Z-0.0625 F5
G0 Z0.0787
G1 X8.26782 Y3.937 F35
G31 Z-0.0625 F5
G0 Z0.0787
G1 X8.26782 Y4.3307 F35
G31 Z-0.0625 F5
G0 Z0.0787
G1 X7.89201 Y4.3307 F35
G31 Z-0.0625 F5
G0 Z0.0787
G1 X7.5162 Y4.3307 F35
G31 Z-0.0625 F5
G0 Z0.0787
G1 X7.14039 Y4.3307 F35
G31 Z-0.0625 F5
G0 Z0.0787
G1 X6.76458 Y4.3307 F35
G31 Z-0.0625 F5
G0 Z0.0787
G1 X6.38877 Y4.3307 F35
G31 Z-0.0625 F5
G0 Z0.0787
G1 X6.01296 Y4.3307 F35
G31 Z-0.0625 F5
G0 Z0.0787
G1 X5.63715 Y4.3307 F35
G31 Z-0.0625 F5
G0 Z0.0787
G1 X5.26134 Y4.3307 F35
G31 Z-0.0625 F5
G0 Z0.0787
G1 X4.88553 Y4.3307 F35
G31 Z-0.0625 F5
G0 Z0.0787
G1 X4.50972 Y4.3307 F35
G31 Z-0.0625 F5
G0 Z0.0787
G1 X4.13391 Y4.3307 F35
G31 Z-0.0625 F5
G0 Z0.0787
G1 X3.7581 Y4.3307 F35
G31 Z-0.0625 F5
G0 Z0.0787
G1 X3.38229 Y4.3307 F35
G31 Z-0.0625 F5
G0 Z0.0787
G1 X3.00648 Y4.3307 F35
G31 Z-0.0625 F5
G0 Z0.0787
G1 X2.63067 Y4.3307 F35
G31 Z-0.0625 F5
G0 Z0.0787
G1 X2.25486 Y4.3307 F35
G31 Z-0.0625 F5
G0 Z0.0787
G1 X1.87905 Y4.3307 F35
G31 Z-0.0625 F5
G0 Z0.0787
G1 X1.50324 Y4.3307 F35
G31 Z-0.0625 F5
G0 Z0.0787
G1 X1.12743 Y4.3307 F35
G31 Z-0.0625 F5
G0 Z0.0787
G1 X0.75162 Y4.3307 F35
G31 Z-0.0625 F5
G0 Z0.0787
G1 X0.37581 Y4.3307 F35
G31 Z-0.0625 F5
G0 Z0.0787
G1 X0 Y4.3307 F35
G31 Z-0.0625 F5
G0 Z0.0787
G1 X0 Y4.7244 F35
G31 Z-0.0625 F5
G0 Z0.0787
G1 X0.37581 Y4.7244 F35
G31 Z-0.0625 F5
G0 Z0.0787
G1 X0.75162 Y4.7244 F35
G31 Z-0.0625 F5
G0 Z0.0787
G1 X1.12743 Y4.7244 F35
G31 Z-0.0625 F5
G0 Z0.0787
G1 X1.50324 Y4.7244 F35
G31 Z-0.0625 F5
G0 Z0.0787
G1 X1.87905 Y4.7244 F35
G31 Z-0.0625 F5
G0 Z0.0787
G1 X2.25486 Y4.7244 F35
G31 Z-0.0625 F5
G0 Z0.0787
G1 X2.63067 Y4.7244 F35
G31 Z-0.0625 F5
G0 Z0.0787
G1 X3.00648 Y4.7244 F35
G31 Z-0.0625 F5
G0 Z0.0787
G1 X3.38229 Y4.7244 F35
G31 Z-0.0625 F5
G0 Z0.0787
G1 X3.7581 Y4.7244 F35
G31 Z-0.0625 F5
G0 Z0.0787
G1 X4.13391 Y4.7244 F35
G31 Z-0.0625 F5
G0 Z0.0787
G1 X4.50972 Y4.7244 F35
G31 Z-0.0625 F5
G0 Z0.0787
G1 X4.88553 Y4.7244 F35
G31 Z-0.0625 F5
G0 Z0.0787
G1 X5.26134 Y4.7244 F35
G31 Z-0.0625 F5
G0 Z0.0787
G1 X5.63715 Y4.7244 F35
G31 Z-0.0625 F5
G0 Z0.0787
G1 X6.01296 Y4.7244 F35
G31 Z-0.0625 F5
G0 Z0.0787
G1 X6.38877 Y4.7244 F35
G31 Z-0.0625 F5
G0 Z0.0787
G1 X6.76458 Y4.7244 F35
G31 Z-0.0625 F5
G0 Z0.0787
G1 X7.14039 Y4.7244 F35
G31 Z-0.0625 F5
G0 Z0.0787
G1 X7.5162 Y4.7244 F35
G31 Z-0.0625 F5
G0 Z0.0787
G1 X7.89201 Y4.7244 F35
G31 Z-0.0625 F5
G0 Z0.0787
G1 X8.26782 Y4.7244 F35
G31 Z-0.0625 F5
G0 Z0.0787
G1 X8.26782 Y5.1181 F35
G31 Z-0.0625 F5
G0 Z0.0787
G1 X7.89201 Y5.1181 F35
G31 Z-0.0625 F5
G0 Z0.0787
G1 X7.5162 Y5.1181 F35
G31 Z-0.0625 F5
G0 Z0.0787
G1 X7.14039 Y5.1181 F35
G31 Z-0.0625 F5
G0 Z0.0787
G1 X6.76458 Y5.1181 F35
G31 Z-0.0625 F5
G0 Z0.0787
G1 X6.38877 Y5.1181 F35
G31 Z-0.0625 F5
G0 Z0.0787
G1 X6.01296 Y5.1181 F35
G31 Z-0.0625 F5
G0 Z0.0787
G1 X5.63715 Y5.1181 F35
G31 Z-0.0625 F5
G0 Z0.0787
G1 X5.26134 Y5.1181 F35
G31 Z-0.0625 F5
G0 Z0.0787
G1 X4.88553 Y5.1181 F35
G31 Z-0.0625 F5
G0 Z0.0787
G1 X4.50972 Y5.1181 F35
G31 Z-0.0625 F5
G0 Z0.0787
G1 X4.13391 Y5.1181 F35
G31 Z-0.0625 F5
G0 Z0.0787
G1 X3.7581 Y5.1181 F35
G31 Z-0.0625 F5
G0 Z0.0787
G1 X3.38229 Y5.1181 F35
G31 Z-0.0625 F5
G0 Z0.0787
G1 X3.00648 Y5.1181 F35
G31 Z-0.0625 F5
G0 Z0.0787
G1 X2.63067 Y5.1181 F35
G31 Z-0.0625 F5
G0 Z0.0787
G1 X2.25486 Y5.1181 F35
G31 Z-0.0625 F5
G0 Z0.0787
G1 X1.87905 Y5.1181 F35
G31 Z-0.0625 F5
G0 Z0.0787
G1 X1.50324 Y5.1181 F35
G31 Z-0.0625 F5
G0 Z0.0787
G1 X1.12743 Y5.1181 F35
G31 Z-0.0625 F5
G0 Z0.0787
G1 X0.75162 Y5.1181 F35
G31 Z-0.0625 F5
G0 Z0.0787
G1 X0.37581 Y5.1181 F35
G31 Z-0.0625 F5
G0 Z0.0787
G1 X0 Y5.1181 F35
G31 Z-0.0625 F5
G0 Z0.0787
G1 X0 Y5.5118 F35
G31 Z-0.0625 F5
G0 Z0.0787
G1 X0.37581 Y5.5118 F35
G31 Z-0.0625 F5
G0 Z0.0787
G1 X0.75162 Y5.5118 F35
G31 Z-0.0625 F5
G0 Z0.0787
G1 X1.12743 Y5.5118 F35
G31 Z-0.0625 F5
G0 Z0.0787
G1 X1.50324 Y5.5118 F35
G31 Z-0.0625 F5
G0 Z0.0787
G1 X1.87905 Y5.5118 F35
G31 Z-0.0625 F5
G0 Z0.0787
G1 X2.25486 Y5.5118 F35
G31 Z-0.0625 F5
G0 Z0.0787
G1 X2.63067 Y5.5118 F35
G31 Z-0.0625 F5
G0 Z0.0787
G1 X3.00648 Y5.5118 F35
G31 Z-0.0625 F5
G0 Z0.0787
G1 X3.38229 Y5.5118 F35
G31 Z-0.0625 F5
G0 Z0.0787
G1 X3.7581 Y5.5118 F35
G31 Z-0.0625 F5
G0 Z0.0787
G1 X4.13391 Y5.5118 F35
G31 Z-0.0625 F5
G0 Z0.0787
G1 X4.50972 Y5.5118 F35
G31 Z-0.0625 F5
G0 Z0.0787
G1 X4.88553 Y5.5118 F35
G31 Z-0.0625 F5
G0 Z0.0787
G1 X5.26134 Y5.5118 F35
G31 Z-0.0625 F5
G0 Z0.0787
G1 X5.63715 Y5.5118 F35
G31 Z-0.0625 F5
G0 Z0.0787
G1 X6.01296 Y5.5118 F35
G31 Z-0.0625 F5
G0 Z0.0787
G1 X6.38877 Y5.5118 F35
G31 Z-0.0625 F5
G0 Z0.0787
G1 X6.76458 Y5.5118 F35
G31 Z-0.0625 F5
G0 Z0.0787
G1 X7.14039 Y5.5118 F35
G31 Z-0.0625 F5
G0 Z0.0787
G1 X7.5162 Y5.5118 F35
G31 Z-0.0625 F5
G0 Z0.0787
G1 X7.89201 Y5.5118 F35
G31 Z-0.0625 F5
G0 Z0.0787
G1 X8.26782 Y5.5118 F35
G31 Z-0.0625 F5
G0 Z0.0787
M41 (Closes the opened log file)
G0 X0 Y0 Z1.5
M0 (Detach any clips used for probing)
M30
